; generated by PrusaSlicer 2.4.2+win64 on 2022-08-17 at 13:17:43 UTC


;
;
; 

; external perimeters extrusion width = 0.45mm
; perimeters extrusion width = 0.45mm
; infill extrusion width = 0.45mm
; solid infill extrusion width = 0.45mm
; top infill extrusion width = 0.40mm
; first layer extrusion width = 0.42mm

; external perimeters extrusion width = 0.45mm
; perimeters extrusion width = 0.45mm
; infill extrusion width = 0.45mm
; solid infill extrusion width = 0.45mm
; top infill extrusion width = 0.40mm
; first layer extrusion width = 0.42mm

M73 P0 R7
M73 Q0 S7
M201 X1000 Y1000 Z200 E5000 ; sets maximum accelerations, mm/sec^2
M203 X200 Y200 Z12 E120 ; sets maximum feedrates, mm / sec
M204 P1250 R1250 T1250 ; sets acceleration (P, T) and retract acceleration (R), mm/sec^2
M205 X8.00 Y8.00 Z0.40 E4.50 ; sets the jerk limits, mm/sec
M205 S0 T0 ; sets the minimum extruding and travel feed rate, mm/sec
M107
;TYPE:Custom
M862.3 P "MK3S" ; printer model check
M862.1 P0.4 ; nozzle diameter check
M115 U3.11.0 ; tell printer latest fw version
G90 ; use absolute coordinates
M83 ; extruder relative mode
M104 S230 ; set extruder temp
M140 S85 ; set bed temp
M190 S85 ; wait for bed temp
M109 S230 ; wait for extruder temp
G28 W ; home all without mesh bed level
G80 ; mesh bed leveling

G1 Z0.2 F720
G1 Y-3 F1000 ; go outside print area
G92 E0
G1 X60 E9 F1000 ; intro line
G1 X100 E12.5 F1000 ; intro line

G92 E0
M221 S95

; Don't change E values below. Excessive value can damage the printer.
M907 E430 ; set extruder motor current
G21 ; set units to millimeters
G90 ; use absolute coordinates
M83 ; use relative distances for extrusion
M900 K0.08 ; Filament gcode LA 1.5
M900 K45 ; Filament gcode LA 1.0
M107
;LAYER_CHANGE
;Z:0.2
;HEIGHT:0.2
;BEFORE_LAYER_CHANGE
G92 E0.0
;0.2


G1 E-1 F2100
M73 P1 R7
M73 Q1 S7
G1 Z.2 F720
;AFTER_LAYER_CHANGE
;0.2
G1 Z.4
G1 X116.126 Y97.523 F10800
G1 Z.2 F720
G1 E1 F2100
M204 S800
;TYPE:Skirt/Brim
;WIDTH:0.42
G1 F1200
G1 X116.922 Y96.669 E.03658
G1 X117.716 Y95.967 E.03325
G1 X118.7 Y95.255 E.03808
G1 X119.71 Y94.672 E.03658
G1 X120.675 Y94.232 E.03325
G1 X121.778 Y93.852 E.03658
G1 X122.809 Y93.605 E.03325
G1 X123.965 Y93.442 E.03658
G1 X125.178 Y93.397 E.03808
G1 X126.263 Y93.465 E.03408
G1 X127.436 Y93.654 E.03725
G1 X128.563 Y93.956 E.03658
G1 X129.556 Y94.328 E.03325
G1 X130.605 Y94.839 E.03658
G1 X131.509 Y95.393 E.03325
G1 X132.441 Y96.095 E.03658
G1 X133.331 Y96.922 E.03808
G1 X134.033 Y97.716 E.03325
G1 X134.719 Y98.66 E.03658
G1 X135.257 Y99.573 E.03325
G1 X135.768 Y100.675 E.03808
M73 Q2 S7
G1 X136.161 Y101.825 E.03808
G1 X136.424 Y102.961 E.03658
G1 X136.562 Y104.013 E.03325
G1 X136.603 Y105.178 E.03658
G1 X136.538 Y106.237 E.03324
M73 P2 R7
G1 X136.355 Y107.389 E.03658
G1 X136.09 Y108.416 E.03325
G1 X135.672 Y109.556 E.03808
G1 X135.161 Y110.605 E.03658
G1 X134.607 Y111.509 E.03325
G1 X133.874 Y112.477 E.03808
G1 X133.078 Y113.331 E.03658
G1 X132.284 Y114.033 E.03325
G1 X131.34 Y114.719 E.03658
G1 X130.427 Y115.257 E.03325
G1 X129.325 Y115.768 E.03808
G1 X128.175 Y116.161 E.03808
G1 X127.039 Y116.424 E.03658
G1 X125.987 Y116.562 E.03325
G1 X124.822 Y116.603 E.03658
G1 X123.737 Y116.535 E.03408
G1 X122.564 Y116.346 E.03725
G1 X121.437 Y116.044 E.03658
G1 X120.444 Y115.672 E.03325
G1 X119.395 Y115.161 E.03658
G1 X118.491 Y114.607 E.03325
G1 X117.559 Y113.905 E.03658
G1 X116.669 Y113.078 E.03808
G1 X115.967 Y112.284 E.03325
G1 X115.281 Y111.34 E.03658
G1 X114.743 Y110.427 E.03325
G1 X114.232 Y109.325 E.03808
G1 X113.852 Y108.222 E.03658
M73 P2 R6
G1 X113.605 Y107.191 E.03325
G1 X113.442 Y106.035 E.03658
G1 X113.397 Y104.822 E.03808
G1 X113.465 Y103.737 E.03408
G1 X113.654 Y102.564 E.03725
G1 X113.956 Y101.437 E.03658
G1 X114.328 Y100.444 E.03325
G1 X114.839 Y99.395 E.03658
G1 X115.408 Y98.469 E.03408
G1 X116.09 Y97.57 E.03537
M204 S1000
G1 X116.39 Y97.798 F10800
M204 S800
G1 F1200
G1 X117.186 Y96.938 E.03673
G1 X117.951 Y96.262 E.03201
G1 X118.903 Y95.573 E.03684
G1 X119.885 Y95.006 E.03555
G1 X120.813 Y94.583 E.03201
G1 X121.885 Y94.214 E.03555
G1 X122.878 Y93.975 E.03201
G1 X124.042 Y93.814 E.03684
G1 X125.175 Y93.774 E.03555
G1 X126.194 Y93.837 E.03201
G1 X127.354 Y94.023 E.03684
G1 X128.45 Y94.316 E.03555
G1 X129.406 Y94.674 E.03201
G1 X130.425 Y95.171 E.03555
G1 X131.295 Y95.704 E.03201
G1 X132.201 Y96.386 E.03554
G1 X133.062 Y97.186 E.03685
G1 X133.738 Y97.951 E.03201
G1 X134.404 Y98.868 E.03555
G1 X134.923 Y99.748 E.03201
G1 X135.417 Y100.814 E.03684
G1 X135.786 Y101.885 E.03555
G1 X136.053 Y103.03 E.03684
G1 X136.186 Y104.042 E.03201
G1 X136.226 Y105.175 E.03555
G1 X136.146 Y106.348 E.03684
G1 X135.977 Y107.354 E.03201
G1 X135.684 Y108.45 E.03555
G1 X135.326 Y109.406 E.03201
G1 X134.829 Y110.425 E.03555
G1 X134.296 Y111.295 E.03201
M73 Q2 S6
G1 X133.587 Y112.232 E.03684
G1 X132.814 Y113.062 E.03555
M73 Q3 S6
G1 X131.928 Y113.834 E.03685
G1 X131.097 Y114.427 E.03201
G1 X130.115 Y114.994 E.03555
G1 X129.186 Y115.417 E.03201
G1 X128.115 Y115.786 E.03555
G1 X126.97 Y116.053 E.03685
M73 P3 R6
G1 X125.958 Y116.186 E.03201
G1 X124.825 Y116.226 E.03555
G1 X123.779 Y116.16 E.03284
G1 X122.646 Y115.977 E.03601
G1 X121.55 Y115.684 E.03555
G1 X120.594 Y115.326 E.03201
G1 X119.575 Y114.829 E.03555
G1 X118.705 Y114.296 E.03201
G1 X117.768 Y113.587 E.03685
G1 X116.938 Y112.814 E.03555
G1 X116.262 Y112.049 E.03201
G1 X115.596 Y111.132 E.03555
G1 X115.077 Y110.252 E.03201
G1 X114.583 Y109.187 E.03684
G1 X114.214 Y108.115 E.03555
G1 X113.975 Y107.122 E.03201
G1 X113.814 Y105.958 E.03685
G1 X113.774 Y104.825 E.03555
G1 X113.84 Y103.779 E.03284
G1 X114.023 Y102.646 E.03601
G1 X114.316 Y101.55 E.03555
G1 X114.674 Y100.594 E.03201
G1 X115.171 Y99.575 E.03555
G1 X115.719 Y98.683 E.03284
G1 X116.354 Y97.846 E.03294
M204 S1000
; printing object Shape-Cylinder id:1 copy 0
;WIPE_START
G1 F8640
G1 X117.186 Y96.938 E-.2843
G1 X117.951 Y96.262 E-.23574
G1 X118.903 Y95.573 E-.27132
G1 X119.498 Y95.229 E-.15864
;WIPE_END
G1 E-.05 F2100
G1 Z.4 F720
G1 X124.436 Y104.62 F10800
G1 Z.2 F720
G1 E1 F2100
M204 S800
;TYPE:Perimeter
G1 F1200
G1 X124.517 Y104.521 E.00401
G1 X124.632 Y104.428 E.00462
G1 X124.87 Y104.332 E.00806
G1 X124.998 Y104.32 E.00403
G1 X125.144 Y104.335 E.0046
G1 X125.38 Y104.436 E.00806
G1 X125.564 Y104.62 E.00814
G1 X125.625 Y104.732 E.00403
G1 X125.668 Y104.873 E.0046
G1 X125.668 Y105.13 E.00806
G1 X125.631 Y105.253 E.00403
G1 X125.562 Y105.382 E.0046
G1 X125.382 Y105.562 E.00798
G1 X125.252 Y105.631 E.00462
G1 X125.13 Y105.668 E.00401
G1 X124.87 Y105.668 E.00814
G1 X124.747 Y105.631 E.00403
G1 X124.618 Y105.562 E.0046
G1 X124.436 Y105.38 E.00806
G1 X124.375 Y105.268 E.00403
G1 X124.332 Y105.127 E.0046
G1 X124.332 Y104.872 E.008
G1 X124.407 Y104.672 E.0067
M204 S1000
G1 X124.2 Y104.314 F10800
M204 S800
;TYPE:External perimeter
G1 F1200
G1 X124.424 Y104.111 E.00947
G1 X124.603 Y104.018 E.00634
G1 X124.798 Y103.96 E.00636
G1 X125 Y103.941 E.00636
G1 X125.221 Y103.964 E.00698
G1 X125.414 Y104.025 E.00634
G1 X125.592 Y104.122 E.00637
G1 X125.749 Y104.251 E.00637
G1 X125.878 Y104.408 E.00636
G1 X125.975 Y104.586 E.00636
G1 X126.04 Y104.799 E.00698
G1 X126.059 Y105 E.00634
G1 X126.04 Y105.202 E.00636
G1 X125.982 Y105.396 E.00636
G1 X125.877 Y105.593 E.00698
G1 X125.749 Y105.749 E.00634
G1 X125.593 Y105.877 E.00634
G1 X125.396 Y105.982 E.007
G1 X125.202 Y106.04 E.00634
G1 X125 Y106.059 E.00637
G1 X124.798 Y106.04 E.00636
G1 X124.604 Y105.982 E.00636
G1 X124.407 Y105.877 E.00698
G1 X124.251 Y105.749 E.00634
G1 X124.122 Y105.592 E.00636
G1 X124.025 Y105.414 E.00636
G1 X123.96 Y105.201 E.00698
G1 X123.941 Y105 E.00634
G1 X123.96 Y104.798 E.00636
G1 X124.026 Y104.585 E.00698
G1 X124.161 Y104.36 E.00825
M204 S1000
G1 X124.496 Y104.37 F10800
G1 X124.976 Y104.436
M204 S800
;TYPE:Solid infill
;WIDTH:0.4253
G1 F1200
G1 X125.339 Y104.799 E.01633
G1 X125.385 Y104.915 E.00396
G1 X125.385 Y105.089 E.00552
G1 X125.368 Y105.145 E.00188
G1 X125.272 Y105.272 E.00507
G1 X124.72 Y104.721 E.02482
G1 X124.672 Y104.778 E.00241
G1 X124.615 Y104.915 E.00469
G1 X124.615 Y105.085 E.00542
G1 X124.637 Y105.158 E.00241
G1 X124.661 Y105.202 E.00161
G1 X125.014 Y105.555 E.01585
M204 S1000
; stop printing object Shape-Cylinder id:1 copy 0
; printing object Shape-Cylinder id:0 copy 0
;WIPE_START
G1 F8640
G1 X124.661 Y105.202 E-.11509
G1 X124.637 Y105.158 E-.01168
G1 X124.615 Y105.085 E-.01752
G1 X124.615 Y104.915 E-.03938
G1 X124.672 Y104.778 E-.03404
G1 X124.72 Y104.721 E-.01747
G1 X125.272 Y105.272 E-.18022
G1 X125.368 Y105.145 E-.03681
G1 X125.385 Y105.089 E-.01364
G1 X125.385 Y104.915 E-.04012
G1 X125.339 Y104.799 E-.02878
G1 X124.976 Y104.436 E-.11856
;WIPE_END
G1 E-.34669 F2100
G1 Z.4 F720
G1 X125 Y113.062 F10800
G1 Z.2 F720
G1 E1 F2100
M204 S800
;TYPE:Perimeter
;WIDTH:0.42
G1 F1200
G1 X124.157 Y113.018 E.02646
G1 X123.324 Y112.886 E.02646
G1 X122.506 Y112.667 E.02654
G1 X121.85 Y112.421 E.02197
G1 X121.211 Y112.116 E.02222
G1 X120.492 Y111.684 E.0263
G1 X119.816 Y111.174 E.02654
G1 X119.301 Y110.703 E.02189
G1 X118.733 Y110.072 E.02662
G1 X118.318 Y109.511 E.02189
G1 X117.88 Y108.783 E.02662
G1 X117.577 Y108.145 E.02214
G1 X117.29 Y107.357 E.0263
G1 X117.086 Y106.538 E.02646
G1 X116.968 Y105.7 E.02654
G1 X116.938 Y105.003 E.02189
G1 X116.982 Y104.157 E.02654
G1 X117.114 Y103.324 E.02646
G1 X117.333 Y102.506 E.02654
G1 X117.579 Y101.85 E.02197
G1 X117.88 Y101.217 E.02197
G1 X118.318 Y100.49 E.02662
M73 Q4 S6
G1 X118.733 Y99.928 E.02189
G1 X119.299 Y99.299 E.02654
G1 X119.926 Y98.735 E.02646
G1 X120.611 Y98.237 E.02653
G1 X121.22 Y97.879 E.02214
G1 X121.982 Y97.524 E.02638
G1 X122.64 Y97.291 E.02189
M73 P4 R6
G1 X123.462 Y97.086 E.02654
G1 X124.3 Y96.968 E.02653
G1 X125.005 Y96.938 E.02214
G1 X125.843 Y96.982 E.0263
G1 X126.676 Y97.114 E.02646
G1 X127.494 Y97.333 E.02654
G1 X128.15 Y97.579 E.02197
G1 X128.783 Y97.88 E.02197
G1 X129.511 Y98.318 E.02662
G1 X130.072 Y98.733 E.02189
G1 X130.701 Y99.299 E.02654
G1 X131.267 Y99.928 E.02654
G1 X131.683 Y100.49 E.02189
G1 X132.12 Y101.217 E.02662
G1 X132.42 Y101.848 E.02189
G1 X132.71 Y102.643 E.02654
G1 X132.915 Y103.464 E.02653
G1 X133.019 Y104.162 E.02214
G1 X133.062 Y105.002 E.02637
G1 X133.031 Y105.708 E.02214
G1 X132.914 Y106.538 E.02629
G1 X132.71 Y107.357 E.02646
G1 X132.42 Y108.152 E.02654
G1 X132.12 Y108.783 E.0219
G1 X131.683 Y109.51 E.02662
G1 X131.262 Y110.078 E.02213
G1 X130.699 Y110.703 E.02638
G1 X130.184 Y111.174 E.0219
G1 X129.508 Y111.684 E.02654
G1 X128.783 Y112.12 E.02654
G1 X128.145 Y112.423 E.02214
G1 X127.357 Y112.71 E.0263
G1 X126.536 Y112.915 E.02654
G1 X125.838 Y113.019 E.02214
G1 X125.06 Y113.059 E.02442
M204 S1000
G1 X125 Y113.44 F10800
M204 S800
;TYPE:External perimeter
G1 F1200
G1 X124.118 Y113.393 E.0277
G1 X123.245 Y113.255 E.0277
G1 X122.391 Y113.026 E.02773
G1 X121.702 Y112.769 E.02306
G1 X121.032 Y112.449 E.0233
G1 X120.281 Y111.997 E.02748
G1 X119.574 Y111.465 E.02773
G1 X119.033 Y110.968 E.02303
G1 X118.441 Y110.311 E.02776
G1 X118.004 Y109.72 E.02303
G1 X117.548 Y108.961 E.02776
G1 X117.229 Y108.291 E.02327
G1 X116.929 Y107.468 E.02748
G1 X116.715 Y106.61 E.0277
G1 X116.592 Y105.735 E.02773
G1 X116.56 Y105.001 E.02303
G1 X116.607 Y104.118 E.02773
G1 X116.745 Y103.245 E.0277
G1 X116.974 Y102.391 E.02773
G1 X117.231 Y101.702 E.02306
G1 X117.548 Y101.039 E.02306
G1 X118.004 Y100.28 E.02776
G1 X118.44 Y99.689 E.02303
G1 X119.032 Y99.032 E.02773
G1 X119.689 Y98.441 E.0277
G1 X120.404 Y97.921 E.02773
G1 X121.044 Y97.545 E.02328
G1 X121.839 Y97.174 E.02751
G1 X122.532 Y96.929 E.02303
G1 X123.39 Y96.715 E.02773
G1 X124.265 Y96.592 E.02773
G1 X125.007 Y96.56 E.02328
G1 X125.882 Y96.607 E.02748
G1 X126.755 Y96.745 E.0277
G1 X127.609 Y96.974 E.02773
G1 X128.298 Y97.231 E.02305
G1 X128.961 Y97.548 E.02306
G1 X129.72 Y98.004 E.02776
G1 X130.311 Y98.441 E.02303
G1 X130.968 Y99.032 E.02772
G1 X131.56 Y99.689 E.02773
G1 X131.996 Y100.28 E.02303
G1 X132.452 Y101.039 E.02775
G1 X132.768 Y101.702 E.02303
G1 X133.071 Y102.532 E.02773
G1 X133.285 Y103.39 E.02772
G1 X133.394 Y104.125 E.02328
G1 X133.44 Y105.001 E.02751
G1 X133.407 Y105.742 E.02328
G1 X133.285 Y106.61 E.02748
G1 X133.071 Y107.468 E.0277
G1 X132.769 Y108.298 E.02773
G1 X132.452 Y108.961 E.02303
G1 X131.996 Y109.72 E.02775
G1 X131.555 Y110.317 E.02327
G1 X130.967 Y110.968 E.02751
G1 X130.426 Y111.465 E.02303
G1 X129.719 Y111.997 E.02773
G1 X128.961 Y112.452 E.02773
G1 X128.291 Y112.771 E.02327
G1 X127.468 Y113.071 E.02748
G1 X126.61 Y113.285 E.02773
G1 X125.875 Y113.394 E.02328
M73 Q5 S6
G1 X125.06 Y113.437 E.0256
M204 S1000
G1 X124.801 Y113.093 F10800
;WIPE_START
G1 F8640
G1 X124.118 Y113.393 E-.21777
G1 X123.245 Y113.255 E-.20398
G1 X122.391 Y113.026 E-.20418
G1 X121.702 Y112.769 E-.16979
G1 X121.099 Y112.481 E-.15428
;WIPE_END
G1 E-.05 F2100
G1 Z.4 F720
M73 P5 R6
G1 X129.357 Y98.357 F10800
G1 Z.2 F720
G1 E1 F2100
M204 S800
;TYPE:Solid infill
;WIDTH:0.422338
G1 F1200
G1 X130.513 Y99.513 E.05157
G1 X131.048 Y100.107 E.02523
G1 X131.447 Y100.647 E.02117
G1 X131.921 Y101.458 E.02965
G1 X128.542 Y98.079 E.15079
G1 X128.04 Y97.839 E.01755
G1 X127.602 Y97.676 E.01474
G1 X132.317 Y102.39 E.21036
G1 X132.439 Y102.726 E.01125
G1 X132.546 Y103.156 E.01401
G1 X126.841 Y97.451 E.25456
G1 X126.617 Y97.391 E.0073
G1 X126.174 Y97.321 E.01415
G1 X132.683 Y103.83 E.2904
G1 X132.737 Y104.191 E.01151
G1 X132.749 Y104.433 E.00765
G1 X125.568 Y97.251 E.32043
G1 X125.001 Y97.221 E.01789
G1 X132.779 Y104.999 E.34701
G1 X132.757 Y105.513 E.01624
G1 X124.487 Y97.243 E.36897
G1 X124.003 Y97.296 E.01537
G1 X132.705 Y105.998 E.38825
G1 X132.638 Y106.468 E.01498
M73 P6 R6
M73 Q6 S6
G1 X123.532 Y97.362 E.40629
G1 X123.101 Y97.467 E.014
G1 X132.533 Y106.899 E.4208
G1 X132.421 Y107.324 E.01386
G1 X122.676 Y97.578 E.43481
G1 X122.279 Y97.719 E.01326
G1 X132.278 Y107.717 E.4461
G1 X132.13 Y108.105 E.01311
G1 X121.899 Y97.875 E.45646
G1 X121.533 Y98.045 E.01274
G1 X131.956 Y108.469 E.46506
G1 X131.769 Y108.818 E.0125
M73 P7 R6
M73 Q7 S6
G1 X121.181 Y98.23 E.47239
G1 X120.843 Y98.429 E.01237
G1 X131.567 Y109.153 E.47848
G1 X131.355 Y109.477 E.01223
G1 X120.526 Y98.648 E.48315
G1 X120.215 Y98.874 E.01212
G1 X131.127 Y109.785 E.48683
G1 X130.882 Y110.077 E.01202
G1 X119.923 Y99.118 E.48896
G1 X119.641 Y99.372 E.01199
M73 P8 R6
M73 Q8 S6
G1 X130.628 Y110.36 E.49021
G1 X130.498 Y110.503 E.0061
G1 X130.361 Y110.629 E.00588
G1 X119.372 Y99.641 E.49027
G1 X119.118 Y99.923 E.01199
G1 X130.081 Y110.886 E.48912
G1 X129.782 Y111.123 E.01205
G1 X118.873 Y100.214 E.48672
G1 X118.645 Y100.523 E.0121
G1 X129.476 Y111.354 E.48325
G1 X129.153 Y111.567 E.01222
G1 X118.433 Y100.847 E.4783
G1 X118.231 Y101.182 E.01234
M73 P9 R6
M73 Q9 S6
G1 X128.818 Y111.769 E.47233
G1 X128.468 Y111.956 E.0125
G1 X118.044 Y101.532 E.46511
G1 X117.87 Y101.895 E.0127
G1 X128.105 Y112.129 E.45663
G1 X127.717 Y112.278 E.0131
G1 X117.719 Y102.281 E.44606
G1 X117.58 Y102.678 E.01328
G1 X127.324 Y112.421 E.43472
G1 X126.899 Y112.533 E.01386
M73 P10 R6
M73 Q10 S6
G1 X117.467 Y103.101 E.42082
G1 X117.367 Y103.537 E.01413
G1 X126.468 Y112.639 E.40607
G1 X126.001 Y112.708 E.0149
G1 X117.293 Y104.001 E.38851
G1 X117.248 Y104.492 E.01556
G1 X125.509 Y112.752 E.36857
G1 X124.998 Y112.779 E.01612
G1 X117.221 Y105.002 E.347
G1 X117.245 Y105.562 E.01771
G1 X124.432 Y112.749 E.32065
G1 X124.187 Y112.736 E.00774
G1 X123.825 Y112.679 E.01155
G1 X117.32 Y106.174 E.29023
G1 X117.364 Y106.484 E.00988
M73 P11 R6
M73 Q11 S6
G1 X117.454 Y106.844 E.01169
G1 X123.159 Y112.549 E.25454
G1 X122.593 Y112.397 E.01849
G1 X122.397 Y112.324 E.00657
G1 X117.683 Y107.61 E.21035
G1 X117.838 Y108.036 E.01431
G1 X118.079 Y108.543 E.0177
G1 X121.457 Y111.92 E.15071
G1 X120.65 Y111.449 E.02948
G1 X119.997 Y110.957 E.02581
G1 X119.518 Y110.518 E.02049
G1 X118.358 Y109.358 E.05177
M204 S1000
; stop printing object Shape-Cylinder id:0 copy 0
;LAYER_CHANGE
;Z:0.35
;HEIGHT:0.15
;BEFORE_LAYER_CHANGE
G92 E0.0
;0.35


;WIPE_START
G1 F8640
G1 X119.518 Y110.518 E-.37888
G1 X119.997 Y110.957 E-.14995
G1 X120.65 Y111.449 E-.18893
G1 X121.457 Y111.92 E-.21574
G1 X121.406 Y111.87 E-.01651
;WIPE_END
