; generated by PrusaSlicer 2.4.2+win64 on 2022-08-17 at 17:42:08 UTC


;
;
; 

; external perimeters extrusion width = 0.60mm
; perimeters extrusion width = 0.50mm
; infill extrusion width = 0.50mm
; solid infill extrusion width = 0.50mm
; top infill extrusion width = 0.45mm
; first layer extrusion width = 0.42mm

M73 P0 R29
M73 Q0 S29
M201 X1000 Y1000 Z200 E5000 ; sets maximum accelerations, mm/sec^2
M203 X200 Y200 Z12 E120 ; sets maximum feedrates, mm / sec
M204 P1250 R1250 T1250 ; sets acceleration (P, T) and retract acceleration (R), mm/sec^2
M205 X8.00 Y8.00 Z0.40 E4.50 ; sets the jerk limits, mm/sec
M205 S0 T0 ; sets the minimum extruding and travel feed rate, mm/sec
M107
;TYPE:Custom
M862.3 P "MK3S" ; printer model check
M862.1 P0.4 ; nozzle diameter check
M115 U3.11.0 ; tell printer latest fw version
G90 ; use absolute coordinates
M83 ; extruder relative mode
M104 S230 ; set extruder temp
M140 S85 ; set bed temp
M190 S85 ; wait for bed temp
M109 S230 ; wait for extruder temp
G28 W ; home all without mesh bed level
G80 ; mesh bed leveling

G1 Z0.2 F720
G1 Y-3 F1000 ; go outside print area
G92 E0
G1 X60 E9 F1000 ; intro line
G1 X100 E12.5 F1000 ; intro line

G92 E0
M221 S95

; Don't change E values below. Excessive value can damage the printer.

M907 E538 ; set extruder motor current
G21 ; set units to millimeters
G90 ; use absolute coordinates
M83 ; use relative distances for extrusion
M900 K0.08 ; Filament gcode LA 1.5
M900 K45 ; Filament gcode LA 1.0
M107
;LAYER_CHANGE
;Z:0.2
;HEIGHT:0.2
;BEFORE_LAYER_CHANGE
G92 E0.0
;0.2


G1 E-1 F2100
G1 Z.2 F720
;AFTER_LAYER_CHANGE
;0.2
G1 Z.4
G1 X114.128 Y95.937 F10800
G1 Z.2 F720
G1 E1 F2100
M204 S800
;TYPE:Skirt/Brim
;WIDTH:0.42
G1 F1200
G1 X115.007 Y94.976 E.04086
G1 X116.057 Y94.029 E.04431
G1 X117.124 Y93.24 E.04161
G1 X118.335 Y92.513 E.04431
G1 X119.655 Y91.894 E.0457
G1 X120.906 Y91.451 E.04161
G1 X122.321 Y91.102 E.0457
G1 X123.72 Y90.904 E.04431
G1 X125.047 Y90.846 E.04162
G1 X126.433 Y90.919 E.04354
G1 X127.746 Y91.115 E.04162
G1 X129.16 Y91.471 E.0457
G1 X130.488 Y91.953 E.04431
G1 X131.686 Y92.524 E.04162
G1 X132.896 Y93.253 E.04431
G1 X133.943 Y94.029 E.04086
G1 X135.024 Y95.007 E.0457
G1 X135.971 Y96.057 E.04431
G1 X136.76 Y97.124 E.04162
G1 X137.487 Y98.335 E.04431
G1 X138.106 Y99.655 E.0457
G1 X138.549 Y100.906 E.04162
G1 X138.89 Y102.277 E.04431
G1 X139.081 Y103.567 E.04087
G1 X139.154 Y105.022 E.0457
G1 X139.081 Y106.433 E.0443
G1 X138.885 Y107.746 E.04162
G1 X138.529 Y109.16 E.0457
G1 X138.047 Y110.488 E.04431
G1 X137.476 Y111.686 E.04161
G1 X136.747 Y112.896 E.04431
G1 X135.872 Y114.063 E.0457
G1 X134.993 Y115.024 E.04086
G1 X133.943 Y115.971 E.04431
G1 X132.876 Y116.76 E.04161
G1 X131.625 Y117.508 E.0457
G1 X130.345 Y118.106 E.04431
G1 X129.094 Y118.549 E.04161
G1 X127.723 Y118.89 E.04431
G1 X126.433 Y119.081 E.04086
G1 X124.978 Y119.154 E.04569
G1 X123.566 Y119.081 E.04432
G1 X122.254 Y118.885 E.04162
G1 X120.883 Y118.542 E.0443
G1 X119.512 Y118.047 E.0457
G1 X118.314 Y117.476 E.04162
G1 X117.104 Y116.747 E.0443
G1 X116.057 Y115.971 E.04086
G1 X114.976 Y114.993 E.0457
G1 X114.029 Y113.943 E.04431
G1 X113.24 Y112.876 E.04161
G1 X112.513 Y111.665 E.04431
G1 X111.894 Y110.345 E.0457
G1 X111.451 Y109.094 E.04161
G1 X111.11 Y107.723 E.04431
G1 X110.919 Y106.433 E.04087
G1 X110.846 Y104.978 E.0457
G1 X110.919 Y103.567 E.0443
G1 X111.115 Y102.254 E.04162
G1 X111.458 Y100.883 E.0443
G1 X111.953 Y99.512 E.0457
G1 X112.524 Y98.314 E.04162
G1 X113.253 Y97.104 E.04431
G1 X114.092 Y95.985 E.04382
M204 S1000
G1 X114.393 Y96.211 F10800
M204 S800
G1 F1200
G1 X115.274 Y95.242 E.04106
G1 X116.296 Y94.32 E.04317
G1 X117.332 Y93.554 E.04038
G1 X118.512 Y92.846 E.04317
G1 X119.799 Y92.242 E.04456
G1 X121.013 Y91.812 E.04038
G1 X122.393 Y91.472 E.04457
G1 X123.756 Y91.279 E.04317
G1 X125.043 Y91.223 E.04038
G1 X126.397 Y91.294 E.04251
G1 X127.671 Y91.484 E.04038
G1 X129.049 Y91.831 E.04456
G1 X130.343 Y92.301 E.04317
G1 X131.506 Y92.856 E.04038
G1 X132.686 Y93.566 E.04317
G1 X133.704 Y94.32 E.03973
G1 X134.758 Y95.274 E.04456
G1 X135.68 Y96.296 E.04317
G1 X136.446 Y97.332 E.04038
G1 X137.154 Y98.512 E.04317
G1 X137.758 Y99.799 E.04456
G1 X138.188 Y101.013 E.04038
G1 X138.52 Y102.349 E.04317
G1 X138.706 Y103.603 E.03973
G1 X138.777 Y105.022 E.04456
G1 X138.706 Y106.397 E.04317
G1 X138.516 Y107.671 E.04038
G1 X138.169 Y109.049 E.04456
G1 X137.699 Y110.344 E.04317
G1 X137.144 Y111.506 E.04038
G1 X136.434 Y112.686 E.04317
G1 X135.581 Y113.823 E.04457
G1 X134.726 Y114.758 E.03973
G1 X133.704 Y115.68 E.04317
G1 X132.668 Y116.446 E.04038
G1 X131.448 Y117.175 E.04457
G1 X130.201 Y117.758 E.04317
G1 X128.987 Y118.188 E.04038
G1 X127.651 Y118.52 E.04317
G1 X126.397 Y118.706 E.03973
G1 X124.978 Y118.777 E.04455
G1 X123.603 Y118.706 E.04318
G1 X122.329 Y118.516 E.04038
G1 X120.993 Y118.182 E.04317
G1 X119.656 Y117.699 E.04457
G1 X118.494 Y117.144 E.04038
G1 X117.314 Y116.434 E.04317
G1 X116.296 Y115.68 E.03973
G1 X115.242 Y114.726 E.04456
G1 X114.32 Y113.704 E.04318
G1 X113.554 Y112.668 E.04038
G1 X112.846 Y111.488 E.04317
G1 X112.242 Y110.201 E.04456
G1 X111.812 Y108.987 E.04038
G1 X111.48 Y107.651 E.04317
G1 X111.294 Y106.397 E.03973
G1 X111.223 Y104.978 E.04456
G1 X111.294 Y103.603 E.04317
G1 X111.484 Y102.329 E.04038
G1 X111.818 Y100.993 E.04317
G1 X112.301 Y99.657 E.04456
G1 X112.856 Y98.494 E.04038
G1 X113.566 Y97.314 E.04317
G1 X114.357 Y96.259 E.04135
M204 S1000
;WIPE_START
G1 F8640
G1 X115.274 Y95.242 E-.31617
G1 X116.296 Y94.32 E-.31795
G1 X117.332 Y93.554 E-.29734
G1 X117.4 Y93.513 E-.01854
;WIPE_END
G1 E-.05 F2100
G1 Z.4 F720
G1 X116.45 Y97.914 F10800
G1 Z.2 F720
G1 E1 F2100
M204 S800
G1 F1200
G1 X116.598 Y97.727 E.00747
G1 X117.385 Y96.905 E.03567
G1 X118.181 Y96.225 E.03285
G1 X119.036 Y95.623 E.03277
G1 X119.985 Y95.083 E.03423
G1 X120.983 Y94.638 E.03425
G1 X122.015 Y94.295 E.03413
G1 X123.046 Y94.06 E.03315
G1 X124.192 Y93.916 E.0362
G1 X125.338 Y93.892 E.03594
G1 X126.383 Y93.973 E.03288
G1 X127.414 Y94.152 E.03279
G1 X128.467 Y94.441 E.03425
G1 X129.489 Y94.834 E.03431
G1 X130.475 Y95.329 E.03461
G1 X131.42 Y95.929 E.03511
G1 X132.269 Y96.594 E.0338
G1 X133.083 Y97.373 E.03534
G1 X133.741 Y98.138 E.03165
G1 X134.39 Y99.056 E.03523
G1 X134.891 Y99.935 E.03174
G1 X135.36 Y100.978 E.03585
G1 X135.702 Y102.005 E.03394
G1 X135.943 Y103.063 E.03404
M73 Q1 S29
G1 X136.083 Y104.179 E.03524
G1 X136.11 Y105.269 E.0342
G1 X136.033 Y106.334 E.03347
G1 X135.853 Y107.389 E.03357
G1 X135.56 Y108.464 E.03493
G1 X135.168 Y109.486 E.03431
M73 P1 R29
G1 X134.68 Y110.459 E.03412
G1 X134.119 Y111.351 E.03304
G1 X133.428 Y112.244 E.0354
G1 X132.644 Y113.067 E.03563
G1 X131.863 Y113.741 E.03236
G1 X130.945 Y114.39 E.03526
G1 X130.065 Y114.891 E.03174
G1 X129.022 Y115.36 E.03584
G1 X127.993 Y115.703 E.03401
G1 X126.915 Y115.947 E.03465
G1 X125.82 Y116.083 E.0346
G1 X124.731 Y116.11 E.03418
G1 X123.666 Y116.033 E.03347
G1 X122.611 Y115.853 E.03357
G1 X121.536 Y115.56 E.03493
G1 X120.516 Y115.168 E.03427
G1 X119.559 Y114.69 E.03354
G1 X118.65 Y114.12 E.03366
G1 X117.758 Y113.429 E.03536
G1 X116.942 Y112.654 E.0353
G1 X116.242 Y111.841 E.03364
G1 X115.636 Y110.984 E.03289
G1 X115.084 Y110.017 E.03493
G1 X114.636 Y109.012 E.03448
G1 X114.284 Y107.945 E.03522
G1 X114.046 Y106.874 E.03442
G1 X113.916 Y105.806 E.03373
G1 X113.891 Y104.683 E.03523
G1 X113.977 Y103.589 E.03438
G1 X114.164 Y102.534 E.03362
G1 X114.462 Y101.472 E.03457
G1 X114.87 Y100.429 E.03512
G1 X115.361 Y99.469 E.03381
G1 X115.971 Y98.52 E.03535
G1 X116.413 Y97.961 E.02237
M204 S1000
G1 X116.709 Y98.194 F10800
M204 S800
G1 F1200
G1 X116.877 Y97.981 E.00851
G1 X117.637 Y97.186 E.03451
G1 X118.406 Y96.528 E.03172
G1 X119.231 Y95.946 E.03164
G1 X120.147 Y95.423 E.03308
G1 X121.111 Y94.993 E.03309
G1 X122.108 Y94.66 E.03298
G1 X123.103 Y94.433 E.03199
G1 X124.21 Y94.293 E.03499
G1 X125.318 Y94.268 E.03476
G1 X126.328 Y94.346 E.03175
G1 X127.323 Y94.518 E.03166
G1 X128.341 Y94.797 E.03309
G1 X129.328 Y95.175 E.03315
G1 X130.281 Y95.653 E.03343
G1 X131.196 Y96.232 E.03394
G1 X132.015 Y96.873 E.03263
G1 X132.804 Y97.626 E.03418
G1 X133.439 Y98.364 E.03052
G1 X134.067 Y99.251 E.03409
G1 X134.551 Y100.098 E.0306
G1 X135.005 Y101.106 E.03467
G1 X135.337 Y102.098 E.03278
G1 X135.57 Y103.12 E.03287
G1 X135.706 Y104.198 E.03407
G1 X135.733 Y105.252 E.03304
G1 X135.659 Y106.28 E.03233
G1 X135.487 Y107.299 E.03241
G1 X135.204 Y108.338 E.03376
G1 X134.826 Y109.326 E.03315
G1 X134.356 Y110.266 E.03297
G1 X133.815 Y111.128 E.03189
G1 X133.148 Y111.991 E.03421
G1 X132.391 Y112.788 E.03446
G1 X131.637 Y113.438 E.03122
G1 X130.749 Y114.067 E.03412
G1 X129.902 Y114.551 E.0306
G1 X128.894 Y115.005 E.03466
G1 X127.9 Y115.337 E.03284
G1 X126.859 Y115.574 E.03347
G1 X125.801 Y115.706 E.03343
G1 X124.748 Y115.733 E.03302
G1 X123.72 Y115.659 E.03233
G1 X122.701 Y115.487 E.03241
G1 X121.662 Y115.204 E.03376
G1 X120.676 Y114.827 E.03311
G1 X119.751 Y114.366 E.03239
G1 X118.873 Y113.816 E.0325
G1 X118.01 Y113.149 E.03417
G1 X117.221 Y112.4 E.03412
G1 X116.544 Y111.615 E.03251
G1 X115.958 Y110.789 E.03175
G1 X115.424 Y109.854 E.03376
G1 X114.991 Y108.885 E.0333
G1 X114.65 Y107.854 E.03404
G1 X114.419 Y106.819 E.03326
G1 X114.293 Y105.788 E.03257
G1 X114.268 Y104.702 E.03404
G1 X114.35 Y103.646 E.03322
G1 X114.53 Y102.626 E.03246
G1 X114.816 Y101.6 E.03339
G1 X115.21 Y100.592 E.03395
G1 X115.684 Y99.665 E.03264
G1 X116.272 Y98.747 E.03419
G1 X116.671 Y98.241 E.0202
M204 S1000
G1 X116.967 Y98.474 F10800
M204 S800
G1 F1200
G1 X117.156 Y98.235 E.00955
G1 X117.89 Y97.466 E.03334
G1 X118.631 Y96.83 E.0306
G1 X119.426 Y96.269 E.03051
G1 X120.31 Y95.764 E.03192
G1 X121.239 Y95.348 E.03193
G1 X122.202 Y95.026 E.03183
G1 X123.16 Y94.806 E.03082
G1 X124.229 Y94.67 E.03378
G1 X125.299 Y94.645 E.03357
G1 X126.273 Y94.719 E.03063
G1 X127.233 Y94.884 E.03053
G1 X128.215 Y95.153 E.03193
G1 X129.168 Y95.516 E.03198
G1 X130.088 Y95.976 E.03225
G1 X130.971 Y96.535 E.03276
G1 X131.762 Y97.152 E.03146
G1 X132.524 Y97.879 E.03303
G1 X133.137 Y98.589 E.0294
G1 X133.745 Y99.446 E.03294
G1 X134.212 Y100.262 E.02946
G1 X134.651 Y101.235 E.03349
G1 X134.971 Y102.191 E.03161
G1 X135.197 Y103.177 E.0317
G1 X135.329 Y104.218 E.03289
G1 X135.357 Y105.234 E.03189
G1 X135.286 Y106.227 E.03119
G1 X135.121 Y107.21 E.03126
G1 X134.848 Y108.213 E.03259
G1 X134.485 Y109.166 E.03199
G1 X134.031 Y110.074 E.03183
G1 X133.511 Y110.905 E.03074
G1 X132.868 Y111.739 E.03302
G1 X132.137 Y112.509 E.03329
G1 X131.412 Y113.136 E.03008
G1 X130.554 Y113.745 E.03297
G1 X129.738 Y114.212 E.02947
G1 X128.765 Y114.651 E.03349
G1 X127.807 Y114.972 E.03167
G1 X126.803 Y115.201 E.0323
G1 X125.782 Y115.329 E.03226
G1 X124.766 Y115.357 E.03187
G1 X123.773 Y115.286 E.03119
G1 X122.79 Y115.121 E.03126
G1 X121.787 Y114.848 E.03259
G1 X120.835 Y114.485 E.03195
G1 X119.943 Y114.041 E.03125
G1 X119.095 Y113.511 E.03134
G1 X118.263 Y112.869 E.03298
G1 X117.5 Y112.146 E.03294
G1 X116.846 Y111.389 E.03137
G1 X116.281 Y110.594 E.0306
G1 X115.764 Y109.692 E.03258
G1 X115.346 Y108.757 E.03212
G1 X115.016 Y107.762 E.03286
G1 X114.792 Y106.763 E.0321
G1 X114.67 Y105.769 E.0314
G1 X114.645 Y104.721 E.03286
G1 X114.723 Y103.702 E.03206
G1 X114.895 Y102.718 E.03131
G1 X115.171 Y101.728 E.03222
G1 X115.551 Y100.755 E.03277
G1 X116.006 Y99.86 E.03148
G1 X116.575 Y98.973 E.03304
G1 X116.93 Y98.521 E.01803
M204 S1000
G1 X117.226 Y98.754 F10800
M204 S800
G1 F1200
G1 X117.435 Y98.488 E.01059
G1 X118.143 Y97.745 E.03218
G1 X118.856 Y97.133 E.02947
G1 X119.621 Y96.591 E.02938
G1 X120.473 Y96.104 E.03077
G1 X121.368 Y95.702 E.03077
G1 X122.296 Y95.391 E.03068
G1 X123.218 Y95.179 E.02966
G1 X124.248 Y95.046 E.03256
G1 X125.28 Y95.022 E.03238
G1 X126.218 Y95.093 E.0295
G1 X127.143 Y95.251 E.0294
G1 X128.09 Y95.508 E.03078
G1 X129.008 Y95.858 E.03081
G1 X129.895 Y96.3 E.03107
G1 X130.747 Y96.838 E.03159
G1 X131.509 Y97.432 E.03029
G1 X132.245 Y98.133 E.03188
G1 X132.835 Y98.815 E.02827
G1 X133.422 Y99.642 E.0318
G1 X133.872 Y100.425 E.02833
G1 X134.297 Y101.364 E.03232
G1 X134.606 Y102.285 E.03045
G1 X134.825 Y103.234 E.03053
G1 X134.953 Y104.238 E.03172
G1 X134.98 Y105.217 E.03073
G1 X134.913 Y106.173 E.03006
G1 X134.754 Y107.12 E.0301
G1 X134.493 Y108.087 E.03141
G1 X134.143 Y109.006 E.03082
G1 X133.707 Y109.882 E.03068
G1 X133.207 Y110.682 E.02959
G1 X132.587 Y111.486 E.03182
G1 X131.883 Y112.23 E.03211
G1 X131.186 Y112.834 E.02893
G1 X130.358 Y113.422 E.03182
G1 X129.575 Y113.872 E.02833
G1 X128.636 Y114.297 E.03231
G1 X127.713 Y114.606 E.03051
G1 X126.746 Y114.828 E.03112
G1 X125.762 Y114.953 E.0311
G1 X124.783 Y114.98 E.03071
G1 X123.827 Y114.913 E.03005
G1 X122.88 Y114.754 E.0301
G1 X121.913 Y114.493 E.03142
G1 X120.995 Y114.143 E.0308
G1 X120.135 Y113.716 E.0301
G1 X119.318 Y113.207 E.03018
G1 X118.515 Y112.588 E.03178
G1 X117.779 Y111.892 E.03176
G1 X117.148 Y111.163 E.03023
G1 X116.603 Y110.398 E.02946
G1 X116.105 Y109.529 E.03141
G1 X115.701 Y108.628 E.03094
G1 X115.382 Y107.67 E.03167
G1 X115.165 Y106.707 E.03093
G1 X115.046 Y105.75 E.03024
G1 X115.021 Y104.74 E.03168
G1 X115.096 Y103.757 E.0309
G1 X115.261 Y102.81 E.03016
G1 X115.526 Y101.856 E.03104
G1 X115.891 Y100.917 E.0316
G1 X116.329 Y100.055 E.03031
G1 X116.877 Y99.198 E.03188
G1 X117.189 Y98.801 E.01585
M204 S1000
G1 X117.485 Y99.033 F10800
M204 S800
G1 F1200
G1 X117.714 Y98.742 E.01163
G1 X118.396 Y98.025 E.03102
G1 X119.082 Y97.435 E.02835
G1 X119.817 Y96.914 E.02825
G1 X120.636 Y96.444 E.02961
G1 X121.497 Y96.057 E.02961
G1 X122.39 Y95.756 E.02953
G1 X123.275 Y95.551 E.0285
G1 X124.267 Y95.423 E.03135
G1 X125.262 Y95.398 E.0312
G1 X126.164 Y95.466 E.02838
G1 X127.053 Y95.617 E.02827
G1 X127.965 Y95.864 E.02962
G1 X128.849 Y96.2 E.02965
G1 X129.702 Y96.625 E.02989
G1 X130.523 Y97.142 E.03041
G1 X131.256 Y97.712 E.02912
G1 X131.966 Y98.387 E.03072
G1 X132.533 Y99.041 E.02714
G1 X133.1 Y99.838 E.03066
G1 X133.532 Y100.59 E.02719
G1 X133.942 Y101.494 E.03114
G1 X134.241 Y102.379 E.02929
G1 X134.452 Y103.292 E.02936
G1 X134.576 Y104.258 E.03054
G1 X134.603 Y105.2 E.02957
G1 X134.539 Y106.121 E.02892
G1 X134.388 Y107.031 E.02894
G1 X134.137 Y107.962 E.03024
G1 X133.801 Y108.847 E.02966
G1 X133.382 Y109.69 E.02953
G1 X132.902 Y110.46 E.02844
G1 X132.307 Y111.234 E.03063
G1 X131.629 Y111.951 E.03094
G1 X130.959 Y112.532 E.02779
G1 X130.162 Y113.1 E.03068
G1 X129.41 Y113.532 E.02719
G1 X128.506 Y113.942 E.03113
G1 X127.62 Y114.241 E.02934
G1 X126.689 Y114.455 E.02995
G1 X125.742 Y114.576 E.02993
G1 X124.8 Y114.603 E.02956
G1 X123.879 Y114.539 E.02892
G1 X122.969 Y114.388 E.02894
G1 X122.037 Y114.137 E.03024
G1 X121.154 Y113.801 E.02964
G1 X120.326 Y113.391 E.02896
G1 X119.54 Y112.902 E.02902
G1 X118.767 Y112.308 E.03059
G1 X118.058 Y111.638 E.03058
G1 X117.45 Y110.937 E.0291
G1 X116.925 Y110.202 E.02831
G1 X116.445 Y109.366 E.03024
G1 X116.055 Y108.5 E.02976
G1 X115.747 Y107.577 E.03049
G1 X115.538 Y106.651 E.02977
G1 X115.423 Y105.731 E.02908
G1 X115.398 Y104.759 E.0305
G1 X115.469 Y103.813 E.02974
G1 X115.627 Y102.902 E.029
G1 X115.881 Y101.983 E.02987
G1 X116.232 Y101.079 E.03042
G1 X116.652 Y100.25 E.02914
G1 X117.179 Y99.424 E.03073
G1 X117.448 Y99.08 E.01368
M204 S1000
G1 X117.745 Y99.313 F10800
M204 S800
G1 F1200
G1 X117.994 Y98.995 E.01266
G1 X118.65 Y98.304 E.02986
G1 X119.307 Y97.737 E.02723
G1 X120.013 Y97.236 E.02712
G1 X120.799 Y96.784 E.02846
G1 X121.627 Y96.411 E.02845
G1 X122.484 Y96.122 E.02839
G1 X123.334 Y95.924 E.02734
G1 X124.287 Y95.8 E.03013
G1 X125.243 Y95.775 E.03001
G1 X126.11 Y95.839 E.02725
G1 X126.964 Y95.983 E.02714
G1 X127.84 Y96.22 E.02846
G1 X128.689 Y96.542 E.02848
G1 X129.509 Y96.949 E.02871
G1 X130.299 Y97.445 E.02924
G1 X131.003 Y97.992 E.02796
G1 X131.687 Y98.641 E.02957
G1 X132.231 Y99.268 E.02601
G1 X132.778 Y100.034 E.02952
G1 X133.193 Y100.754 E.02605
G1 X133.588 Y101.624 E.02996
G1 X133.875 Y102.474 E.02813
G1 X134.079 Y103.35 E.02819
G1 X134.199 Y104.278 E.02937
G1 X134.226 Y105.184 E.02841
G1 X134.166 Y106.068 E.02778
G1 X134.021 Y106.943 E.02779
G1 X133.781 Y107.838 E.02907
G1 X133.459 Y108.688 E.02849
