; generated by PrusaSlicer 2.4.0+win64 on 2022-08-07 at 21:34:20 UTC

; 

; external perimeters extrusion width = 0.45mm
; perimeters extrusion width = 0.45mm
; infill extrusion width = 0.45mm
; solid infill extrusion width = 0.45mm
; top infill extrusion width = 0.40mm
; first layer extrusion width = 0.42mm

M73 P0 R77
M73 C0
M73 Q0 S77
M73 D0
M201 X1000 Y1000 Z200 E5000 ; sets maximum accelerations, mm/sec^2
M203 X200 Y200 Z12 E120 ; sets maximum feedrates, mm/sec
M204 P1250 R1250 T1250 ; sets acceleration (P, T) and retract acceleration (R), mm/sec^2
M205 X8.00 Y8.00 Z0.40 E4.50 ; sets the jerk limits, mm/sec
M205 S0 T0 ; sets the minimum extruding and travel feed rate, mm/sec
M107
;TYPE:Custom
M862.3 P "MK3SMMU2S" ; printer model check
M862.1 P0.4 ; nozzle diameter check
M115 U3.10.0 ; tell printer latest fw version
G90 ; use absolute coordinates
M83 ; extruder relative mode
M104 S215 ; set extruder temp
M140 S60 ; set bed temp
Tx
M190 S60 ; wait for bed temp
M109 S215 ; wait for extruder temp
G28 W ; home all without mesh bed level
G80 ; mesh bed leveling

;go outside print area
G1 Y-3 F1000
G1 Z0.4 F1000
; select extruder
Tc
; purge line
G1 X55 F2000
G1 Z0.3 F1000
G92 E0
G1 X240 E25 F2200
G1 Y-2 F1000
G1 X55 E25 F1400
G1 Z0.2 F1000
M73 P0 R76
G1 X5 E4 F1000

M221 S95
G92 E0

; Don't change E values below. Excessive value can damage the printer.
M907 E430 ; set extruder motor current
G21 ; set units to millimeters
G90 ; use absolute coordinates
M83 ; use relative distances for extrusion
M900 K0.05 ; Filament gcode LA 1.5
M900 K30 ; Filament gcode LA 1.0
M107
;LAYER_CHANGE
;Z:0.2
;HEIGHT:0.2
;BEFORE_LAYER_CHANGE
G92 E0.0
;0.2


G1 E-.8 F2100
M73 Q0 S76
G1 Z.4 F720
;AFTER_LAYER_CHANGE
;0.2
G1 X117.651 Y95.045 F10800
G1 Z.2 F720
G1 E.8 F2100
M204 S800
;TYPE:Skirt/Brim
;WIDTH:0.42
G1 F1200
G1 X118.7 Y94.014 E.04612
G1 X120.033 Y93.668 E.0432
G1 X129.956 Y93.658 E.31111
G1 X131.373 Y94.049 E.04612
G1 X132.343 Y95.035 E.04336
G1 X137.302 Y103.623 E.31093
G1 X137.67 Y105.047 E.04612
G1 X137.302 Y106.377 E.04328
G1 X132.343 Y114.965 E.31093
G1 X131.295 Y115.996 E.04612
G1 X129.958 Y116.342 E.04328
G1 X120.042 Y116.342 E.31093
G1 X118.624 Y115.949 E.04612
G1 X117.657 Y114.965 E.04328
G1 X112.698 Y106.377 E.31093
G1 X112.33 Y104.953 E.04612
G1 X112.698 Y103.623 E.04328
G1 X117.621 Y95.097 E.30869
M204 S1000
G1 X117.947 Y95.285 F10800
M204 S800
G1 F1200
G1 X117.977 Y95.233 E.00188
G1 X118.97 Y94.297 E.04278
G1 X120.034 Y94.045 E.03428
G1 X129.956 Y94.035 E.31111
G1 X131.263 Y94.425 E.04278
G1 X132.017 Y95.223 E.03442
G1 X136.975 Y103.811 E.31093
G1 X137.29 Y105.139 E.04278
G1 X136.975 Y106.189 E.03435
G1 X132.017 Y114.777 E.31093
G1 X131.024 Y115.713 E.04278
G1 X129.958 Y115.965 E.03435
G1 X120.042 Y115.965 E.31093
G1 X118.735 Y115.573 E.04278
G1 X117.983 Y114.777 E.03435
G1 X113.025 Y106.188 E.31093
G1 X112.71 Y104.861 E.04278
G1 X113.025 Y103.812 E.03434
G1 X117.917 Y95.337 E.30681
M204 S1000
; printing object CapacitorRemovalJig.stl id:0 copy 0
;WIPE_START
G1 F8640
G1 X117.977 Y95.233 E-.02771
G1 X118.97 Y94.297 E-.31505
G1 X120.034 Y94.045 E-.25241
G1 X120.748 Y94.044 E-.16483
;WIPE_END
G1 E-.04 F2100
G1 Z.6 F720
G1 X122.68 Y101.405 F10800
G1 Z.2 F720
G1 E.8 F2100
M204 S800
;TYPE:Perimeter
G1 F1200
G1 X122.855 Y101.285 E.00667
G1 X123.433 Y101.007 E.0201
G1 X124.025 Y100.824 E.01944
G1 X124.678 Y100.723 E.02071
G1 X125.321 Y100.723 E.02015
G1 X125.954 Y100.818 E.0201
G1 X126.567 Y101.007 E.0201
G1 X127.145 Y101.285 E.0201
G1 X127.674 Y101.646 E.0201
G1 X128.144 Y102.083 E.0201
G1 X128.531 Y102.567 E.01944
G1 X128.864 Y103.138 E.02071
G1 X129.099 Y103.736 E.02015
G1 X129.241 Y104.361 E.0201
G1 X129.289 Y105 E.0201
G1 X129.241 Y105.639 E.0201
G1 X129.099 Y106.264 E.0201
G1 X128.865 Y106.861 E.0201
G1 X128.544 Y107.416 E.0201
G1 X128.144 Y107.917 E.0201
G1 X127.674 Y108.354 E.0201
G1 X127.162 Y108.703 E.01944
G1 X126.568 Y108.992 E.0207
G1 X125.954 Y109.182 E.02015
G1 X125.321 Y109.277 E.0201
G1 X124.679 Y109.277 E.0201
G1 X124.046 Y109.182 E.0201
G1 X123.433 Y108.993 E.0201
G1 X122.855 Y108.715 E.0201
G1 X122.326 Y108.354 E.0201
G1 X121.856 Y107.917 E.0201
G1 X121.469 Y107.433 E.01944
G1 X121.136 Y106.862 E.02071
G1 X120.901 Y106.264 E.02015
G1 X120.759 Y105.639 E.0201
G1 X120.711 Y105 E.0201
G1 X120.759 Y104.361 E.0201
G1 X120.901 Y103.736 E.0201
G1 X121.135 Y103.139 E.0201
G1 X121.456 Y102.584 E.0201
G1 X121.856 Y102.083 E.0201
G1 X122.326 Y101.647 E.0201
G1 X122.63 Y101.439 E.01155
M204 S1000
G1 X122.561 Y101.942 F10800
M204 S800
;TYPE:External perimeter
G1 F1200
G1 X123.044 Y101.613 E.01833
G1 X123.571 Y101.359 E.01833
G1 X124.11 Y101.193 E.0177
G1 X124.707 Y101.1 E.01893
G1 X125.292 Y101.1 E.01835
G1 X125.87 Y101.187 E.01833
G1 X126.429 Y101.359 E.01833
G1 X126.956 Y101.613 E.01833
G1 X127.439 Y101.942 E.01833
G1 X127.867 Y102.34 E.01833
G1 X128.219 Y102.781 E.0177
G1 X128.524 Y103.303 E.01893
G1 X128.737 Y103.847 E.01835
G1 X128.867 Y104.417 E.01833
G1 X128.911 Y105 E.01833
G1 X128.867 Y105.583 E.01833
G1 X128.737 Y106.153 E.01833
G1 X128.524 Y106.697 E.01833
G1 X128.232 Y107.203 E.01833
G1 X127.867 Y107.66 E.01833
G1 X127.439 Y108.058 E.01833
G1 X126.972 Y108.376 E.0177
G1 X126.429 Y108.641 E.01893
G1 X125.87 Y108.813 E.01835
G1 X125.292 Y108.9 E.01833
G1 X124.708 Y108.9 E.01833
G1 X124.13 Y108.813 E.01833
G1 X123.571 Y108.641 E.01833
G1 X123.044 Y108.387 E.01833
G1 X122.561 Y108.058 E.01833
G1 X122.133 Y107.66 E.01833
G1 X121.781 Y107.219 E.0177
G1 X121.476 Y106.697 E.01893
G1 X121.263 Y106.153 E.01835
G1 X121.133 Y105.583 E.01833
G1 X121.089 Y105 E.01833
G1 X121.133 Y104.417 E.01833
G1 X121.263 Y103.847 E.01833
G1 X121.476 Y103.303 E.01833
G1 X121.768 Y102.797 E.01833
G1 X122.133 Y102.34 E.01833
G1 X122.517 Y101.983 E.01645
M204 S1000
G1 X122.502 Y101.547 F10800
;WIPE_START
G1 F8640
G1 X123.044 Y101.613 E-.14869
G1 X123.571 Y101.359 E-.13497
G1 X124.11 Y101.193 E-.13034
G1 X124.707 Y101.1 E-.13944
G1 X125.292 Y101.1 E-.1351
G1 X125.598 Y101.146 E-.07145
;WIPE_END
G1 E-.04 F2100
G1 Z.6 F720
G1 X120.896 Y97.199 F10800
G1 Z.2 F720
G1 E.8 F2100
M204 S800
;TYPE:Perimeter
G1 F1200
G1 X129.504 Y97.199 E.26989
G1 X134.008 Y105 E.28243
G1 X129.504 Y112.801 E.28243
G1 X120.496 Y112.801 E.28243
G1 X115.992 Y105 E.28243
G1 X120.496 Y97.199 E.28243
G1 X120.836 Y97.199 E.01066
M204 S1000
G1 X120.278 Y96.822 F10800
M204 S800
;TYPE:External perimeter
G1 F1200
G1 X129.722 Y96.822 E.29608
G1 X134.443 Y105 E.29608
G1 X129.722 Y113.178 E.29608
G1 X120.278 Y113.178 E.29608
G1 X115.557 Y105 E.29608
G1 X120.248 Y96.874 E.2942
M204 S1000
G1 X120.625 Y97.022 F10800
;WIPE_START
G1 F8640
G1 X123.54 Y96.856 E-.76
;WIPE_END
G1 E-.04 F2100
G1 Z.6 F720
G1 X130.505 Y99.159 F10800
G1 Z.2 F720
G1 E.8 F2100
M204 S800
;TYPE:Solid infill
;WIDTH:0.424949
G1 F1200
G1 X128.828 Y97.482 E.07536
G1 X128.287 Y97.482 E.01716
G1 X130.779 Y99.974 E.11196
G1 X131.518 Y101.252 E.04689
G1 X127.747 Y97.482 E.16939
G1 X127.207 Y97.482 E.01716
G1 X132.256 Y102.531 E.22681
G1 X132.994 Y103.809 E.04689
G1 X126.666 Y97.482 E.28424
G1 X126.126 Y97.482 E.01716
G1 X133.668 Y105.023 E.33879
G1 X133.47 Y105.366 E.01256
G1 X125.586 Y97.482 E.35418
G1 X125.046 Y97.482 E.01716
G1 X133.272 Y105.708 E.36957
G1 X133.074 Y106.051 E.01256
G1 X124.505 Y97.482 E.38495
G1 X123.965 Y97.482 E.01716
G1 X132.877 Y106.393 E.40034
G1 X132.679 Y106.736 E.01256
G1 X129.224 Y103.281 E.1552
G1 X129.119 Y103.014 E.00912
G1 X128.765 Y102.407 E.02232
G1 X128.352 Y101.89 E.02102
G1 X127.851 Y101.425 E.02171
G1 X127.286 Y101.04 E.02171
G1 X126.701 Y100.758 E.02066
G1 X123.425 Y97.482 E.14716
G1 X122.885 Y97.482 E.01716
G1 X125.931 Y100.529 E.13688
G1 X125.302 Y100.44 E.02018
G1 X122.344 Y97.482 E.13289
G1 X121.804 Y97.482 E.01716
G1 X124.762 Y100.44 E.13289
G1 X124.656 Y100.44 E.00337
G1 X124.28 Y100.498 E.01208
G1 X121.264 Y97.482 E.13552
G1 X120.723 Y97.482 E.01716
G1 X123.83 Y100.589 E.13957
G1 X123.417 Y100.716 E.01373
G1 X120.485 Y97.784 E.13173
G1 X120.287 Y98.126 E.01256
G1 X123.042 Y100.881 E.12377
G1 X122.682 Y101.061 E.0128
G1 X120.09 Y98.469 E.11646
G1 X119.892 Y98.811 E.01256
G1 X122.361 Y101.28 E.11091
G1 X122.149 Y101.425 E.00815
G1 X122.053 Y101.513 E.00413
G1 X119.694 Y99.154 E.10599
G1 X119.496 Y99.496 E.01256
G1 X121.773 Y101.773 E.10229
G1 X121.648 Y101.89 E.00543
G1 X121.515 Y102.056 E.00675
G1 X119.299 Y99.839 E.09959
G1 X119.101 Y100.181 E.01256
G1 X121.276 Y102.356 E.0977
G1 X121.069 Y102.689 E.01246
G1 X118.903 Y100.524 E.09728
G1 X118.705 Y100.866 E.01256
G1 X120.873 Y103.034 E.09737
G1 X120.721 Y103.422 E.01324
G1 X118.508 Y101.209 E.09942
G1 X118.31 Y101.551 E.01256
G1 X120.589 Y103.831 E.10241
G1 X120.489 Y104.271 E.01433
G1 X118.112 Y101.894 E.10678
G1 X117.914 Y102.237 E.01256
G1 X120.445 Y104.767 E.11367
G1 X120.427 Y105 E.00743
G1 X120.451 Y105.313 E.00997
G1 X117.717 Y102.579 E.12282
G1 X117.519 Y102.922 E.01256
M73 Q1 S76
G1 X120.763 Y106.165 E.14573
M204 S1000
;WIPE_START
M73 P1 R76
G1 F8640
G1 X118.435 Y103.838 E-.76
;WIPE_END
G1 E-.04 F2100
G1 Z.6 F720
G1 X129.237 Y103.835 F10800
G1 Z.2 F720
G1 E.8 F2100
M204 S800
G1 F1200
G1 X132.481 Y107.079 E.14572
G1 X132.283 Y107.421 E.01256
G1 X129.549 Y104.687 E.12282
G1 X129.573 Y105 E.00997
G1 X129.555 Y105.233 E.00743
G1 X132.086 Y107.764 E.11367
G1 X131.888 Y108.106 E.01256
G1 X129.511 Y105.729 E.10678
G1 X129.411 Y106.169 E.01433
G1 X131.69 Y108.449 E.10241
G1 X131.492 Y108.791 E.01256
G1 X129.279 Y106.578 E.09942
G1 X129.127 Y106.966 E.01324
G1 X131.295 Y109.134 E.09737
G1 X131.097 Y109.476 E.01256
G1 X128.931 Y107.311 E.09728
G1 X128.724 Y107.644 E.01246
G1 X130.899 Y109.819 E.0977
G1 X130.701 Y110.161 E.01256
G1 X128.485 Y107.944 E.09959
G1 X128.352 Y108.11 E.00675
G1 X128.227 Y108.227 E.00544
G1 X130.504 Y110.504 E.10229
G1 X130.306 Y110.846 E.01256
G1 X127.946 Y108.487 E.10599
G1 X127.851 Y108.575 E.00413
G1 X127.639 Y108.72 E.00815
G1 X130.108 Y111.189 E.11092
G1 X129.91 Y111.531 E.01256
G1 X127.318 Y108.939 E.11646
G1 X126.957 Y109.118 E.01281
G1 X129.713 Y111.874 E.12381
G1 X129.515 Y112.216 E.01256
G1 X126.583 Y109.284 E.13173
G1 X126.17 Y109.411 E.01373
G1 X129.276 Y112.518 E.13957
G1 X128.736 Y112.518 E.01716
G1 X125.721 Y109.503 E.13545
G1 X125.238 Y109.56 E.01545
G1 X128.196 Y112.518 E.13289
G1 X127.656 Y112.518 E.01716
G1 X124.698 Y109.56 E.13289
G1 X124.068 Y109.471 E.02018
G1 X127.115 Y112.518 E.13688
G1 X126.575 Y112.518 E.01716
G1 X123.299 Y109.242 E.14716
G1 X122.714 Y108.96 E.02065
G1 X122.149 Y108.575 E.02171
G1 X121.648 Y108.11 E.02171
G1 X121.235 Y107.593 E.02102
G1 X120.881 Y106.986 E.02232
G1 X120.776 Y106.719 E.00912
G1 X117.321 Y103.264 E.15521
G1 X117.123 Y103.607 E.01256
G1 X126.035 Y112.518 E.40034
G1 X125.495 Y112.518 E.01716
G1 X116.926 Y103.949 E.38495
G1 X116.728 Y104.292 E.01256
G1 X124.954 Y112.518 E.36956
G1 X124.414 Y112.518 E.01716
G1 X116.53 Y104.634 E.35418
G1 X116.332 Y104.977 E.01256
G1 X123.874 Y112.518 E.33879
G1 X123.333 Y112.518 E.01716
G1 X117.007 Y106.191 E.28423
G1 X117.745 Y107.47 E.04689
G1 X122.793 Y112.518 E.2268
G1 X122.253 Y112.518 E.01716
G1 X118.483 Y108.748 E.16938
G1 X119.221 Y110.026 E.04689
G1 X121.713 Y112.518 E.11195
G1 X121.172 Y112.518 E.01716
G1 X119.495 Y110.841 E.07535
M204 S1000
; stop printing object CapacitorRemovalJig.stl id:0 copy 0
M106 S84.15
;LAYER_CHANGE
;Z:0.4
;HEIGHT:0.2
;BEFORE_LAYER_CHANGE
G92 E0.0
;0.4


;WIPE_START
G1 F8640
G1 X121.172 Y112.518 E-.54772
G1 X121.713 Y112.518 E-.12475
G1 X121.445 Y112.25 E-.08753
;WIPE_END
G1 E-.04 F2100
G1 Z.6 F720
;AFTER_LAYER_CHANGE
;0.4
;COLOR_CHANGE,T0,#63AC2E
M600
G1 E0.4 F1500 ; prime after color change
G1 E-.8 F2100
G1 X121.445 Y116.342 F10800
G1 Z.4 F720
G1 E.8 F2100
;TYPE:Skirt/Brim
;WIDTH:0.42
G1 F3000
G1 X120.042 Y116.342 E.04399
G1 X118.624 Y115.949 E.04612
G1 X117.657 Y114.965 E.04328
G1 X112.698 Y106.377 E.31093
G1 X112.33 Y104.953 E.04612
G1 X112.698 Y103.623 E.04328
G1 X117.651 Y95.045 E.31057
G1 X118.7 Y94.014 E.04612
G1 X120.033 Y93.668 E.0432
G1 X129.956 Y93.658 E.31111
G1 X131.373 Y94.049 E.04612
G1 X132.343 Y95.035 E.04336
G1 X137.302 Y103.623 E.31093
G1 X137.67 Y105.047 E.04612
G1 X137.302 Y106.377 E.04328
G1 X132.343 Y114.965 E.31093
G1 X131.295 Y115.996 E.04612
G1 X129.958 Y116.342 E.04328
G1 X121.505 Y116.342 E.26506
G1 X121.505 Y115.965 F10800
G1 F3000
G1 X120.042 Y115.965 E.04587
G1 X118.735 Y115.573 E.04278
G1 X117.983 Y114.777 E.03435
G1 X113.025 Y106.188 E.31093
G1 X112.71 Y104.861 E.04278
G1 X113.025 Y103.812 E.03434
G1 X117.977 Y95.233 E.31057
G1 X118.97 Y94.297 E.04278
G1 X120.034 Y94.045 E.03428
G1 X129.956 Y94.035 E.31111
G1 X131.263 Y94.425 E.04278
G1 X132.017 Y95.223 E.03442
G1 X136.975 Y103.811 E.31093
G1 X137.29 Y105.139 E.04278
G1 X136.975 Y106.189 E.03435
G1 X132.017 Y114.777 E.31093
G1 X131.024 Y115.713 E.04278
G1 X129.958 Y115.965 E.03435
G1 X121.565 Y115.965 E.26318
; printing object CapacitorRemovalJig.stl id:0 copy 0
;WIPE_START
G1 F8640
G1 X120.042 Y115.965 E-.35164
G1 X118.735 Y115.573 E-.31505
G1 X118.457 Y115.28 E-.09331
;WIPE_END
G1 E-.04 F2100
G1 Z.8 F720
G1 X123.157 Y108.688 F10800
G1 Z.4 F720
G1 E.8 F2100
M204 S800
;TYPE:Perimeter
;WIDTH:0.45
G1 F1500
G1 X122.933 Y108.58 E.00841
G1 X122.423 Y108.232 E.02091
G1 X121.97 Y107.812 E.02091
G1 X121.584 Y107.329 E.02091
G1 X121.283 Y106.807 E.02041
G1 X121.05 Y106.22 E.02137
G1 X120.912 Y105.616 E.02095
G1 X120.866 Y105 E.02091
G1 X120.912 Y104.384 E.02091
G1 X121.05 Y103.782 E.02091
G1 X121.276 Y103.206 E.02091
G1 X121.584 Y102.671 E.02091
G1 X121.96 Y102.2 E.02041
G1 X122.422 Y101.769 E.02137
G1 X122.933 Y101.42 E.02095
G1 X123.49 Y101.152 E.02091
G1 X124.066 Y100.974 E.02041
G1 X124.69 Y100.878 E.02137
G1 X125.309 Y100.878 E.02095
G1 X125.92 Y100.97 E.02091
G1 X126.51 Y101.152 E.02091
G1 X127.067 Y101.42 E.02091
G1 X127.577 Y101.768 E.02091
G1 X128.03 Y102.188 E.02091
G1 X128.416 Y102.671 E.02091
G1 X128.717 Y103.193 E.02041
G1 X128.95 Y103.78 E.02137
G1 X129.088 Y104.384 E.02095
G1 X129.134 Y105 E.02091
G1 X129.088 Y105.616 E.02091
G1 X128.95 Y106.218 E.02091
G1 X128.724 Y106.794 E.02091
G1 X128.416 Y107.329 E.02091
G1 X128.03 Y107.812 E.02091
G1 X127.588 Y108.222 E.02041
G1 X127.068 Y108.579 E.02137
G1 X126.51 Y108.848 E.02095
G1 X125.934 Y109.026 E.02041
G1 X125.31 Y109.122 E.02137
G1 X124.691 Y109.122 E.02095
G1 X124.08 Y109.03 E.02091
G1 X123.49 Y108.848 E.02091
G1 X123.211 Y108.714 E.01048
M204 S1000
G1 X123.639 Y108.468 F10800
M204 S800
;TYPE:External perimeter
G1 F1500
G1 X123.137 Y108.226 E.01885
G1 X122.677 Y107.913 E.01885
G1 X122.269 Y107.534 E.01885
G1 X121.922 Y107.099 E.01885
G1 X121.65 Y106.629 E.01837
G1 X121.44 Y106.099 E.01931
G1 X121.316 Y105.555 E.01886
G1 X121.274 Y105 E.01885
G1 X121.316 Y104.445 E.01885
G1 X121.44 Y103.902 E.01885
G1 X121.643 Y103.384 E.01885
G1 X121.922 Y102.901 E.01885
G1 X122.26 Y102.477 E.01837
G1 X122.677 Y102.087 E.01931
G1 X123.137 Y101.774 E.01886
G1 X123.639 Y101.532 E.01885
G1 X124.157 Y101.372 E.01837
G1 X124.721 Y101.285 E.01931
G1 X125.278 Y101.285 E.01886
G1 X125.829 Y101.368 E.01885
G1 X126.361 Y101.532 E.01885
G1 X126.863 Y101.774 E.01885
G1 X127.323 Y102.087 E.01885
G1 X127.731 Y102.466 E.01885
G1 X128.078 Y102.901 E.01885
G1 X128.35 Y103.371 E.01837
G1 X128.56 Y103.901 E.01931
G1 X128.684 Y104.445 E.01886
G1 X128.726 Y105 E.01885
G1 X128.684 Y105.555 E.01885
G1 X128.56 Y106.098 E.01885
G1 X128.357 Y106.616 E.01885
G1 X128.078 Y107.099 E.01885
G1 X127.731 Y107.534 E.01885
G1 X127.333 Y107.903 E.01837
G1 X126.863 Y108.226 E.01931
G1 X126.361 Y108.468 E.01886
G1 X125.843 Y108.628 E.01837
G1 X125.279 Y108.715 E.01931
G1 X124.722 Y108.715 E.01886
G1 X124.171 Y108.632 E.01885
G1 X123.696 Y108.486 E.01682
M204 S1000
G1 X123.326 Y108.717 F10800
;WIPE_START
G1 F8640
G1 X123.137 Y108.226 E-.14229
G1 X122.677 Y107.913 E-.12858
G1 X122.269 Y107.534 E-.12857
G1 X121.922 Y107.099 E-.12858
G1 X121.65 Y106.629 E-.1253
G1 X121.48 Y106.199 E-.10668
;WIPE_END
G1 E-.04 F2100
G1 Z.8 F720
G1 X120.207 Y112.61 F10800
G1 Z.4 F720
G1 E.8 F2100
M204 S800
;TYPE:Perimeter
G1 F2700
G1 X115.813 Y105 E.29742
G1 X120.407 Y97.044 E.31096
