; generated by PrusaSlicer 2.4.0+win64 on 2022-08-02 at 02:29:00 UTC

; 

; external perimeters extrusion width = 0.45mm
; perimeters extrusion width = 0.45mm
; infill extrusion width = 0.45mm
; solid infill extrusion width = 0.45mm
; top infill extrusion width = 0.40mm
; first layer extrusion width = 0.42mm

M73 P0 R80
M73 Q0 S81
M201 X1000 Y1000 Z200 E5000 ; sets maximum accelerations, mm/sec^2
M203 X200 Y200 Z12 E120 ; sets maximum feedrates, mm/sec
M204 P1250 R1250 T1250 ; sets acceleration (P, T) and retract acceleration (R), mm/sec^2
M205 X8.00 Y8.00 Z0.40 E4.50 ; sets the jerk limits, mm/sec
M205 S0 T0 ; sets the minimum extruding and travel feed rate, mm/sec
M107
;TYPE:Custom
M862.3 P "MK3SMMU2S" ; printer model check
M862.1 P0.4 ; nozzle diameter check
M115 U3.10.0 ; tell printer latest fw version
G90 ; use absolute coordinates
M83 ; extruder relative mode
M104 S215 ; set extruder temp
M140 S60 ; set bed temp
Tx
M190 S60 ; wait for bed temp
M109 S215 ; wait for extruder temp
G28 W ; home all without mesh bed level
G80 ; mesh bed leveling

;go outside print area
G1 Y-3 F1000
G1 Z0.4 F1000
; select extruder
Tc
; purge line
G1 X55 F2000
G1 Z0.3 F1000
G92 E0
G1 X240 E25 F2200
G1 Y-2 F1000
G1 X55 E25 F1400
G1 Z0.2 F1000
M73 Q0 S80
G1 X5 E4 F1000

M221 S95
G92 E0

; Don't change E values below. Excessive value can damage the printer.
M907 E430 ; set extruder motor current
G21 ; set units to millimeters
G90 ; use absolute coordinates
M83 ; use relative distances for extrusion
M900 K0.05 ; Filament gcode LA 1.5
M900 K30 ; Filament gcode LA 1.0
M107
;LAYER_CHANGE
;Z:0.2
;HEIGHT:0.2
;BEFORE_LAYER_CHANGE
G92 E0.0
;0.2


G1 E-.8 F2100
G1 Z.4 F720
;AFTER_LAYER_CHANGE
;0.2
G1 X117.651 Y95.045 F10800
G1 Z.2 F720
G1 E.8 F2100
M204 S800
;TYPE:Skirt/Brim
;WIDTH:0.42
G1 F1200
G1 X118.7 Y94.014 E.04612
G1 X120.033 Y93.668 E.0432
G1 X129.956 Y93.658 E.31111
G1 X131.373 Y94.049 E.04612
G1 X132.343 Y95.035 E.04336
G1 X137.302 Y103.623 E.31093
G1 X137.67 Y105.047 E.04612
G1 X137.302 Y106.377 E.04328
G1 X132.343 Y114.965 E.31093
G1 X131.295 Y115.996 E.04612
G1 X129.958 Y116.342 E.04328
G1 X120.042 Y116.342 E.31093
G1 X118.624 Y115.949 E.04612
G1 X117.657 Y114.965 E.04328
G1 X112.698 Y106.377 E.31093
G1 X112.33 Y104.953 E.04612
G1 X112.698 Y103.623 E.04328
G1 X117.621 Y95.097 E.30869
M204 S1000
G1 X117.947 Y95.285 F10800
M204 S800
G1 F1200
G1 X117.977 Y95.233 E.00188
G1 X118.97 Y94.297 E.04278
G1 X120.034 Y94.045 E.03428
G1 X129.956 Y94.035 E.31111
G1 X131.263 Y94.425 E.04278
G1 X132.017 Y95.223 E.03442
G1 X136.975 Y103.811 E.31093
G1 X137.29 Y105.139 E.04278
G1 X136.975 Y106.189 E.03435
G1 X132.017 Y114.777 E.31093
G1 X131.024 Y115.713 E.04278
G1 X129.958 Y115.965 E.03435
G1 X120.042 Y115.965 E.31093
G1 X118.735 Y115.573 E.04278
G1 X117.983 Y114.777 E.03435
G1 X113.025 Y106.188 E.31093
G1 X112.71 Y104.861 E.04278
G1 X113.025 Y103.812 E.03434
G1 X117.917 Y95.337 E.30681
M204 S1000
; printing object CapacitorRemovalJig.stl id:0 copy 0
;WIPE_START
G1 F8640
G1 X117.977 Y95.233 E-.02771
G1 X118.97 Y94.297 E-.31505
G1 X120.034 Y94.045 E-.25241
G1 X120.748 Y94.044 E-.16483
;WIPE_END
G1 E-.04 F2100
G1 Z.6 F720
G1 X123.835 Y102.473 F10800
G1 Z.2 F720
G1 E.8 F2100
M204 S800
;TYPE:Perimeter
G1 F1200
G1 X123.932 Y102.422 E.00345
G1 X124.456 Y102.263 E.01715
G1 X125 Y102.209 E.01715
G1 X125.544 Y102.263 E.01715
G1 X126.068 Y102.422 E.01715
G1 X126.551 Y102.679 E.01715
G1 X126.973 Y103.027 E.01715
G1 X127.321 Y103.449 E.01715
G1 X127.578 Y103.932 E.01715
G1 X127.737 Y104.456 E.01715
G1 X127.791 Y105 E.01715
G1 X127.737 Y105.544 E.01715
G1 X127.578 Y106.068 E.01715
G1 X127.321 Y106.551 E.01715
G1 X126.973 Y106.973 E.01715
G1 X126.551 Y107.321 E.01715
G1 X126.068 Y107.578 E.01715
G1 X125.544 Y107.737 E.01715
G1 X125 Y107.791 E.01715
G1 X124.456 Y107.737 E.01715
G1 X123.932 Y107.578 E.01715
G1 X123.449 Y107.321 E.01715
G1 X123.027 Y106.973 E.01715
G1 X122.679 Y106.551 E.01715
G1 X122.422 Y106.068 E.01715
G1 X122.263 Y105.544 E.01715
G1 X122.209 Y105 E.01715
G1 X122.263 Y104.456 E.01715
G1 X122.422 Y103.932 E.01715
G1 X122.679 Y103.449 E.01715
G1 X123.027 Y103.027 E.01715
G1 X123.449 Y102.679 E.01715
G1 X123.782 Y102.502 E.01182
M204 S1000
G1 X123.66 Y102.995 F10800
M204 S800
;TYPE:External perimeter
G1 F1200
G1 X124.077 Y102.772 E.01483
G1 X124.529 Y102.634 E.01483
G1 X125 Y102.588 E.01483
G1 X125.471 Y102.634 E.01483
G1 X125.923 Y102.772 E.01483
G1 X126.34 Y102.995 E.01483
G1 X126.706 Y103.294 E.01483
G1 X127.005 Y103.66 E.01482
G1 X127.228 Y104.077 E.01483
G1 X127.366 Y104.529 E.01483
G1 X127.412 Y105 E.01483
G1 X127.366 Y105.471 E.01483
G1 X127.228 Y105.923 E.01483
G1 X127.005 Y106.34 E.01483
G1 X126.706 Y106.706 E.01483
G1 X126.34 Y107.005 E.01483
G1 X125.923 Y107.228 E.01483
G1 X125.471 Y107.366 E.01483
G1 X125 Y107.412 E.01483
G1 X124.529 Y107.366 E.01483
G1 X124.077 Y107.228 E.01483
G1 X123.66 Y107.005 E.01483
G1 X123.294 Y106.706 E.01483
G1 X122.995 Y106.34 E.01483
G1 X122.772 Y105.923 E.01483
G1 X122.634 Y105.471 E.01483
G1 X122.588 Y105 E.01483
G1 X122.634 Y104.529 E.01483
G1 X122.772 Y104.077 E.01483
G1 X122.995 Y103.66 E.01483
G1 X123.294 Y103.294 E.01483
G1 X123.614 Y103.033 E.01294
M204 S1000
G1 X123.634 Y102.595 F10800
;WIPE_START
G1 F8640
G1 X124.077 Y102.772 E-.1228
G1 X124.529 Y102.634 E-.10918
G1 X125 Y102.588 E-.10918
G1 X125.471 Y102.634 E-.10918
G1 X125.923 Y102.772 E-.10918
G1 X126.34 Y102.995 E-.10918
G1 X126.646 Y103.245 E-.09131
;WIPE_END
G1 E-.04 F2100
G1 Z.6 F720
G1 X120.896 Y97.199 F10800
G1 Z.2 F720
G1 E.8 F2100
M204 S800
;TYPE:Perimeter
G1 F1200
G1 X129.504 Y97.199 E.26989
G1 X134.008 Y105 E.28243
G1 X129.504 Y112.801 E.28243
G1 X120.496 Y112.801 E.28243
G1 X115.992 Y105 E.28243
G1 X120.496 Y97.199 E.28243
G1 X120.836 Y97.199 E.01066
M204 S1000
G1 X120.278 Y96.822 F10800
M204 S800
;TYPE:External perimeter
G1 F1200
G1 X129.722 Y96.822 E.29608
G1 X134.443 Y105 E.29608
G1 X129.722 Y113.178 E.29608
G1 X120.278 Y113.178 E.29608
G1 X115.557 Y105 E.29608
G1 X120.248 Y96.874 E.2942
M204 S1000
G1 X120.625 Y97.022 F10800
;WIPE_START
G1 F8640
G1 X123.54 Y96.856 E-.76
;WIPE_END
G1 E-.04 F2100
G1 Z.6 F720
G1 X130.505 Y99.159 F10800
G1 Z.2 F720
G1 E.8 F2100
M204 S800
;TYPE:Solid infill
;WIDTH:0.424949
G1 F1200
G1 X128.828 Y97.482 E.07536
G1 X128.287 Y97.482 E.01716
G1 X130.779 Y99.974 E.11196
G1 X131.518 Y101.252 E.04689
G1 X127.747 Y97.482 E.16939
G1 X127.207 Y97.482 E.01716
G1 X132.256 Y102.531 E.22681
G1 X132.994 Y103.809 E.04689
G1 X126.666 Y97.482 E.28424
G1 X126.126 Y97.482 E.01716
G1 X133.668 Y105.023 E.33879
G1 X133.47 Y105.366 E.01256
G1 X125.586 Y97.482 E.35418
G1 X125.046 Y97.482 E.01716
G1 X133.272 Y105.708 E.36957
G1 X133.074 Y106.051 E.01256
G1 X124.505 Y97.482 E.38495
G1 X123.965 Y97.482 E.01716
G1 X132.877 Y106.393 E.40034
G1 X132.679 Y106.736 E.01256
G1 X123.425 Y97.482 E.41573
G1 X122.885 Y97.482 E.01716
G1 X132.481 Y107.079 E.43112
G1 X132.283 Y107.421 E.01256
G1 X122.344 Y97.482 E.4465
G1 X121.804 Y97.482 E.01716
G1 X132.086 Y107.764 E.46189
G1 X131.888 Y108.106 E.01256
G1 X127.944 Y104.162 E.17719
G1 X128.016 Y104.4 E.00791
G1 X128.057 Y104.815 E.01325
G1 X131.69 Y108.449 E.16322
G1 X131.492 Y108.791 E.01256
G1 X128.042 Y105.34 E.15502
G1 X128.016 Y105.6 E.00829
G1 X127.957 Y105.796 E.0065
G1 X131.295 Y109.134 E.14996
G1 X131.097 Y109.476 E.01256
G1 X127.826 Y106.205 E.14695
G1 X127.638 Y106.557 E.01268
G1 X130.899 Y109.819 E.14652
G1 X130.701 Y110.161 E.01256
G1 X127.418 Y106.878 E.14751
G1 X127.174 Y107.174 E.01219
G1 X130.504 Y110.504 E.14956
G1 X130.306 Y110.846 E.01256
G1 X126.878 Y107.418 E.15401
G1 X126.708 Y107.557 E.00695
G1 X126.557 Y107.638 E.00545
G1 X130.108 Y111.189 E.15953
G1 X129.91 Y111.531 E.01256
G1 X126.205 Y107.826 E.16646
G1 X125.796 Y107.957 E.01366
G1 X129.713 Y111.874 E.17597
G1 X129.515 Y112.216 E.01256
G1 X125.34 Y108.042 E.18754
G1 X125 Y108.075 E.01086
G1 X124.815 Y108.057 E.0059
G1 X129.276 Y112.518 E.20042
G1 X128.736 Y112.518 E.01716
G1 X123.907 Y107.689 E.21694
M204 S1000
;WIPE_START
G1 F8640
G1 X126.235 Y110.017 E-.76
;WIPE_END
G1 E-.04 F2100
G1 Z.6 F720
G1 X126.093 Y102.311 F10800
G1 Z.2 F720
G1 E.8 F2100
M204 S800
G1 F1200
G1 X121.264 Y97.482 E.21693
G1 X120.723 Y97.482 E.01716
M73 Q1 S80
G1 X125.185 Y101.943 E.20042
G1 X125 Y101.925 E.0059
M73 P1 R80
G1 X124.66 Y101.958 E.01086
G1 X120.485 Y97.784 E.18754
G1 X120.287 Y98.126 E.01256
G1 X124.204 Y102.043 E.17597
G1 X123.795 Y102.174 E.01366
G1 X120.09 Y98.469 E.16646
G1 X119.892 Y98.811 E.01256
G1 X123.443 Y102.362 E.15952
G1 X123.292 Y102.443 E.00545
G1 X123.122 Y102.582 E.00696
G1 X119.694 Y99.154 E.15401
G1 X119.496 Y99.496 E.01256
G1 X122.826 Y102.826 E.14956
G1 X122.582 Y103.122 E.01219
G1 X119.299 Y99.839 E.14751
G1 X119.101 Y100.181 E.01256
G1 X122.362 Y103.443 E.14652
G1 X122.174 Y103.795 E.01268
G1 X118.903 Y100.524 E.14695
G1 X118.705 Y100.866 E.01256
G1 X122.043 Y104.204 E.14996
G1 X121.984 Y104.4 E.00649
G1 X121.958 Y104.66 E.00829
G1 X118.508 Y101.209 E.15503
G1 X118.31 Y101.551 E.01256
G1 X121.943 Y105.185 E.16322
G1 X121.984 Y105.6 E.01325
G1 X122.056 Y105.838 E.00791
G1 X118.112 Y101.894 E.17719
G1 X117.914 Y102.237 E.01256
G1 X128.196 Y112.518 E.46189
G1 X127.656 Y112.518 E.01716
G1 X117.717 Y102.579 E.4465
G1 X117.519 Y102.922 E.01256
G1 X127.115 Y112.518 E.43111
G1 X126.575 Y112.518 E.01716
G1 X117.321 Y103.264 E.41573
G1 X117.123 Y103.607 E.01256
G1 X126.035 Y112.518 E.40034
G1 X125.495 Y112.518 E.01716
G1 X116.926 Y103.949 E.38495
G1 X116.728 Y104.292 E.01256
G1 X124.954 Y112.518 E.36956
G1 X124.414 Y112.518 E.01716
G1 X116.53 Y104.634 E.35418
G1 X116.332 Y104.977 E.01256
G1 X123.874 Y112.518 E.33879
G1 X123.333 Y112.518 E.01716
G1 X117.007 Y106.191 E.28423
G1 X117.745 Y107.47 E.04689
G1 X122.793 Y112.518 E.2268
G1 X122.253 Y112.518 E.01716
G1 X118.483 Y108.748 E.16938
G1 X119.221 Y110.026 E.04689
M73 P1 R79
G1 X121.713 Y112.518 E.11195
G1 X121.172 Y112.518 E.01716
G1 X119.495 Y110.841 E.07535
M204 S1000
; stop printing object CapacitorRemovalJig.stl id:0 copy 0
M106 S84.15
;LAYER_CHANGE
;Z:0.4
;HEIGHT:0.2
;BEFORE_LAYER_CHANGE
G92 E0.0
;0.4


;WIPE_START
G1 F8640
G1 X121.172 Y112.518 E-.54772
G1 X121.713 Y112.518 E-.12475
G1 X121.445 Y112.25 E-.08753
;WIPE_END
G1 E-.04 F2100
G1 Z.6 F720
;AFTER_LAYER_CHANGE
;0.4
G1 X121.445 Y116.342 F10800
G1 Z.4 F720
G1 E.8 F2100
;TYPE:Skirt/Brim
;WIDTH:0.42
G1 F3000
G1 X120.042 Y116.342 E.04399
G1 X118.624 Y115.949 E.04612
G1 X117.657 Y114.965 E.04328
G1 X112.698 Y106.377 E.31093
G1 X112.33 Y104.953 E.04612
G1 X112.698 Y103.623 E.04328
G1 X117.651 Y95.045 E.31057
G1 X118.7 Y94.014 E.04612
G1 X120.033 Y93.668 E.0432
G1 X129.956 Y93.658 E.31111
G1 X131.373 Y94.049 E.04612
G1 X132.343 Y95.035 E.04336
G1 X137.302 Y103.623 E.31093
G1 X137.67 Y105.047 E.04612
G1 X137.302 Y106.377 E.04328
G1 X132.343 Y114.965 E.31093
G1 X131.295 Y115.996 E.04612
G1 X129.958 Y116.342 E.04328
G1 X121.505 Y116.342 E.26506
G1 X121.505 Y115.965 F10800
G1 F3000
G1 X120.042 Y115.965 E.04587
G1 X118.735 Y115.573 E.04278
G1 X117.983 Y114.777 E.03435
G1 X113.025 Y106.188 E.31093
G1 X112.71 Y104.861 E.04278
G1 X113.025 Y103.812 E.03434
G1 X117.977 Y95.233 E.31057
G1 X118.97 Y94.297 E.04278
G1 X120.034 Y94.045 E.03428
G1 X129.956 Y94.035 E.31111
G1 X131.263 Y94.425 E.04278
G1 X132.017 Y95.223 E.03442
G1 X136.975 Y103.811 E.31093
G1 X137.29 Y105.139 E.04278
G1 X136.975 Y106.189 E.03435
G1 X132.017 Y114.777 E.31093
G1 X131.024 Y115.713 E.04278
G1 X129.958 Y115.965 E.03435
G1 X121.565 Y115.965 E.26318
; printing object CapacitorRemovalJig.stl id:0 copy 0
;WIPE_START
G1 F8640
G1 X120.042 Y115.965 E-.35164
G1 X118.735 Y115.573 E-.31505
G1 X118.457 Y115.28 E-.09331
;WIPE_END
G1 E-.04 F2100
G1 Z.8 F720
G1 X123.603 Y107.227 F10800
G1 Z.4 F720
G1 E.8 F2100
M204 S800
;TYPE:Perimeter
;WIDTH:0.45
G1 F1500
G1 X123.536 Y107.191 E.00259
G1 X123.137 Y106.863 E.01749
G1 X122.809 Y106.464 E.01749
G1 X122.565 Y106.008 E.01749
G1 X122.415 Y105.514 E.01749
G1 X122.365 Y105 E.01749
G1 X122.415 Y104.486 E.01749
G1 X122.565 Y103.992 E.01749
G1 X122.809 Y103.536 E.01749
G1 X123.137 Y103.137 E.01749
G1 X123.536 Y102.809 E.01749
G1 X123.992 Y102.565 E.01749
G1 X124.486 Y102.415 E.01749
G1 X124.983 Y102.366 E.01692
G1 X125.512 Y102.415 E.01796
G1 X126.008 Y102.565 E.01756
G1 X126.464 Y102.809 E.01749
G1 X126.863 Y103.137 E.01749
G1 X127.191 Y103.536 E.01749
G1 X127.435 Y103.992 E.01749
G1 X127.585 Y104.486 E.01749
G1 X127.635 Y105 E.01749
G1 X127.585 Y105.514 E.01749
G1 X127.435 Y106.008 E.01749
G1 X127.191 Y106.464 E.01749
G1 X126.863 Y106.863 E.01749
G1 X126.464 Y107.191 E.01749
G1 X126.008 Y107.435 E.01749
G1 X125.514 Y107.585 E.01749
G1 X125 Y107.635 E.01749
G1 X124.486 Y107.585 E.01749
G1 X123.992 Y107.435 E.01749
G1 X123.656 Y107.255 E.01287
M204 S1000
G1 X124.148 Y107.057 F10800
M204 S800
;TYPE:External perimeter
G1 F1500
G1 X123.763 Y106.851 E.01477
G1 X123.426 Y106.574 E.01477
G1 X123.149 Y106.237 E.01477
G1 X122.943 Y105.852 E.01477
G1 X122.817 Y105.434 E.01477
G1 X122.774 Y105 E.01477
G1 X122.817 Y104.566 E.01477
G1 X122.943 Y104.148 E.01477
G1 X123.149 Y103.763 E.01477
G1 X123.426 Y103.426 E.01477
G1 X123.763 Y103.149 E.01477
G1 X124.148 Y102.943 E.01477
G1 X124.566 Y102.817 E.01477
G1 X124.985 Y102.775 E.01426
G1 X125.434 Y102.816 E.01525
G1 X125.852 Y102.943 E.0148
G1 X126.237 Y103.149 E.01477
G1 X126.574 Y103.426 E.01477
G1 X126.851 Y103.763 E.01477
G1 X127.057 Y104.148 E.01477
G1 X127.183 Y104.566 E.01477
G1 X127.226 Y105 E.01477
G1 X127.183 Y105.434 E.01477
G1 X127.057 Y105.852 E.01477
G1 X126.851 Y106.237 E.01477
G1 X126.574 Y106.574 E.01477
G1 X126.237 Y106.851 E.01477
G1 X125.852 Y107.057 E.01477
G1 X125.434 Y107.183 E.01477
G1 X125 Y107.226 E.01477
G1 X124.566 Y107.183 E.01477
G1 X124.206 Y107.074 E.01274
M204 S1000
G1 X123.831 Y107.3 F10800
;WIPE_START
G1 F8640
G1 X123.763 Y106.851 E-.11438
G1 X123.426 Y106.574 E-.10076
G1 X123.149 Y106.237 E-.10076
G1 X122.943 Y105.852 E-.10076
G1 X122.817 Y105.434 E-.10076
G1 X122.774 Y105 E-.10076
G1 X122.817 Y104.566 E-.10076
G1 X122.868 Y104.396 E-.04103
;WIPE_END
G1 E-.04 F2100
G1 Z.8 F720
G1 X120.207 Y112.61 F10800
G1 Z.4 F720
G1 E.8 F2100
M204 S800
;TYPE:Perimeter
G1 F2700
G1 X115.813 Y105 E.29742
G1 X120.407 Y97.044 E.31096
G1 X129.593 Y97.044 E.31096
G1 X134.187 Y105 E.31096
G1 X129.593 Y112.956 E.31096
G1 X120.407 Y112.956 E.31096
G1 X120.237 Y112.661 E.01151
M204 S1000
M73 Q1 S79
G1 X120.172 Y113.363 F10800
M204 S800
;TYPE:External perimeter
G1 F1500
G1 X115.343 Y105 E.32687
G1 X120.172 Y96.637 E.32687
G1 X129.828 Y96.637 E.32687
G1 X134.657 Y105 E.32687
G1 X129.828 Y113.363 E.32687
G1 X120.232 Y113.363 E.32484
M204 S1000
G1 X120.172 Y112.963 F10800
;WIPE_START
G1 F8640
G1 X118.571 Y110.521 E-.76
;WIPE_END
G1 E-.04 F2100
G1 Z.8 F720
G1 X130.66 Y110.865 F10800
G1 Z.4 F720
G1 E.8 F2100
;TYPE:Solid infill
;WIDTH:0.450369
G1 F4401
G1 X128.874 Y112.651 E.08557
G1 X128.298 Y112.651 E.01952
G1 X130.946 Y110.002 E.12692
G1 X131.734 Y108.638 E.05334
G1 X127.721 Y112.651 E.19224
G1 X127.145 Y112.651 E.01952
G1 X132.521 Y107.275 E.25756
G1 X133.308 Y105.912 E.05334
G1 X126.569 Y112.651 E.32288
G1 X125.993 Y112.651 E.01952
G1 X133.764 Y104.879 E.37236
G1 X133.553 Y104.514 E.01429
G1 X125.416 Y112.651 E.38987
G1 X124.84 Y112.651 E.01952
G1 X133.342 Y104.148 E.40737
G1 X133.132 Y103.783 E.01429
G1 X124.264 Y112.651 E.42487
G1 X123.688 Y112.651 E.01952
G1 X132.921 Y103.418 E.44237
G1 X132.71 Y103.052 E.01429
G1 X123.112 Y112.651 E.45988
G1 X122.535 Y112.651 E.01952
G1 X132.499 Y102.687 E.47738
G1 X132.288 Y102.322 E.01429
G1 X121.959 Y112.651 E.49488
G1 X121.383 Y112.651 E.01952
G1 X132.077 Y101.956 E.51239
G1 X131.866 Y101.591 E.01429
G1 X127.886 Y105.572 E.19072
G1 X127.936 Y104.945 E.02131
G1 X131.655 Y101.226 E.17817
G1 X131.444 Y100.861 E.01429
G1 X127.884 Y104.421 E.17059
G1 X127.75 Y103.979 E.01565
G1 X131.233 Y100.495 E.16691
G1 X131.022 Y100.13 E.01429
G1 X127.565 Y103.588 E.16567
G1 X127.446 Y103.366 E.00853
G1 X127.34 Y103.236 E.00567
G1 X130.812 Y99.765 E.16633
G1 X130.601 Y99.399 E.01429
G1 X127.08 Y102.92 E.16867
G1 X126.764 Y102.66 E.01387
