; generated by PrusaSlicer 2.4.0+win64 on 2022-08-09 at 19:57:40 UTC

; 

; external perimeters extrusion width = 0.45mm
; perimeters extrusion width = 0.45mm
; infill extrusion width = 0.45mm
; solid infill extrusion width = 0.45mm
; top infill extrusion width = 0.40mm
; first layer extrusion width = 0.42mm

M73 P0 R17
M73 C0
M73 Q0 S17
M73 D0
M201 X1000 Y1000 Z200 E5000 ; sets maximum accelerations, mm/sec^2
M203 X200 Y200 Z12 E120 ; sets maximum feedrates, mm/sec
M204 P1250 R1250 T1250 ; sets acceleration (P, T) and retract acceleration (R), mm/sec^2
M205 X8.00 Y8.00 Z0.40 E4.50 ; sets the jerk limits, mm/sec
M205 S0 T0 ; sets the minimum extruding and travel feed rate, mm/sec
M107
;TYPE:Custom
M862.3 P "MK3SMMU2S" ; printer model check
M862.1 P0.4 ; nozzle diameter check
M115 U3.10.0 ; tell printer latest fw version
G90 ; use absolute coordinates
M83 ; extruder relative mode
M104 S215 ; set extruder temp
M140 S60 ; set bed temp
Tx
M190 S60 ; wait for bed temp
M109 S215 ; wait for extruder temp
G28 W ; home all without mesh bed level
G80 ; mesh bed leveling

;go outside print area
G1 Y-3 F1000
G1 Z0.4 F1000
; select extruder
Tc
; purge line
G1 X55 F2000
G1 Z0.3 F1000
G92 E0
G1 X240 E25 F2200
G1 Y-2 F1000
G1 X55 E25 F1400
G1 Z0.2 F1000
M73 P1 R17
M73 Q1 S17
G1 X5 E4 F1000

M221 S95
G92 E0

; Don't change E values below. Excessive value can damage the printer.
M907 E430 ; set extruder motor current
G21 ; set units to millimeters
G90 ; use absolute coordinates
M83 ; use relative distances for extrusion
M900 K0.05 ; Filament gcode LA 1.5
M900 K30 ; Filament gcode LA 1.0
M107
;LAYER_CHANGE
;Z:0.2
;HEIGHT:0.2
;BEFORE_LAYER_CHANGE
G92 E0.0
;0.2


G1 E-.8 F2100
G1 Z.4 F720
;AFTER_LAYER_CHANGE
;0.2
G1 X115.385 Y92.45 F10800
G1 Z.2 F720
G1 E.8 F2100
M204 S800
;TYPE:Skirt/Brim
;WIDTH:0.42
G1 F1200
G1 X117.11 Y91.188 E.06702
G1 X119.367 Y90.787 E.07189
G1 X121.158 Y90.728 E.05618
G1 X122.786 Y90.871 E.05124
G1 X124.235 Y91.159 E.04632
G1 X125.172 Y91.431 E.03058
G1 X126.693 Y92.027 E.05125
G1 X128.137 Y92.794 E.05125
G1 X129.358 Y93.624 E.04631
G1 X130.125 Y94.25 E.03103
G1 X131.283 Y95.383 E.0508
G1 X132.313 Y96.652 E.05125
G1 X133.113 Y97.894 E.04631
G1 X133.569 Y98.756 E.03058
G1 X134.199 Y100.264 E.05125
G1 X134.616 Y101.681 E.04631
G1 X134.81 Y102.637 E.03058
G1 X134.988 Y104.261 E.05125
G1 X134.988 Y105.739 E.04631
G1 X134.904 Y106.71 E.03058
G1 X134.652 Y108.165 E.04631
G1 X134.399 Y109.122 E.03103
G1 X133.844 Y110.644 E.0508
M73 Q2 S17
G1 X133.191 Y111.969 E.04631
G1 X132.313 Y113.348 E.05125
G1 X131.707 Y114.13 E.03102
M73 P2 R17
G1 X130.602 Y115.315 E.0508
G1 X129.358 Y116.375 E.05125
G1 X128.137 Y117.206 E.04631
G1 X127.274 Y117.69 E.03103
G1 X125.794 Y118.35 E.0508
G1 X124.388 Y118.802 E.04631
G1 X123.414 Y119.023 E.03132
G1 X121.817 Y119.237 E.0505
G1 X120.341 Y119.273 E.04632
G1 X118.712 Y119.135 E.05125
G1 X117.11 Y118.812 E.05125
G1 X115.821 Y118.102 E.04612
G1 X114.992 Y116.132 E.06702
G1 X114.992 Y93.868 E.69809
G1 X115.369 Y92.508 E.04424
M204 S1000
G1 X115.743 Y92.62 F10800
M204 S800
G1 F1200
G1 X115.761 Y92.561 E.00195
G1 X117.197 Y91.555 E.05498
G1 X119.412 Y91.161 E.07054
G1 X121.138 Y91.105 E.05416
G1 X122.723 Y91.243 E.04989
G1 X124.151 Y91.527 E.04564
G1 X125.046 Y91.786 E.02922
G1 X126.528 Y92.366 E.0499
G1 X127.934 Y93.112 E.0499
G1 X129.137 Y93.93 E.04563
G1 X129.871 Y94.528 E.02967
G1 X130.998 Y95.631 E.04945
G1 X132.002 Y96.866 E.04989
G1 X132.791 Y98.089 E.04563
G1 X133.227 Y98.913 E.02922
G1 X133.84 Y100.381 E.04989
G1 X134.437 Y102.691 E.07479
G1 X134.611 Y104.272 E.04989
G1 X134.611 Y105.728 E.04564
G1 X134.282 Y108.09 E.07479
G1 X134.04 Y109.005 E.02967
G1 X133.501 Y110.487 E.04945
G1 X132.791 Y111.911 E.0499
G1 X132.002 Y113.134 E.04563
G1 X131.422 Y113.882 E.02967
G1 X130.348 Y115.036 E.04945
G1 X129.137 Y116.07 E.0499
G1 X127.934 Y116.888 E.04564
G1 X127.108 Y117.351 E.02967
G1 X125.668 Y117.994 E.04944
G1 X124.283 Y118.439 E.04564
G1 X123.351 Y118.651 E.02997
G1 X121.797 Y118.86 E.04914
G1 X120.342 Y118.896 E.04564
G1 X118.757 Y118.761 E.0499
G1 X117.197 Y118.445 E.0499
G1 X116.016 Y117.762 E.04278
G1 X115.369 Y116.132 E.05498
G1 X115.369 Y93.868 E.69809
G1 X115.726 Y92.678 E.03895
M204 S1000
; printing object EndAlignmentJig.stl id:0 copy 0
;WIPE_START
G1 F8640
G1 X115.761 Y92.561 E-.0282
G1 X117.197 Y91.555 E-.40485
G1 X118.591 Y91.307 E-.32695
;WIPE_END
G1 E-.04 F2100
G1 Z.6 F720
G1 X119.112 Y94.386 F10800
G1 Z.2 F720
G1 E.8 F2100
M204 S800
;TYPE:Perimeter
G1 F1200
G1 X119.764 Y94.306 E.02058
G1 X120.378 Y94.268 E.01928
G1 X120.992 Y94.266 E.01928
G1 X121.606 Y94.298 E.01928
G1 X122.218 Y94.366 E.01928
G1 X122.824 Y94.469 E.01928
G1 X123.423 Y94.606 E.01928
G1 X124.014 Y94.777 E.01928
G1 X124.593 Y94.982 E.01928
G1 X125.16 Y95.22 E.01928
G1 X125.713 Y95.489 E.01928
G1 X126.249 Y95.79 E.01928
G1 X126.767 Y96.121 E.01928
G1 X127.266 Y96.481 E.01928
G1 X127.742 Y96.869 E.01928
G1 X128.196 Y97.284 E.01928
G1 X128.626 Y97.724 E.01928
G1 X129.029 Y98.188 E.01928
G1 X129.406 Y98.674 E.01928
G1 X129.753 Y99.181 E.01928
G1 X130.072 Y99.707 E.01928
G1 X130.359 Y100.251 E.01928
G1 X130.615 Y100.81 E.01928
G1 X130.839 Y101.383 E.01928
G1 X131.029 Y101.967 E.01928
G1 X131.186 Y102.562 E.01928
G1 X131.308 Y103.164 E.01928
G1 X131.396 Y103.773 E.01928
G1 X131.449 Y104.385 E.01928
G1 X131.467 Y105 E.01928
G1 X131.449 Y105.615 E.01928
G1 X131.396 Y106.227 E.01928
G1 X131.308 Y106.836 E.01928
G1 X131.186 Y107.438 E.01928
G1 X131.029 Y108.033 E.01928
G1 X130.839 Y108.617 E.01928
G1 X130.615 Y109.19 E.01928
G1 X130.359 Y109.749 E.01928
G1 X130.072 Y110.293 E.01928
G1 X129.753 Y110.819 E.01928
G1 X129.405 Y111.326 E.01928
G1 X129.029 Y111.812 E.01928
G1 X128.626 Y112.276 E.01928
G1 X128.196 Y112.716 E.01928
G1 X127.742 Y113.131 E.01928
G1 X127.266 Y113.519 E.01928
G1 X126.767 Y113.879 E.01928
G1 X126.249 Y114.21 E.01928
G1 X125.713 Y114.511 E.01928
G1 X125.16 Y114.78 E.01928
G1 X124.593 Y115.018 E.01928
G1 X124.014 Y115.223 E.01928
G1 X123.423 Y115.394 E.01928
G1 X122.824 Y115.531 E.01928
G1 X122.218 Y115.634 E.01928
G1 X121.606 Y115.702 E.01928
G1 X120.992 Y115.734 E.01928
G1 X120.378 Y115.732 E.01928
G1 X119.764 Y115.694 E.01928
G1 X119.153 Y115.621 E.01928
G1 X118.719 Y115.544 E.01385
G1 X118.966 Y114.62 E.02999
G1 X119.465 Y114.702 E.01585
G1 X119.863 Y114.919 E.01422
G1 X120.206 Y115.029 E.01128
G1 X120.581 Y115.083 E.0119
G1 X120.91 Y115.082 E.0103
G1 X121.265 Y115.026 E.01128
G1 X121.625 Y114.905 E.0119
G1 X121.918 Y114.757 E.0103
G1 X122.206 Y114.549 E.01115
G1 X122.46 Y114.299 E.01116
G1 X122.614 Y114.089 E.00817
G1 X123.449 Y113.88 E.02696
G1 X124.037 Y113.678 E.01952
G1 X124.611 Y113.437 E.01952
G1 X125.168 Y113.158 E.01952
G1 X125.704 Y112.843 E.01952
G1 X126.218 Y112.492 E.01952
G1 X126.708 Y112.107 E.01952
G1 X127.17 Y111.691 E.01952
G1 X127.604 Y111.244 E.01952
G1 X128.007 Y110.77 E.01952
G1 X128.377 Y110.269 E.01952
G1 X128.713 Y109.745 E.01952
G1 X129.013 Y109.2 E.01952
G1 X129.275 Y108.636 E.01952
G1 X129.5 Y108.055 E.01952
G1 X129.685 Y107.461 E.01952
G1 X129.829 Y106.855 E.01952
G1 X129.933 Y106.241 E.01952
G1 X129.996 Y105.622 E.01952
G1 X130.016 Y105 E.01952
G1 X129.996 Y104.378 E.01952
G1 X129.933 Y103.759 E.01952
G1 X129.829 Y103.145 E.01952
G1 X129.685 Y102.539 E.01952
G1 X129.5 Y101.945 E.01952
G1 X129.275 Y101.364 E.01952
G1 X129.013 Y100.8 E.01952
G1 X128.713 Y100.255 E.01952
G1 X128.377 Y99.731 E.01952
G1 X128.007 Y99.23 E.01952
G1 X127.604 Y98.756 E.01952
G1 X127.17 Y98.309 E.01952
G1 X126.708 Y97.893 E.01952
G1 X126.218 Y97.508 E.01952
G1 X125.704 Y97.157 E.01952
G1 X125.168 Y96.842 E.01952
G1 X124.611 Y96.563 E.01952
G1 X124.037 Y96.322 E.01952
G1 X123.449 Y96.12 E.01952
G1 X122.614 Y95.911 E.02696
G1 X122.46 Y95.701 E.00817
G1 X122.206 Y95.451 E.01116
G1 X121.918 Y95.243 E.01115
G1 X121.624 Y95.095 E.0103
G1 X121.265 Y94.974 E.01189
G1 X120.91 Y94.918 E.01128
G1 X120.581 Y94.917 E.0103
G1 X120.206 Y94.971 E.0119
G1 X119.863 Y95.081 E.01128
G1 X119.465 Y95.298 E.01422
G1 X118.966 Y95.38 E.01585
G1 X118.719 Y94.456 E.02999
G1 X119.053 Y94.396 E.01066
M204 S1000
G1 X118.251 Y94.169 F10800
M204 S800
;TYPE:External perimeter
M73 Q3 S17
G1 F1200
G1 X119.098 Y94.005 E.02704
G1 X119.73 Y93.93 E.01996
G1 X120.365 Y93.891 E.01996
G1 X121.002 Y93.889 E.01996
G1 X121.637 Y93.922 E.01996
G1 X122.27 Y93.992 E.01995
M73 P3 R17
G1 X122.897 Y94.099 E.01996
G1 X123.518 Y94.241 E.01996
G1 X124.129 Y94.418 E.01995
G1 X124.729 Y94.63 E.01996
G1 X125.316 Y94.876 E.01996
G1 X125.888 Y95.155 E.01995
G1 X126.443 Y95.466 E.01996
G1 X126.979 Y95.809 E.01996
G1 X127.495 Y96.182 E.01995
G1 X127.989 Y96.584 E.01996
G1 X128.459 Y97.013 E.01996
G1 X128.903 Y97.469 E.01996
G1 X129.321 Y97.949 E.01995
G1 X129.71 Y98.452 E.01996
G1 X130.07 Y98.977 E.01995
G1 X130.4 Y99.522 E.01996
G1 X130.698 Y100.084 E.01995
G1 X130.963 Y100.663 E.01996
G1 X131.194 Y101.256 E.01995
G1 X131.391 Y101.861 E.01996
G1 X131.553 Y102.476 E.01996
G1 X131.68 Y103.1 E.01996
G1 X131.771 Y103.73 E.01996
G1 X131.826 Y104.364 E.01995
G1 X131.844 Y105 E.01996
G1 X131.826 Y105.636 E.01995
G1 X131.771 Y106.27 E.01996
G1 X131.68 Y106.9 E.01996
G1 X131.553 Y107.524 E.01996
G1 X131.391 Y108.139 E.01996
G1 X131.194 Y108.744 E.01995
G1 X130.963 Y109.337 E.01996
G1 X130.698 Y109.916 E.01996
G1 X130.4 Y110.478 E.01995
G1 X130.07 Y111.023 E.01996
G1 X129.71 Y111.548 E.01996
G1 X129.321 Y112.051 E.01995
G1 X128.903 Y112.531 E.01996
G1 X128.459 Y112.987 E.01996
G1 X127.989 Y113.416 E.01996
G1 X127.495 Y113.818 E.01995
G1 X126.979 Y114.191 E.01995
G1 X126.443 Y114.534 E.01996
G1 X125.888 Y114.845 E.01996
G1 X125.316 Y115.124 E.01996
G1 X124.729 Y115.37 E.01995
G1 X124.129 Y115.582 E.01996
G1 X123.518 Y115.759 E.01995
G1 X122.897 Y115.901 E.01996
G1 X122.27 Y116.008 E.01996
G1 X121.637 Y116.078 E.01995
G1 X121.002 Y116.111 E.01996
G1 X120.365 Y116.109 E.01996
G1 X119.73 Y116.07 E.01996
G1 X119.098 Y115.995 E.01996
G1 X118.251 Y115.831 E.02704
G1 X118.694 Y114.179 E.05362
G1 X119.238 Y114.291 E.01742
G1 X119.608 Y114.341 E.01171
G1 X119.74 Y114.436 E.00511
G1 X120.006 Y114.569 E.00932
G1 X120.29 Y114.66 E.00936
G1 X120.608 Y114.706 E.01005
G1 X120.88 Y114.705 E.00853
G1 X121.175 Y114.659 E.00936
G1 X121.479 Y114.556 E.01005
G1 X121.721 Y114.433 E.00853
G1 X121.962 Y114.26 E.00931
G1 X122.174 Y114.051 E.00932
G1 X122.382 Y113.751 E.01146
G1 X122.762 Y113.675 E.01213
G1 X123.338 Y113.52 E.01872
G1 X123.903 Y113.326 E.01872
G1 X124.453 Y113.094 E.01872
G1 X124.987 Y112.827 E.01872
G1 X125.502 Y112.524 E.01872
G1 X125.995 Y112.187 E.01872
G1 X126.465 Y111.819 E.01872
G1 X126.909 Y111.419 E.01872
G1 X127.325 Y110.991 E.01872
G1 X127.711 Y110.535 E.01872
G1 X128.066 Y110.055 E.01872
G1 X128.388 Y109.552 E.01872
G1 X128.676 Y109.029 E.01872
G1 X128.928 Y108.488 E.01872
G1 X129.143 Y107.931 E.01872
G1 X129.321 Y107.361 E.01872
G1 X129.46 Y106.78 E.01872
G1 X129.559 Y106.191 E.01872
G1 X129.619 Y105.597 E.01872
G1 X129.639 Y105 E.01872
G1 X129.619 Y104.403 E.01872
G1 X129.559 Y103.809 E.01872
G1 X129.46 Y103.22 E.01872
G1 X129.321 Y102.639 E.01872
G1 X129.143 Y102.069 E.01872
G1 X128.928 Y101.512 E.01872
G1 X128.676 Y100.971 E.01872
G1 X128.388 Y100.448 E.01872
G1 X128.066 Y99.945 E.01872
G1 X127.711 Y99.465 E.01872
G1 X127.325 Y99.009 E.01872
G1 X126.909 Y98.581 E.01872
G1 X126.465 Y98.181 E.01872
G1 X125.995 Y97.813 E.01872
G1 X125.502 Y97.476 E.01872
G1 X124.987 Y97.173 E.01872
G1 X124.453 Y96.906 E.01872
G1 X123.903 Y96.674 E.01872
G1 X123.338 Y96.48 E.01872
G1 X122.762 Y96.325 E.01872
G1 X122.382 Y96.249 E.01213
G1 X122.174 Y95.949 E.01146
G1 X121.962 Y95.74 E.00932
G1 X121.721 Y95.567 E.00931
G1 X121.478 Y95.444 E.00853
G1 X121.175 Y95.341 E.01005
G1 X120.88 Y95.295 E.00936
G1 X120.608 Y95.294 E.00853
G1 X120.29 Y95.34 E.01005
G1 X120.006 Y95.431 E.00936
G1 X119.74 Y95.564 E.00932
G1 X119.608 Y95.659 E.00511
G1 X119.238 Y95.709 E.01171
G1 X118.694 Y95.821 E.01742
G1 X118.267 Y94.227 E.05174
M204 S1000
G1 X118.643 Y94.251 F10800
G1 X119.157 Y94.493
M204 S800
;TYPE:Solid infill
;WIDTH:0.468183
G1 F1200
G1 X119.703 Y95.039 E.02731
M204 S1000
G1 X120.075 Y94.637 F10800
M204 S800
;TYPE:Gap fill
;WIDTH:0.351938
G1 F1200
G1 X120.389 Y94.605 E.0081
M204 S1000
M204 S800
;WIDTH:0.339068
G1 X120.549 Y94.593 E.00395
M204 S1000
M204 S800
;WIDTH:0.317015
G1 X120.568 Y94.592 E.00045
M204 S1000
M204 S800
;WIDTH:0.317623
G1 X120.925 Y94.592 E.00815
M204 S1000
M204 S800
;WIDTH:0.319408
G1 X120.946 Y94.593 E.00049
M204 S1000
M204 S800
;WIDTH:0.325565
G1 X120.984 Y94.596 E.0009
M204 S1000
M204 S800
;WIDTH:0.349618
G1 X121.368 Y94.636 E.00985
M204 S1000
;WIPE_START
G1 F8640
G1 X120.984 Y94.596 E-.08914
;WIPE_END
G1 E-.71086 F2100
G1 Z.6 F720
G1 X126.772 Y96.264 F10800
G1 Z.2 F720
G1 E.8 F2100
M204 S800
;TYPE:Solid infill
;WIDTH:0.425812
M73 P3 R16
G1 F1200
G1 X128.418 Y97.916 E.07422
G1 X128.811 Y98.368 E.01906
G1 X129.177 Y98.841 E.01906
G1 X129.516 Y99.335 E.01906
G1 X129.839 Y99.872 E.01998
G1 X125.866 Y95.899 E.1789
G1 X125.582 Y95.74 E.01037
G1 X124.8 Y95.375 E.02745
G1 X130.361 Y100.936 E.25037
G1 X130.674 Y101.791 E.029
G1 X128.889 Y100.005 E.08041
G1 X128.61 Y99.57 E.01644
G1 X128.229 Y99.054 E.02042
G1 X127.813 Y98.565 E.02042
G1 X127.367 Y98.105 E.02042
G1 X126.89 Y97.676 E.02042
G1 X126.385 Y97.28 E.02042
G1 X125.725 Y96.842 E.02522
G1 X123.932 Y95.048 E.08077
G1 X123.183 Y94.841 E.02473
G1 X124.589 Y96.247 E.06328
G1 X124.138 Y96.057 E.01556
M73 Q3 S16
G1 X123.711 Y95.911 E.01436
G1 X122.502 Y94.701 E.05447
G1 X121.871 Y94.612 E.02026
G1 X123.2 Y95.941 E.05982
M204 S1000
;WIPE_START
G1 F8640
G1 X121.871 Y94.612 E-.43384
G1 X122.502 Y94.701 E-.14697
G1 X123.05 Y95.25 E-.17919
;WIPE_END
G1 E-.04 F2100
G1 Z.6 F720
G1 X129.133 Y100.791 F10800
G1 Z.2 F720
G1 E.8 F2100
M204 S800
G1 F1200
G1 X130.89 Y102.548 E.0791
G1 X131.033 Y103.232 E.02225
G1 X129.818 Y102.018 E.05466
G1 X129.957 Y102.465 E.01489
G1 X130.031 Y102.772 E.01006
G1 X131.12 Y103.861 E.04903
G1 X131.168 Y104.45 E.01883
G1 X130.168 Y103.45 E.04503
G1 X130.249 Y104.073 E.02
G1 X131.183 Y105.007 E.04207
G1 X131.168 Y105.534 E.01677
G1 X130.288 Y104.653 E.03965
G1 X130.293 Y105.2 E.0174
G1 X131.129 Y106.036 E.03765
G1 X131.069 Y106.517 E.01544
G1 X130.27 Y105.718 E.03596
G1 X130.22 Y106.21 E.01574
G1 X130.991 Y106.98 E.03467
G1 X130.896 Y107.428 E.01455
G1 X130.146 Y106.678 E.03378
G1 X130.055 Y107.128 E.01463
G1 X130.783 Y107.856 E.0328
G1 X130.655 Y108.269 E.01377
G1 X129.949 Y107.563 E.03179
G1 X129.82 Y107.976 E.01377
G1 X130.515 Y108.67 E.03126
G1 X130.363 Y109.06 E.01331
G1 X129.679 Y108.376 E.03079
G1 X129.527 Y108.766 E.01331
G1 X130.193 Y109.432 E.03001
G1 X130.105 Y109.624 E.00672
G1 X130.015 Y109.795 E.00617
G1 X129.355 Y109.135 E.02972
G1 X129.173 Y109.495 E.01283
G1 X129.825 Y110.153 E.0295
G1 X129.624 Y110.487 E.01242
G1 X128.981 Y109.844 E.02893
G1 X128.772 Y110.177 E.0125
G1 X129.412 Y110.817 E.0288
G1 X129.191 Y111.138 E.0124
G1 X128.556 Y110.503 E.0286
G1 X128.326 Y110.814 E.01233
G1 X128.956 Y111.444 E.02838
G1 X128.714 Y111.743 E.01226
G1 X128.085 Y111.114 E.02831
G1 X127.837 Y111.407 E.01223
G1 X128.462 Y112.033 E.02817
G1 X128.197 Y112.31 E.01219
G1 X127.571 Y111.684 E.02819
G1 X127.3 Y111.954 E.01219
G1 X127.926 Y112.58 E.02817
G1 X127.643 Y112.838 E.0122
G1 X127.015 Y112.211 E.02826
G1 X126.72 Y112.457 E.01224
G1 X127.349 Y113.086 E.02832
G1 X127.093 Y113.294 E.01051
G1 X127.048 Y113.327 E.00176
G1 X126.417 Y112.695 E.02843
G1 X126.097 Y112.917 E.01239
G1 X126.734 Y113.554 E.02869
G1 X126.608 Y113.645 E.00495
G1 X126.41 Y113.771 E.00748
G1 X125.77 Y113.132 E.02881
G1 X125.43 Y113.332 E.01259
G1 X126.079 Y113.981 E.02923
G1 X125.732 Y114.176 E.01266
G1 X125.076 Y113.52 E.02952
G1 X124.715 Y113.7 E.01286
G1 X125.375 Y114.361 E.02974
G1 X125.01 Y114.537 E.01291
G1 X124.333 Y113.861 E.03045
G1 X123.942 Y114.01 E.01336
G1 X124.628 Y114.697 E.03092
G1 X124.235 Y114.845 E.01338
G1 X123.538 Y114.149 E.03135
G1 X123.106 Y114.258 E.0142
G1 X123.83 Y114.982 E.0326
G1 X123.41 Y115.103 E.01391
G1 X122.724 Y114.417 E.03091
G1 X122.461 Y114.695 E.0122
