; generated by PrusaSlicer 2.4.0+win64 on 2022-08-10 at 01:31:55 UTC

; 

; external perimeters extrusion width = 0.45mm
; perimeters extrusion width = 0.45mm
; infill extrusion width = 0.45mm
; solid infill extrusion width = 0.45mm
; top infill extrusion width = 0.40mm
; first layer extrusion width = 0.42mm

M73 P0 R31
M73 C1
M73 Q0 S31
M73 D1
M201 X1000 Y1000 Z200 E5000 ; sets maximum accelerations, mm/sec^2
M203 X200 Y200 Z12 E120 ; sets maximum feedrates, mm/sec
M204 P1250 R1250 T1250 ; sets acceleration (P, T) and retract acceleration (R), mm/sec^2
M205 X8.00 Y8.00 Z0.40 E4.50 ; sets the jerk limits, mm/sec
M205 S0 T0 ; sets the minimum extruding and travel feed rate, mm/sec
M107
;TYPE:Custom
M862.3 P "MK3SMMU2S" ; printer model check
M862.1 P0.4 ; nozzle diameter check
M115 U3.10.0 ; tell printer latest fw version
G90 ; use absolute coordinates
M83 ; extruder relative mode
M104 S215 ; set extruder temp
M140 S60 ; set bed temp
Tx
M190 S60 ; wait for bed temp
M109 S215 ; wait for extruder temp
G28 W ; home all without mesh bed level
G80 ; mesh bed leveling

;go outside print area
G1 Y-3 F1000
G1 Z0.4 F1000
; select extruder
Tc
; purge line
G1 X55 F2000
G1 Z0.3 F1000
G92 E0
G1 X240 E25 F2200
G1 Y-2 F1000
G1 X55 E25 F1400
G1 Z0.2 F1000
G1 X5 E4 F1000

M221 S95
G92 E0

; Don't change E values below. Excessive value can damage the printer.
M907 E430 ; set extruder motor current
G21 ; set units to millimeters
G90 ; use absolute coordinates
M83 ; use relative distances for extrusion
M900 K0.05 ; Filament gcode LA 1.5
M900 K30 ; Filament gcode LA 1.0
M107
;LAYER_CHANGE
;Z:0.2
;HEIGHT:0.2
;BEFORE_LAYER_CHANGE
G92 E0.0
;0.2


G1 E-.8 F2100
G1 Z.4 F720
;AFTER_LAYER_CHANGE
;0.2
G1 X115.611 Y97.088 F10800
G1 Z.2 F720
M73 P1 R31
M73 Q1 S31
G1 E.8 F2100
M204 S800
;TYPE:Skirt/Brim
;WIDTH:0.42
G1 F1200
G1 X116.611 Y96.035 E.04551
G1 X118.065 Y94.869 E.05844
G1 X119.309 Y94.121 E.04551
G1 X120.246 Y93.68 E.03248
G1 X121.615 Y93.198 E.04551
G1 X122.501 Y92.978 E.02862
G1 X124.06 Y92.758 E.04937
G1 X125.095 Y92.722 E.03248
G1 X126.544 Y92.82 E.04551
G1 X127.445 Y92.967 E.02862
G1 X128.37 Y93.194 E.02986
G1 X129.817 Y93.705 E.04813
G1 X130.677 Y94.113 E.02986
G1 X131.992 Y94.906 E.04813
G1 X132.753 Y95.479 E.02986
G1 X133.881 Y96.52 E.04813
G1 X134.51 Y97.235 E.02986
G1 X135.406 Y98.482 E.04813
G1 X135.879 Y99.308 E.02986
G1 X136.505 Y100.71 E.04813
G1 X136.802 Y101.614 E.02986
G1 X137.133 Y103.113 E.04814
G1 X137.242 Y104.059 E.02986
G1 X137.267 Y105.511 E.04551
G1 X137.049 Y107.362 E.05844
G1 X136.686 Y108.767 E.04551
G1 X136.327 Y109.739 E.03248
G1 X135.688 Y111.042 E.04551
G1 X135.211 Y111.82 E.02862
G1 X134.253 Y113.07 E.04937
G1 X133.54 Y113.821 E.03248
G1 X132.439 Y114.768 E.04551
G1 X131.693 Y115.294 E.02862
G1 X130.875 Y115.781 E.02986
G1 X129.484 Y116.431 E.04813
G1 X128.584 Y116.743 E.02986
G1 X127.091 Y117.1 E.04814
G1 X126.147 Y117.224 E.02985
G1 X124.633 Y117.273 E.04749
G1 X123.663 Y117.205 E.03051
G1 X122.15 Y116.944 E.04813
G1 X121.234 Y116.686 E.02986
G1 X119.881 Y116.16 E.04551
G1 X118.25 Y115.256 E.05844
G1 X117.087 Y114.388 E.04551
G1 X116.324 Y113.688 E.03248
G1 X115.359 Y112.603 E.04551
G1 X114.82 Y111.866 E.02862
G1 X114.32 Y111.056 E.02986
G1 X113.646 Y109.677 E.04813
G1 X113.319 Y108.782 E.02986
G1 X112.937 Y107.295 E.04813
G1 X112.744 Y105.733 E.04936
G1 X112.723 Y104.765 E.03035
G1 X112.847 Y103.251 E.04764
G1 X113.01 Y102.352 E.02862
G1 X113.252 Y101.431 E.02986
G1 X113.788 Y99.993 E.04813
G1 X114.211 Y99.14 E.02986
G1 X115.026 Y97.839 E.04813
G1 X115.575 Y97.135 E.02798
M204 S1000
G1 X115.872 Y97.367 F10800
M204 S800
G1 F1200
G1 X116.876 Y96.303 E.04586
G1 X118.282 Y95.177 E.05647
G1 X119.493 Y94.45 E.04429
G1 X120.39 Y94.028 E.03108
G1 X121.729 Y93.557 E.04452
G1 X122.627 Y93.337 E.02899
G1 X124.099 Y93.133 E.04661
G1 X125.03 Y93.098 E.0292
G1 X126.506 Y93.195 E.04638
G1 X127.419 Y93.346 E.02901
G1 X128.852 Y93.74 E.04659
G1 X129.709 Y94.069 E.02879
G1 X130.507 Y94.45 E.02774
G1 X131.763 Y95.207 E.04597
G1 X132.513 Y95.77 E.0294
G1 X133.558 Y96.73 E.04451
G1 X134.221 Y97.477 E.03131
G1 X135.077 Y98.668 E.04598
G1 X135.547 Y99.487 E.02962
G1 X136.126 Y100.775 E.04427
G1 X136.441 Y101.723 E.03132
G1 X136.748 Y103.101 E.04427
G1 X136.9 Y104.896 E.05649
G1 X136.829 Y106.307 E.04429
G1 X136.694 Y107.215 E.02878
G1 X136.324 Y108.661 E.04682
G1 X136.009 Y109.524 E.02878
G1 X135.355 Y110.865 E.0468
G1 X134.873 Y111.647 E.02879
G1 X133.962 Y112.83 E.0468
G1 X133.328 Y113.503 E.029
G1 X132.202 Y114.474 E.04661
G1 X131.446 Y115.005 E.02898
G1 X130.148 Y115.73 E.04661
G1 X129.306 Y116.096 E.02878
G1 X127.883 Y116.546 E.0468
G1 X126.984 Y116.735 E.02879
G1 X126.114 Y116.849 E.02751
G1 X124.655 Y116.897 E.04577
G1 X123.699 Y116.83 E.03005
G1 X122.254 Y116.581 E.04597
G1 X121.345 Y116.326 E.02962
G1 X120.029 Y115.813 E.04427
G1 X118.454 Y114.939 E.05649
G1 X117.323 Y114.093 E.04427
G1 X116.587 Y113.417 E.03132
G1 X115.649 Y112.362 E.04427
G1 X115.109 Y111.619 E.02879
G1 X114.359 Y110.329 E.0468
G1 X113.976 Y109.487 E.029
G1 X113.504 Y108.078 E.04659
G1 X113.299 Y107.176 E.029
G1 X113.12 Y105.7 E.04659
G1 X113.1 Y104.776 E.029
G1 X113.222 Y103.294 E.04661
G1 X113.389 Y102.385 E.02899
G1 X113.614 Y101.536 E.02753
G1 X114.126 Y100.162 E.04598
G1 X114.545 Y99.315 E.02962
G1 X115.322 Y98.072 E.04597
G1 X115.835 Y97.414 E.02616
M204 S1000
; printing object PinPositioningDuringEndCapAttachmentJig.stl id:0 copy 0
;WIPE_START
G1 F8640
G1 X116.876 Y96.303 E-.35153
G1 X118.257 Y95.197 E-.40847
;WIPE_END
G1 E-.04 F2100
G1 Z.6 F720
G1 X123.903 Y103.731 F10800
G1 Z.2 F720
G1 E.8 F2100
M204 S800
;TYPE:Perimeter
G1 F1200
G1 X124.132 Y103.557 E.00901
G1 X124.462 Y103.404 E.01142
G1 X124.818 Y103.326 E.01142
G1 X125.182 Y103.326 E.01142
G1 X125.538 Y103.404 E.01142
G1 X125.868 Y103.557 E.01142
G1 X126.158 Y103.777 E.01142
G1 X126.394 Y104.055 E.01142
G1 X126.565 Y104.377 E.01142
G1 X126.662 Y104.728 E.01142
G1 X126.682 Y105.091 E.01142
G1 X126.623 Y105.451 E.01142
G1 X126.488 Y105.789 E.01142
G1 X126.284 Y106.09 E.01142
G1 X126.019 Y106.341 E.01142
G1 X125.707 Y106.529 E.01142
G1 X125.362 Y106.645 E.01142
G1 X125 Y106.684 E.01142
G1 X124.638 Y106.645 E.01142
G1 X124.293 Y106.529 E.01142
G1 X123.981 Y106.341 E.01142
G1 X123.716 Y106.09 E.01142
G1 X123.512 Y105.789 E.01142
G1 X123.377 Y105.451 E.01142
G1 X123.318 Y105.091 E.01142
G1 X123.338 Y104.728 E.01142
G1 X123.435 Y104.377 E.01142
G1 X123.606 Y104.055 E.01142
G1 X123.855 Y103.767 E.01193
M204 S1000
G1 X123.92 Y104.268 F10800
M204 S800
;TYPE:External perimeter
G1 F1200
G1 X124.103 Y104.053 E.00885
G1 X124.327 Y103.882 E.00885
G1 X124.583 Y103.763 E.00885
G1 X124.859 Y103.703 E.00885
G1 X125.141 Y103.703 E.00885
G1 X125.417 Y103.763 E.00885
G1 X125.673 Y103.882 E.00885
G1 X125.897 Y104.053 E.00885
G1 X126.08 Y104.268 E.00885
G1 X126.212 Y104.517 E.00885
G1 X126.288 Y104.789 E.00885
G1 X126.303 Y105.071 E.00885
G1 X126.257 Y105.349 E.00885
G1 X126.153 Y105.611 E.00885
G1 X125.995 Y105.845 E.00885
G1 X125.79 Y106.039 E.00885
G1 X125.548 Y106.184 E.00885
G1 X125.281 Y106.274 E.00885
G1 X125 Y106.305 E.00885
G1 X124.719 Y106.274 E.00885
G1 X124.452 Y106.184 E.00885
G1 X124.21 Y106.039 E.00885
G1 X124.005 Y105.845 E.00885
G1 X123.847 Y105.611 E.00885
G1 X123.743 Y105.349 E.00885
G1 X123.697 Y105.071 E.00885
G1 X123.712 Y104.789 E.00885
G1 X123.788 Y104.517 E.00885
G1 X123.892 Y104.321 E.00697
M204 S1000
G1 X123.797 Y104.014 F10800
;WIPE_START
G1 F8640
G1 X124.103 Y104.053 E-.07874
G1 X124.327 Y103.882 E-.06516
G1 X124.583 Y103.763 E-.06515
G1 X124.859 Y103.703 E-.06516
G1 X125.141 Y103.703 E-.06515
G1 X125.417 Y103.763 E-.06515
G1 X125.673 Y103.882 E-.06515
G1 X125.897 Y104.053 E-.06516
G1 X126.08 Y104.268 E-.06515
G1 X126.212 Y104.517 E-.06515
G1 X126.288 Y104.789 E-.06516
G1 X126.295 Y104.917 E-.02971
;WIPE_END
G1 E-.04 F2100
G1 Z.6 F720
G1 X117.982 Y99.8 F10800
G1 Z.2 F720
G1 E.8 F2100
M204 S800
;TYPE:Perimeter
G1 F1200
G1 X118.275 Y99.421 E.01503
G1 X118.667 Y98.98 E.01851
G1 X119.088 Y98.566 E.0185
G1 X119.536 Y98.182 E.01851
G1 X120.009 Y97.829 E.01851
G1 X120.504 Y97.508 E.0185
G1 X121.02 Y97.222 E.01851
G1 X121.554 Y96.971 E.0185
G1 X122.104 Y96.756 E.01851
G1 X122.667 Y96.58 E.01851
G1 X123.241 Y96.441 E.0185
G1 X123.823 Y96.342 E.01851
G1 X124.41 Y96.282 E.01851
G1 X125 Y96.262 E.0185
G1 X125.59 Y96.282 E.01851
G1 X126.177 Y96.342 E.0185
G1 X126.759 Y96.441 E.01851
G1 X127.333 Y96.58 E.0185
G1 X127.896 Y96.756 E.01851
G1 X128.446 Y96.971 E.01851
G1 X128.98 Y97.222 E.01851
G1 X129.496 Y97.508 E.0185
G1 X129.991 Y97.829 E.0185
G1 X130.464 Y98.182 E.01851
G1 X130.912 Y98.566 E.01851
G1 X131.333 Y98.98 E.0185
G1 X131.725 Y99.421 E.01851
G1 X132.086 Y99.888 E.0185
G1 X132.415 Y100.378 E.0185
G1 X132.71 Y100.889 E.01851
G1 X132.97 Y101.419 E.0185
G1 X133.194 Y101.965 E.0185
G1 X133.38 Y102.526 E.01851
G1 X133.528 Y103.097 E.01851
G1 X133.637 Y103.677 E.0185
G1 X133.706 Y104.263 E.01851
G1 X133.736 Y104.852 E.01851
G1 X133.726 Y105.442 E.0185
G1 X133.677 Y106.031 E.01851
G1 X133.587 Y106.614 E.0185
G1 X133.459 Y107.19 E.01851
G1 X133.291 Y107.756 E.01851
G1 X133.086 Y108.31 E.01851
G1 X132.845 Y108.848 E.0185
G1 X132.567 Y109.369 E.01851
G1 X132.255 Y109.87 E.01851
G1 X131.909 Y110.348 E.01851
G1 X131.533 Y110.803 E.0185
G1 X131.126 Y111.23 E.01851
G1 X130.691 Y111.63 E.01851
G1 X130.231 Y111.999 E.0185
G1 X129.746 Y112.336 E.01851
G1 X129.24 Y112.64 E.0185
G1 X128.715 Y112.908 E.01851
G1 X128.173 Y113.141 E.0185
G1 X127.616 Y113.337 E.01851
G1 X127.047 Y113.494 E.0185
G1 X126.469 Y113.613 E.01851
G1 X125.884 Y113.693 E.01851
G1 X125.295 Y113.733 E.0185
G1 X124.705 Y113.733 E.01851
G1 X124.116 Y113.693 E.0185
G1 X123.531 Y113.613 E.01851
G1 X122.953 Y113.494 E.01851
G1 X122.384 Y113.337 E.01851
G1 X121.827 Y113.141 E.01851
G1 X121.285 Y112.908 E.0185
G1 X120.76 Y112.64 E.01851
G1 X120.254 Y112.336 E.0185
G1 X119.769 Y111.999 E.01851
G1 X119.309 Y111.63 E.01851
G1 X118.874 Y111.23 E.0185
G1 X118.467 Y110.803 E.01851
G1 X118.091 Y110.348 E.01851
G1 X117.745 Y109.87 E.01851
G1 X117.433 Y109.369 E.0185
G1 X117.155 Y108.848 E.01851
G1 X116.914 Y108.31 E.01851
G1 X116.709 Y107.756 E.0185
G1 X116.541 Y107.19 E.0185
G1 X116.413 Y106.614 E.01851
G1 X116.323 Y106.031 E.0185
G1 X116.274 Y105.443 E.0185
G1 X116.264 Y104.852 E.01851
G1 X116.294 Y104.263 E.01851
G1 X116.363 Y103.677 E.0185
G1 X116.472 Y103.097 E.01851
G1 X116.62 Y102.526 E.0185
G1 X116.806 Y101.965 E.01851
G1 X117.03 Y101.419 E.01851
G1 X117.29 Y100.889 E.0185
G1 X117.585 Y100.378 E.0185
G1 X117.945 Y99.848 E.0201
M204 S1000
G1 X117.44 Y99.918 F10800
M204 S800
;TYPE:External perimeter
G1 F1200
G1 X117.608 Y99.667 E.00946
G1 X117.985 Y99.181 E.01931
G1 X118.394 Y98.72 E.01931
G1 X118.833 Y98.289 E.0193
G1 X119.3 Y97.887 E.01931
G1 X119.793 Y97.519 E.01931
G1 X120.31 Y97.184 E.0193
G1 X120.848 Y96.886 E.0193
G1 X121.406 Y96.624 E.0193
G1 X121.979 Y96.4 E.0193
G1 X122.567 Y96.216 E.01931
G1 X123.165 Y96.072 E.0193
G1 X123.772 Y95.968 E.01931
G1 X124.385 Y95.906 E.01931
G1 X125 Y95.885 E.0193
G1 X125.615 Y95.906 E.01931
G1 X126.228 Y95.968 E.0193
G1 X126.835 Y96.072 E.01931
G1 X127.433 Y96.216 E.0193
G1 X128.021 Y96.4 E.0193
G1 X128.595 Y96.624 E.01931
G1 X129.152 Y96.886 E.0193
G1 X129.69 Y97.184 E.0193
G1 X130.207 Y97.519 E.0193
G1 X130.7 Y97.887 E.01931
G1 X131.167 Y98.289 E.01931
G1 X131.606 Y98.72 E.0193
G1 X132.015 Y99.181 E.01931
G1 X132.392 Y99.667 E.0193
G1 X132.735 Y100.179 E.0193
G1 X133.043 Y100.712 E.01931
G1 X133.314 Y101.265 E.0193
G1 X133.547 Y101.834 E.0193
G1 X133.742 Y102.419 E.01931
G1 X133.896 Y103.015 E.0193
G1 X134.01 Y103.62 E.0193
G1 X134.082 Y104.231 E.0193
G1 X134.114 Y104.846 E.01931
G1 X134.103 Y105.462 E.0193
G1 X134.051 Y106.075 E.01931
G1 X133.958 Y106.684 E.0193
G1 X133.824 Y107.285 E.01931
G1 X133.649 Y107.875 E.01931
G1 X133.436 Y108.453 E.01931
G1 X133.183 Y109.014 E.0193
G1 X132.894 Y109.557 E.01931
G1 X132.568 Y110.08 E.01931
G1 X132.208 Y110.579 E.0193
G1 X131.815 Y111.053 E.0193
G1 X131.39 Y111.499 E.01931
G1 X130.937 Y111.916 E.0193
G1 X130.457 Y112.301 E.0193
G1 X129.951 Y112.653 E.01931
G1 X129.423 Y112.97 E.0193
G1 X128.875 Y113.25 E.01931
G1 X128.31 Y113.493 E.0193
G1 X127.729 Y113.697 E.01931
G1 X127.135 Y113.861 E.0193
G1 X126.532 Y113.985 E.0193
G1 X125.922 Y114.068 E.01931
G1 X125.308 Y114.11 E.0193
G1 X124.692 Y114.11 E.01931
G1 X124.078 Y114.068 E.0193
G1 X123.468 Y113.985 E.01931
G1 X122.865 Y113.861 E.01931
G1 X122.271 Y113.697 E.0193
G1 X121.69 Y113.493 E.01931
G1 X121.125 Y113.25 E.0193
G1 X120.577 Y112.97 E.01931
G1 X120.049 Y112.653 E.0193
G1 X119.543 Y112.301 E.01931
G1 X119.063 Y111.916 E.01931
G1 X118.61 Y111.499 E.0193
G1 X118.185 Y111.053 E.0193
G1 X117.792 Y110.579 E.01931
G1 X117.432 Y110.08 E.0193
G1 X117.106 Y109.557 E.0193
G1 X116.817 Y109.014 E.01931
G1 X116.564 Y108.452 E.0193
G1 X116.351 Y107.875 E.0193
G1 X116.176 Y107.285 E.0193
G1 X116.042 Y106.684 E.01931
G1 X115.949 Y106.075 E.0193
G1 X115.897 Y105.462 E.0193
G1 X115.886 Y104.846 E.01931
G1 X115.918 Y104.231 E.0193
G1 X115.99 Y103.62 E.0193
G1 X116.104 Y103.015 E.0193
G1 X116.258 Y102.419 E.0193
G1 X116.453 Y101.834 E.0193
G1 X116.686 Y101.265 E.01931
G1 X116.957 Y100.712 E.0193
G1 X117.406 Y99.968 E.02725
M204 S1000
G1 X117.741 Y99.93 F10800
;WIPE_START
G1 F8640
G1 X117.608 Y99.667 E-.08354
G1 X117.985 Y99.181 E-.14217
G1 X118.394 Y98.72 E-.14217
G1 X118.833 Y98.289 E-.14215
G1 X119.3 Y97.887 E-.14218
G1 X119.674 Y97.608 E-.10779
;WIPE_END
G1 E-.04 F2100
G1 Z.6 F720
G1 X129.764 Y97.816 F10800
G1 Z.2 F720
G1 E.8 F2100
M204 S800
;TYPE:Solid infill
;WIDTH:0.426994
G1 F1200
G1 X131.167 Y99.219 E.06339
G1 X131.507 Y99.602 E.01635
G1 X131.857 Y100.054 E.01824
G1 X132.175 Y100.528 E.01823
G1 X132.493 Y101.088 E.02057
G1 X128.912 Y97.507 E.16173
G1 X128.334 Y97.231 E.02045
G1 X127.938 Y97.076 E.01359
G1 X132.93 Y102.068 E.22548
G1 X133.173 Y102.855 E.02628
G1 X127.143 Y96.825 E.27233
G1 X126.451 Y96.676 E.02262
G1 X133.325 Y103.55 E.31048
G1 X133.412 Y104.18 E.0203
G1 X125.822 Y96.59 E.34277
G1 X125.242 Y96.554 E.01855
G1 X133.448 Y104.76 E.37062
G1 X133.446 Y105.3 E.01727
M73 P2 R31
M73 Q2 S31
G1 X124.701 Y96.556 E.39495
G1 X124.191 Y96.589 E.01632
G1 X133.411 Y105.809 E.41642
G1 X133.351 Y106.291 E.01552
G1 X123.708 Y96.649 E.4355
G1 X123.247 Y96.731 E.01495
G1 X133.267 Y106.751 E.45254
G1 X133.164 Y107.191 E.01443
M73 P2 R30
G1 X122.809 Y96.836 E.46764
G1 X122.392 Y96.962 E.01392
G1 X133.04 Y107.61 E.48089
G1 X132.896 Y108.009 E.01356
G1 X121.991 Y97.104 E.49253
G1 X121.603 Y97.26 E.01333
G1 X132.738 Y108.395 E.50289
G1 X132.567 Y108.767 E.01308
G1 X121.234 Y97.434 E.51186
G1 X120.88 Y97.623 E.01282
G1 X132.378 Y109.121 E.51932
G1 X132.176 Y109.462 E.01265
G1 X120.537 Y97.823 E.52564
G1 X120.207 Y98.037 E.01254
M73 Q2 S30
G1 X125.214 Y103.043 E.22611
G1 X124.787 Y103.043 E.01363
G1 X124.692 Y103.064 E.00313
G1 X119.895 Y98.267 E.21666
G1 X119.591 Y98.507 E.01235
G1 X124.267 Y103.183 E.21118
G1 X123.985 Y103.313 E.00993
G1 X123.911 Y103.37 E.00298
G1 X119.299 Y98.758 E.20829
G1 X119.024 Y99.026 E.01227
G1 X123.611 Y103.612 E.20715
G1 X123.364 Y103.908 E.01232
G1 X118.758 Y99.303 E.20799
G1 X118.503 Y99.591 E.01229
G1 X123.175 Y104.263 E.21103
G1 X123.057 Y104.688 E.01408
G1 X118.265 Y99.896 E.21642
G1 X118.037 Y100.212 E.01242
G1 X123.26 Y105.434 E.23588
M204 S1000
;WIPE_START
G1 F8640
G1 X120.932 Y103.107 E-.76
;WIPE_END
G1 E-.04 F2100
G1 Z.6 F720
G1 X126.734 Y104.563 F10800
G1 Z.2 F720
G1 E.8 F2100
M204 S800
G1 F1200
G1 X131.962 Y109.792 E.23615
G1 X131.735 Y110.107 E.01243
G1 X126.933 Y105.306 E.21686
G1 X126.897 Y105.527 E.00716
G1 X126.816 Y105.731 E.00702
G1 X131.492 Y110.408 E.21123
G1 X131.241 Y110.699 E.0123
G1 X126.628 Y106.087 E.20833
G1 X126.5 Y106.275 E.00725
G1 X126.383 Y106.385 E.00515
G1 X130.976 Y110.978 E.20741
G1 X130.696 Y111.241 E.01227
G1 X126.086 Y106.631 E.20822
G1 X125.827 Y106.787 E.00966
G1 X125.731 Y106.819 E.00323
G1 X130.407 Y111.495 E.21119
G1 X130.106 Y111.737 E.01234
G1 X125.304 Y106.936 E.21684
G1 X125 Y106.969 E.00978
G1 X124.769 Y106.944 E.00742
