; generated by PrusaSlicer 2.4.0+win64 on 2022-08-07 at 15:23:34 UTC

; 

; external perimeters extrusion width = 0.45mm
; perimeters extrusion width = 0.45mm
; infill extrusion width = 0.45mm
; solid infill extrusion width = 0.45mm
; top infill extrusion width = 0.40mm
; first layer extrusion width = 0.42mm

M73 P0 R45
M73 C1
M73 Q0 S45
M73 D1
M201 X1000 Y1000 Z200 E5000 ; sets maximum accelerations, mm/sec^2
M203 X200 Y200 Z12 E120 ; sets maximum feedrates, mm/sec
M204 P1250 R1250 T1250 ; sets acceleration (P, T) and retract acceleration (R), mm/sec^2
M205 X8.00 Y8.00 Z0.40 E4.50 ; sets the jerk limits, mm/sec
M205 S0 T0 ; sets the minimum extruding and travel feed rate, mm/sec
M107
;TYPE:Custom
M862.3 P "MK3SMMU2S" ; printer model check
M862.1 P0.4 ; nozzle diameter check
M115 U3.10.0 ; tell printer latest fw version
G90 ; use absolute coordinates
M83 ; extruder relative mode
M104 S215 ; set extruder temp
M140 S60 ; set bed temp
Tx
M190 S60 ; wait for bed temp
M109 S215 ; wait for extruder temp
G28 W ; home all without mesh bed level
G80 ; mesh bed leveling

;go outside print area
G1 Y-3 F1000
G1 Z0.4 F1000
; select extruder
Tc
; purge line
G1 X55 F2000
G1 Z0.3 F1000
G92 E0
G1 X240 E25 F2200
G1 Y-2 F1000
G1 X55 E25 F1400
G1 Z0.2 F1000
G1 X5 E4 F1000

M221 S95
G92 E0

; Don't change E values below. Excessive value can damage the printer.
M907 E430 ; set extruder motor current
G21 ; set units to millimeters
G90 ; use absolute coordinates
M83 ; use relative distances for extrusion
M900 K0.05 ; Filament gcode LA 1.5
M900 K30 ; Filament gcode LA 1.0
M107
;LAYER_CHANGE
;Z:0.2
;HEIGHT:0.2
;BEFORE_LAYER_CHANGE
G92 E0.0
;0.2


G1 E-.8 F2100
M73 P0 R44
G1 Z.4 F720
;AFTER_LAYER_CHANGE
;0.2
G1 X115.548 Y97.164 F10800
G1 Z.2 F720
G1 E.8 F2100
M204 S800
;TYPE:Skirt/Brim
;WIDTH:0.42
G1 F1200
G1 X116.644 Y96.004 E.05003
G1 X118.241 Y94.75 E.06368
G1 X119.628 Y93.96 E.05003
G1 X120.535 Y93.562 E.03105
G1 X121.522 Y93.225 E.03269
G1 X123.078 Y92.874 E.05004
G1 X125.103 Y92.723 E.06368
G1 X126.695 Y92.84 E.05004
G1 X127.67 Y93.015 E.03107
G1 X128.676 Y93.286 E.03267
G1 X130.165 Y93.862 E.05003
G1 X131.93 Y94.865 E.06368
G1 X133.186 Y95.85 E.05003
G1 X133.898 Y96.539 E.03106
G1 X134.583 Y97.325 E.03268
G1 X135.497 Y98.632 E.05004
G1 X136.403 Y100.45 E.06368
G1 X136.897 Y101.967 E.05003
G1 X137.104 Y102.936 E.03106
G1 X137.234 Y103.97 E.03268
G1 X137.265 Y105.566 E.05004
G1 X137.004 Y107.58 E.06368
G1 X136.567 Y109.115 E.05003
G1 X136.199 Y110.035 E.03106
G1 X135.731 Y110.966 E.03268
G1 X134.866 Y112.307 E.05003
G1 X133.527 Y113.834 E.06368
G1 X132.309 Y114.865 E.05003
G1 X131.491 Y115.423 E.03105
G1 X130.583 Y115.935 E.03269
G1 X129.117 Y116.567 E.05003
G1 X127.154 Y117.087 E.06368
G1 X125.568 Y117.264 E.05003
G1 X124.592 Y117.272 E.0306
G1 X122.642 Y117.049 E.06154
G1 X121.099 Y116.642 E.05004
G1 X120.173 Y116.291 E.03105
G1 X119.234 Y115.839 E.03269
G1 X117.877 Y115 E.05003
G1 X116.325 Y113.689 E.06368
G1 X115.272 Y112.49 E.05003
G1 X114.699 Y111.682 E.03106
G1 X114.17 Y110.784 E.03268
G1 X113.511 Y109.33 E.05003
G1 X112.955 Y107.377 E.06368
G1 X112.748 Y105.795 E.05003
G1 X112.724 Y104.742 E.03303
G1 X112.785 Y103.764 E.03071
G1 X113.048 Y102.19 E.05004
G1 X113.675 Y100.258 E.06368
G1 X114.386 Y98.83 E.05003
G1 X114.916 Y97.993 E.03105
G1 X115.512 Y97.212 E.0308
M204 S1000
G1 X115.811 Y97.44 F10800
M204 S800
G1 F1200
G1 X116.908 Y96.273 E.05021
G1 X118.44 Y95.07 E.06106
G1 X119.802 Y94.294 E.04916
G1 X120.675 Y93.912 E.02988
G1 X121.618 Y93.59 E.03124
G1 X123.148 Y93.244 E.04916
G1 X125.09 Y93.1 E.06106
G1 X126.653 Y93.215 E.04916
G1 X127.592 Y93.384 E.0299
G1 X128.553 Y93.642 E.03122
G1 X130.016 Y94.208 E.04916
G1 X131.709 Y95.17 E.06106
G1 X132.943 Y96.138 E.04916
G1 X133.627 Y96.801 E.02989
G1 X134.282 Y97.552 E.03123
G1 X135.18 Y98.837 E.04916
G1 X136.049 Y100.58 E.06106
G1 X136.534 Y102.071 E.04916
G1 X136.733 Y103.003 E.02989
G1 X136.858 Y103.991 E.03123
G1 X136.888 Y105.559 E.04916
G1 X136.637 Y107.49 E.06106
G1 X136.209 Y108.999 E.04916
G1 X135.854 Y109.883 E.02989
G1 X135.407 Y110.773 E.03123
G1 X134.557 Y112.091 E.04916
G1 X133.273 Y113.555 E.06107
G1 X132.076 Y114.568 E.04916
G1 X131.288 Y115.105 E.02989
G1 X130.421 Y115.594 E.03123
G1 X128.981 Y116.215 E.04916
G1 X127.099 Y116.714 E.06106
G1 X125.54 Y116.888 E.04916
G1 X124.602 Y116.895 E.02943
G1 X122.725 Y116.681 E.05922
G1 X121.209 Y116.281 E.04916
G1 X120.318 Y115.942 E.02988
M73 Q0 S44
G1 X119.42 Y115.512 E.03123
G1 X118.087 Y114.687 E.04916
G1 X116.599 Y113.429 E.06106
G1 X115.564 Y112.252 E.04916
G1 X115.013 Y111.474 E.02989
G1 X114.508 Y110.616 E.03123
G1 X113.86 Y109.188 E.04916
G1 X113.326 Y107.315 E.06106
G1 X113.124 Y105.76 E.04916
G1 X113.101 Y104.753 E.03157
G1 X113.159 Y103.813 E.02955
G1 X113.418 Y102.266 E.04916
G1 X114.018 Y100.414 E.06106
G1 X114.717 Y99.01 E.04916
G1 X115.228 Y98.206 E.02989
G1 X115.775 Y97.487 E.0283
M204 S1000
; printing object PinPositionCheckJig.stl id:0 copy 0
;WIPE_START
G1 F8640
G1 X116.908 Y96.273 E-.38355
G1 X118.191 Y95.266 E-.37645
;WIPE_END
G1 E-.04 F2100
M73 Q1 S44
G1 Z.6 F720
G1 X123.848 Y103.777 F10800
G1 Z.2 F720
M73 P1 R44
G1 E.8 F2100
M204 S800
;TYPE:Perimeter
G1 F1200
G1 X124.217 Y103.508 E.01433
G1 X124.597 Y103.364 E.01274
G1 X125 Y103.315 E.01274
G1 X125.403 Y103.364 E.01274
G1 X125.783 Y103.508 E.01274
G1 X126.118 Y103.738 E.01274
G1 X126.387 Y104.043 E.01274
G1 X126.576 Y104.402 E.01274
G1 X126.673 Y104.797 E.01274
G1 X126.673 Y105.203 E.01274
G1 X126.576 Y105.598 E.01274
G1 X126.387 Y105.957 E.01274
G1 X126.118 Y106.262 E.01274
G1 X125.783 Y106.492 E.01274
G1 X125.403 Y106.636 E.01274
G1 X125 Y106.685 E.01274
G1 X124.597 Y106.636 E.01274
G1 X124.217 Y106.492 E.01274
G1 X123.882 Y106.262 E.01274
G1 X123.613 Y105.957 E.01274
G1 X123.424 Y105.598 E.01274
G1 X123.327 Y105.203 E.01274
G1 X123.327 Y104.797 E.01274
G1 X123.424 Y104.402 E.01274
G1 X123.613 Y104.043 E.01274
G1 X123.808 Y103.822 E.00922
M204 S1000
G1 X123.926 Y104.258 F10800
M204 S800
;TYPE:External perimeter
G1 F1200
G1 X124.134 Y104.023 E.00987
G1 X124.393 Y103.844 E.00987
G1 X124.688 Y103.732 E.00987
G1 X125 Y103.694 E.00987
G1 X125.312 Y103.732 E.00987
G1 X125.607 Y103.844 E.00987
G1 X125.866 Y104.023 E.00987
G1 X126.074 Y104.258 E.00987
G1 X126.221 Y104.537 E.00987
G1 X126.296 Y104.843 E.00987
G1 X126.296 Y105.157 E.00987
G1 X126.221 Y105.463 E.00987
G1 X126.074 Y105.742 E.00987
G1 X125.866 Y105.977 E.00987
G1 X125.607 Y106.156 E.00987
G1 X125.312 Y106.268 E.00987
G1 X125 Y106.306 E.00987
G1 X124.688 Y106.268 E.00987
G1 X124.393 Y106.156 E.00987
G1 X124.134 Y105.977 E.00987
G1 X123.926 Y105.742 E.00987
G1 X123.779 Y105.463 E.00987
G1 X123.704 Y105.157 E.00987
G1 X123.704 Y104.843 E.00987
G1 X123.779 Y104.537 E.00987
G1 X123.898 Y104.312 E.00799
M204 S1000
G1 X123.791 Y103.974 F10800
;WIPE_START
G1 F8640
G1 X124.134 Y104.023 E-.08619
G1 X124.393 Y103.844 E-.07267
G1 X124.688 Y103.732 E-.07267
G1 X125 Y103.694 E-.07267
G1 X125.312 Y103.732 E-.07267
G1 X125.607 Y103.844 E-.07267
G1 X125.866 Y104.023 E-.07267
G1 X126.074 Y104.258 E-.07267
G1 X126.221 Y104.537 E-.07267
G1 X126.296 Y104.843 E-.07267
G1 X126.296 Y104.928 E-.01978
;WIPE_END
G1 E-.04 F2100
G1 Z.6 F720
G1 X117.909 Y99.902 F10800
G1 Z.2 F720
G1 E.8 F2100
M204 S800
;TYPE:Perimeter
G1 F1200
G1 X118.227 Y99.48 E.01655
G1 X118.653 Y98.995 E.02025
G1 X119.114 Y98.543 E.02025
G1 X119.607 Y98.126 E.02025
G1 X120.129 Y97.746 E.02025
G1 X120.678 Y97.406 E.02025
G1 X121.251 Y97.108 E.02025
G1 X121.844 Y96.853 E.02025
G1 X122.454 Y96.642 E.02025
G1 X123.078 Y96.477 E.02025
G1 X123.713 Y96.358 E.02025
G1 X124.355 Y96.286 E.02025
G1 X125 Y96.263 E.02025
G1 X125.645 Y96.286 E.02025
G1 X126.287 Y96.358 E.02025
G1 X126.922 Y96.477 E.02025
G1 X127.546 Y96.642 E.02025
G1 X128.156 Y96.853 E.02025
G1 X128.749 Y97.108 E.02025
G1 X129.322 Y97.406 E.02025
G1 X129.871 Y97.746 E.02025
G1 X130.393 Y98.126 E.02025
G1 X130.886 Y98.543 E.02025
G1 X131.347 Y98.995 E.02025
G1 X131.773 Y99.48 E.02025
G1 X132.162 Y99.996 E.02025
G1 X132.512 Y100.538 E.02025
G1 X132.821 Y101.105 E.02025
G1 X133.088 Y101.694 E.02025
G1 X133.31 Y102.3 E.02025
G1 X133.486 Y102.921 E.02025
G1 X133.617 Y103.553 E.02025
G1 X133.7 Y104.194 E.02025
G1 X133.736 Y104.839 E.02025
G1 X133.724 Y105.484 E.02025
G1 X133.664 Y106.127 E.02025
G1 X133.558 Y106.764 E.02025
G1 X133.404 Y107.391 E.02025
G1 X133.204 Y108.005 E.02025
G1 X132.96 Y108.603 E.02025
G1 X132.672 Y109.181 E.02025
G1 X132.342 Y109.736 E.02025
G1 X131.973 Y110.265 E.02025
G1 X131.565 Y110.766 E.02025
G1 X131.121 Y111.235 E.02025
G1 X130.644 Y111.67 E.02025
G1 X130.136 Y112.069 E.02025
G1 X129.6 Y112.429 E.02025
G1 X129.038 Y112.748 E.02025
G1 X128.455 Y113.025 E.02025
G1 X127.853 Y113.258 E.02025
G1 X127.235 Y113.447 E.02025
G1 X126.605 Y113.589 E.02025
G1 X125.967 Y113.684 E.02025
G1 X125.323 Y113.731 E.02025
G1 X124.677 Y113.731 E.02025
G1 X124.033 Y113.684 E.02025
G1 X123.395 Y113.589 E.02025
G1 X122.765 Y113.447 E.02025
G1 X122.147 Y113.258 E.02025
G1 X121.545 Y113.025 E.02025
G1 X120.962 Y112.748 E.02025
G1 X120.4 Y112.429 E.02025
G1 X119.864 Y112.069 E.02025
G1 X119.356 Y111.67 E.02025
G1 X118.879 Y111.235 E.02025
G1 X118.435 Y110.766 E.02025
G1 X118.027 Y110.265 E.02025
G1 X117.658 Y109.736 E.02025
G1 X117.328 Y109.181 E.02025
G1 X117.04 Y108.603 E.02025
G1 X116.796 Y108.005 E.02025
G1 X116.596 Y107.391 E.02025
G1 X116.442 Y106.764 E.02025
G1 X116.336 Y106.127 E.02025
G1 X116.276 Y105.484 E.02025
G1 X116.264 Y104.839 E.02025
G1 X116.3 Y104.194 E.02025
G1 X116.383 Y103.553 E.02025
G1 X116.514 Y102.921 E.02025
G1 X116.69 Y102.3 E.02025
G1 X116.912 Y101.694 E.02025
G1 X117.179 Y101.105 E.02025
G1 X117.488 Y100.538 E.02025
G1 X117.872 Y99.95 E.02206
M204 S1000
G1 X117.368 Y100.028 F10800
M204 S800
;TYPE:External perimeter
G1 F1200
G1 X117.528 Y99.78 E.00928
G1 X117.934 Y99.242 E.02112
G1 X118.379 Y98.736 E.02112
G1 X118.859 Y98.264 E.02112
G1 X119.374 Y97.829 E.02112
G1 X119.919 Y97.433 E.02112
G1 X120.491 Y97.078 E.02112
G1 X121.089 Y96.767 E.02112
G1 X121.707 Y96.501 E.02112
G1 X122.344 Y96.281 E.02112
G1 X122.995 Y96.108 E.02112
G1 X123.657 Y95.985 E.02112
G1 X124.327 Y95.91 E.02112
G1 X125 Y95.885 E.02112
G1 X125.673 Y95.91 E.02112
G1 X126.343 Y95.985 E.02112
G1 X127.005 Y96.108 E.02112
G1 X127.656 Y96.281 E.02112
G1 X128.293 Y96.501 E.02112
G1 X128.911 Y96.767 E.02112
G1 X129.509 Y97.078 E.02112
G1 X130.081 Y97.433 E.02112
G1 X130.626 Y97.829 E.02112
G1 X131.141 Y98.264 E.02112
G1 X131.621 Y98.736 E.02112
G1 X132.066 Y99.242 E.02112
G1 X132.472 Y99.78 E.02112
G1 X132.837 Y100.346 E.02112
G1 X133.159 Y100.937 E.02112
G1 X133.437 Y101.551 E.02112
G1 X133.669 Y102.183 E.02112
G1 X133.853 Y102.831 E.02112
G1 X133.989 Y103.491 E.02112
G1 X134.076 Y104.159 E.02112
G1 X134.113 Y104.832 E.02112
G1 X134.101 Y105.505 E.02112
G1 X134.039 Y106.176 E.02112
G1 X133.927 Y106.84 E.02112
G1 X133.767 Y107.494 E.02112
G1 X133.559 Y108.135 E.02112
G1 X133.304 Y108.759 E.02112
G1 X133.004 Y109.362 E.02112
G1 X132.66 Y109.941 E.02112
G1 X132.274 Y110.493 E.02112
G1 X131.848 Y111.015 E.02112
G1 X131.385 Y111.504 E.02112
G1 X130.887 Y111.958 E.02112
G1 X130.357 Y112.374 E.02112
G1 X129.798 Y112.75 E.02112
G1 X129.213 Y113.083 E.02112
G1 X128.604 Y113.372 E.02112
G1 X127.976 Y113.615 E.02112
G1 X127.332 Y113.811 E.02112
G1 X126.675 Y113.96 E.02112
G1 X126.009 Y114.059 E.02112
G1 X125.337 Y114.109 E.02112
G1 X124.663 Y114.109 E.02112
G1 X123.991 Y114.059 E.02112
G1 X123.325 Y113.96 E.02112
G1 X122.668 Y113.811 E.02112
G1 X122.024 Y113.615 E.02112
G1 X121.396 Y113.372 E.02112
G1 X120.787 Y113.083 E.02112
G1 X120.202 Y112.75 E.02112
G1 X119.642 Y112.374 E.02112
G1 X119.113 Y111.958 E.02112
G1 X118.615 Y111.504 E.02112
G1 X118.152 Y111.015 E.02112
G1 X117.726 Y110.493 E.02112
G1 X117.34 Y109.941 E.02112
G1 X116.996 Y109.362 E.02112
G1 X116.696 Y108.759 E.02112
G1 X116.441 Y108.135 E.02112
G1 X116.233 Y107.494 E.02112
G1 X116.073 Y106.84 E.02112
G1 X115.961 Y106.176 E.02112
G1 X115.899 Y105.505 E.02112
G1 X115.887 Y104.832 E.02112
G1 X115.924 Y104.159 E.02112
G1 X116.011 Y103.491 E.02112
G1 X116.147 Y102.831 E.02112
G1 X116.331 Y102.183 E.02112
G1 X116.563 Y101.551 E.02112
G1 X116.841 Y100.937 E.02112
G1 X117.163 Y100.346 E.02112
G1 X117.335 Y100.079 E.00996
M204 S1000
G1 X117.664 Y100.038 F10800
;WIPE_START
G1 F8640
G1 X117.528 Y99.78 E-.0822
G1 X117.934 Y99.242 E-.15553
G1 X118.379 Y98.736 E-.15554
G1 X118.859 Y98.264 E-.15554
G1 X119.374 Y97.829 E-.15554
G1 X119.569 Y97.687 E-.05564
;WIPE_END
G1 E-.04 F2100
G1 Z.6 F720
G1 X129.753 Y97.807 F10800
G1 Z.2 F720
G1 E.8 F2100
M204 S800
;TYPE:Solid infill
;WIDTH:0.426975
G1 F1200
G1 X131.177 Y99.23 E.0643
G1 X131.554 Y99.659 E.01823
G1 X131.93 Y100.158 E.01995
G1 X132.269 Y100.683 E.01995
G1 X132.488 Y101.084 E.01458
G1 X128.919 Y97.515 E.16117
G1 X128.628 Y97.364 E.01048
G1 X127.936 Y97.076 E.02392
G1 X132.921 Y102.06 E.2251
G1 X133.041 Y102.387 E.01113
G1 X133.174 Y102.857 E.01558
G1 X127.146 Y96.828 E.27225
G1 X126.86 Y96.753 E.00946
G1 X126.45 Y96.676 E.01329
G1 X133.328 Y103.554 E.31061
G1 X133.413 Y104.182 E.02025
G1 X125.822 Y96.591 E.34285
G1 X125.243 Y96.555 E.01853
G1 X133.448 Y104.76 E.37059
G1 X133.445 Y105.3 E.01722
G1 X124.702 Y96.557 E.39485
G1 X124.191 Y96.589 E.01634
G1 X133.41 Y105.808 E.41635
G1 X133.35 Y106.291 E.01555
G1 X123.706 Y96.647 E.43556
G1 X123.248 Y96.732 E.01487
G1 X133.269 Y106.753 E.45256
G1 X133.162 Y107.19 E.01434
G1 X122.812 Y96.84 E.46743
G1 X122.392 Y96.962 E.01398
G1 X133.036 Y107.607 E.48073
G1 X132.897 Y108.011 E.01363
G1 X121.988 Y97.102 E.49265
G1 X121.606 Y97.263 E.01324
G1 X132.739 Y108.396 E.5028
G1 X132.564 Y108.764 E.01301
G1 X121.235 Y97.435 E.51164
G1 X120.878 Y97.621 E.01286
G1 X132.378 Y109.122 E.51939
G1 X132.176 Y109.463 E.01266
G1 X120.539 Y97.825 E.52556
G1 X120.209 Y98.038 E.01255
G1 X125.228 Y103.057 E.22668
G1 X125 Y103.03 E.00733
G1 X124.694 Y103.067 E.00984
G1 X119.894 Y98.267 E.21679
G1 X119.592 Y98.508 E.01234
G1 X124.269 Y103.185 E.21122
G1 X124.084 Y103.255 E.00632
G1 X123.914 Y103.373 E.00661
G1 X119.299 Y98.758 E.20844
G1 X119.025 Y99.027 E.01227
G1 X123.613 Y103.616 E.20724
G1 X123.364 Y103.909 E.0123
G1 X118.758 Y99.304 E.20799
G1 X118.504 Y99.593 E.01229
G1 X123.177 Y104.265 E.21101
G1 X123.061 Y104.693 E.01415
G1 X118.266 Y99.898 E.21656
G1 X118.036 Y100.21 E.0124
G1 X123.27 Y105.445 E.23639
M204 S1000
;WIPE_START
G1 F8640
G1 X120.943 Y103.117 E-.76
;WIPE_END
G1 E-.04 F2100
G1 Z.6 F720
G1 X126.731 Y104.561 F10800
G1 Z.2 F720
G1 E.8 F2100
M204 S800
G1 F1200
G1 X131.96 Y109.79 E.23614
G1 X131.736 Y110.108 E.01245
G1 X126.938 Y105.311 E.21668
G1 X126.822 Y105.738 E.01413
G1 X131.492 Y110.408 E.21091
G1 X131.239 Y110.698 E.01229
G1 X126.635 Y106.094 E.20795
G1 X126.385 Y106.387 E.0123
G1 X130.975 Y110.977 E.20733
G1 X130.695 Y111.241 E.01227
G1 X126.083 Y106.629 E.20828
G1 X125.916 Y106.745 E.00651
G1 X125.728 Y106.816 E.00642
G1 X130.408 Y111.496 E.21136
G1 X130.103 Y111.735 E.01235
G1 X125.302 Y106.934 E.21683
G1 X125 Y106.97 E.00972
G1 X124.767 Y106.942 E.00749
G1 X129.787 Y111.962 E.22671
G1 X129.462 Y112.18 E.0125
G1 X117.823 Y100.541 E.52567
G1 X117.622 Y100.883 E.01267
M73 P2 R44
M73 Q2 S44
G1 X129.117 Y112.378 E.51914
G1 X128.762 Y112.566 E.01283
G1 X117.431 Y101.235 E.51176
G1 X117.261 Y101.608 E.01311
G1 X128.394 Y112.741 E.50278
G1 X128.006 Y112.896 E.01335
G1 X117.104 Y101.994 E.49236
G1 X116.958 Y102.392 E.01352
G1 X127.605 Y113.038 E.48083
G1 X127.189 Y113.165 E.0139
G1 X116.838 Y102.814 E.46746
G1 X116.734 Y103.253 E.01441
G1 X126.747 Y113.267 E.45222
G1 X126.287 Y113.35 E.01492
G1 X116.648 Y103.711 E.43533
G1 X116.585 Y104.191 E.01548
G1 X125.806 Y113.412 E.41643
G1 X125.3 Y113.449 E.01622
G1 X116.555 Y104.704 E.39493
G1 X116.554 Y105.247 E.01733
G1 X124.756 Y113.449 E.37041
G1 X124.175 Y113.411 E.0186
G1 X116.592 Y105.827 E.34249
G1 X116.678 Y106.456 E.02027
G1 X123.547 Y113.325 E.31023
G1 X122.856 Y113.177 E.02258
G1 X116.828 Y107.15 E.27221
G1 X117.074 Y107.939 E.02639
G1 X122.055 Y112.919 E.22493
G1 X121.657 Y112.765 E.01363
