; generated by PrusaSlicer 2.4.2+win64 on 2022-09-02 at 14:34:27 UTC

; 

; external perimeters extrusion width = 0.60mm
; perimeters extrusion width = 0.50mm
; infill extrusion width = 0.50mm
; solid infill extrusion width = 0.50mm
; top infill extrusion width = 0.45mm
; first layer extrusion width = 0.42mm

M73 P0 R73
M73 Q0 S73
M107
;TYPE:Custom
M862.3 P "MK3SMMU2S" ; printer model check
M862.1 P0.4 ; nozzle diameter check
M115 U3.11.0 ; tell printer latest fw version
G90 ; use absolute coordinates
M83 ; extruder relative mode
M104 S240 ; set extruder temp
M140 S85 ; set bed temp
Tx
M190 S85 ; wait for bed temp
M109 S240 ; wait for extruder temp
G28 W ; home all without mesh bed level
G80 ; mesh bed leveling

;go outside print area
G1 Y-3.0 F1000.0
G1 Z0.4 F1000.0
; select extruder
Tc
; purge line
G1 X55.0 F2000.0
G1 Z0.3 F1000.0
G92 E0.0
G1 X240.0 E25.0 F2200.0
G1 Y-2.0 F1000.0
M73 P0 R72
G1 X55.0 E25 F1400.0
G1 Z0.20 F1000.0
G1 X5.0 E4.0 F1000.0

M221 S95
G92 E0.0

; Don't change E values below. Excessive value can damage the printer.

M907 E538 ; set extruder motor current
G21 ; set units to millimeters
G90 ; use absolute coordinates
M83 ; use relative distances for extrusion
M900 K0.08 ; Filament gcode LA 1.5
M900 K45 ; Filament gcode LA 1.0
M107
;LAYER_CHANGE
;Z:0.2
;HEIGHT:0.2
;BEFORE_LAYER_CHANGE
G92 E0.0
;0.2


G1 E-1.4 F2100
M73 Q0 S72
G1 Z.2 F10800
;AFTER_LAYER_CHANGE
;0.2
G1 Z.4
G1 X104.078 Y87.538
G1 Z.2
G1 E1.4 F2100
M204 S1000
;TYPE:Skirt/Brim
;WIDTH:0.42
G1 F1200
G1 X105.172 Y86.294 E.05196
G1 X106.44 Y85.025 E.05626
G1 X107.895 Y83.757 E.0605
G1 X109.212 Y82.749 E.052
G1 X110.704 Y81.752 E.05626
G1 X112.377 Y80.793 E.06046
G1 X113.891 Y80.05 E.05288
G1 X115.534 Y79.372 E.05573
G1 X117.351 Y78.762 E.0601
G1 X118.986 Y78.329 E.05301
G1 X120.73 Y77.984 E.05577
G1 X122.627 Y77.742 E.05994
G1 X124.303 Y77.636 E.05265
G1 X126.012 Y77.637 E.0536
G1 X128 Y77.772 E.06247
G1 X129.67 Y77.997 E.05284
G1 X131.431 Y78.351 E.05632
G1 X133.165 Y78.819 E.0563
G1 X134.773 Y79.367 E.05328
G1 X136.601 Y80.129 E.06209
G1 X138.131 Y80.89 E.05358
G1 X139.703 Y81.805 E.05702
G1 X141.192 Y82.808 E.05631
G1 X142.511 Y83.824 E.0522
G1 X144.004 Y85.143 E.06246
G1 X145.222 Y86.372 E.05425
G1 X146.313 Y87.621 E.052
G1 X147.52 Y89.206 E.06247
G1 X148.478 Y90.655 E.05446
G1 X149.37 Y92.218 E.05642
G1 X150.156 Y93.832 E.0563
G1 X150.781 Y95.353 E.05155
G1 X151.401 Y97.196 E.06099
G1 X151.856 Y98.934 E.05631
G1 X152.216 Y101 E.06576
G1 X152.216 Y109 E.25083
G1 X151.857 Y111.064 E.06569
G1 X151.36 Y112.941 E.06088
G1 X150.837 Y114.495 E.05142
G1 X150.16 Y116.157 E.05625
G1 X149.305 Y117.904 E.06101
G1 X148.487 Y119.329 E.0515
G1 X147.521 Y120.793 E.05501
G1 X146.414 Y122.255 E.05749
G1 X145.137 Y123.719 E.0609
G1 X143.976 Y124.886 E.05161
G1 X142.633 Y126.075 E.05626
G1 X141.097 Y127.259 E.06081
G1 X139.728 Y128.179 E.0517
G1 X138.216 Y129.062 E.05491
G1 X136.522 Y129.908 E.05937
G1 X134.773 Y130.633 E.05936
G1 X133.165 Y131.181 E.05328
G1 X131.534 Y131.623 E.05297
G1 X129.67 Y132.003 E.05964
G1 X127.89 Y132.241 E.0563
G1 X126.211 Y132.355 E.05278
G1 X124.303 Y132.364 E.05982
G1 X122.511 Y132.248 E.0563
G1 X120.847 Y132.033 E.0526
G1 X118.969 Y131.668 E.05999
G1 X117.251 Y131.209 E.05577
G1 X115.65 Y130.67 E.05296
G1 X113.891 Y129.95 E.05959
G1 X112.28 Y129.158 E.05628
G1 X110.819 Y128.318 E.05285
G1 X109.232 Y127.266 E.0597
G1 X107.807 Y126.174 E.05628
G1 X106.541 Y125.067 E.05274
G1 X105.172 Y123.706 E.06052
G1 X104.003 Y122.374 E.05557
G1 X102.979 Y121.044 E.05263
G1 X101.913 Y119.458 E.05991
G1 X101.016 Y117.904 E.05628
G1 X100.273 Y116.402 E.05253
G1 X99.539 Y114.643 E.05974
G1 X98.96 Y112.936 E.05652
G1 X98.525 Y111.321 E.05245
G1 X98.147 Y109.442 E.06009
G1 X97.915 Y107.67 E.05603
G1 X97.804 Y105.996 E.0526
G1 X97.799 Y104.084 E.05996
G1 X97.918 Y102.293 E.05628
G1 X98.136 Y100.633 E.05249
G1 X98.506 Y98.754 E.06005
G1 X98.973 Y97.021 E.05627
G1 X99.509 Y95.439 E.0524
G1 X100.241 Y93.665 E.06015
G1 X101.067 Y92.003 E.0582
G1 X101.902 Y90.56 E.05228
G1 X102.898 Y89.067 E.05626
G1 X104.041 Y87.586 E.05867
; printing object PottingStand.stl id:0 copy 0
;WIPE_START
G1 F8640
G1 X105.172 Y86.294 E-.39646
G1 X106.44 Y85.025 E-.4143
G1 X107.895 Y83.757 E-.44557
G1 X108.148 Y83.563 E-.07367
;WIPE_END
G1 E-.07 F2100
G1 Z.4 F10800
G1 X148.883 Y100.213
G1 Z.2
G1 E1.4 F2100
;TYPE:Perimeter
G1 F1200
G1 X131.909 Y100.213 E.53219
G1 X131.593 Y99.772 E.01701
G1 X130.921 Y99.04 E.03116
G1 X130.167 Y98.394 E.03116
G1 X129.34 Y97.842 E.03116
G1 X128.453 Y97.393 E.03116
G1 X127.519 Y97.054 E.03116
G1 X126.552 Y96.829 E.03116
G1 X125.564 Y96.721 E.03116
G1 X124.57 Y96.733 E.03115
G1 X123.585 Y96.863 E.03116
G1 X122.623 Y97.11 E.03116
G1 X121.697 Y97.47 E.03116
G1 X120.82 Y97.939 E.03116
G1 X120.007 Y98.509 E.03116
G1 X119.267 Y99.173 E.03116
G1 X118.612 Y99.92 E.03116
G1 X118.051 Y100.74 E.03116
G1 X117.592 Y101.621 E.03116
G1 X117.242 Y102.551 E.03116
G1 X117.006 Y103.517 E.03116
G1 X116.887 Y104.503 E.03116
G1 X116.887 Y105.497 E.03116
G1 X117.006 Y106.483 E.03116
G1 X117.242 Y107.449 E.03116
G1 X117.592 Y108.379 E.03116
G1 X118.051 Y109.26 E.03116
G1 X118.612 Y110.08 E.03116
G1 X119.267 Y110.827 E.03116
G1 X120.007 Y111.491 E.03116
G1 X120.82 Y112.061 E.03116
G1 X121.697 Y112.53 E.03116
G1 X122.623 Y112.89 E.03116
G1 X123.585 Y113.137 E.03116
G1 X124.57 Y113.267 E.03116
G1 X125.564 Y113.279 E.03116
G1 X126.552 Y113.171 E.03116
G1 X127.519 Y112.946 E.03116
G1 X128.453 Y112.607 E.03116
G1 X129.34 Y112.158 E.03116
G1 X130.167 Y111.606 E.03116
G1 X130.921 Y110.96 E.03116
G1 X131.593 Y110.228 E.03116
G1 X131.909 Y109.787 E.01701
G1 X148.883 Y109.787 E.53219
G1 X148.757 Y110.43 E.02056
G1 X148.351 Y111.964 E.04973
G1 X147.845 Y113.467 E.04973
G1 X147.242 Y114.934 E.04973
G1 X146.544 Y116.358 E.04973
G1 X145.755 Y117.733 E.04972
G1 X144.877 Y119.055 E.04974
G1 X143.914 Y120.315 E.04973
G1 X142.871 Y121.51 E.04973
G1 X141.753 Y122.634 E.04971
G1 X140.562 Y123.683 E.04975
G1 X139.306 Y124.651 E.04973
G1 X137.99 Y125.535 E.0497
G1 X136.617 Y126.331 E.04976
G1 X135.196 Y127.035 E.04973
G1 X133.732 Y127.645 E.04973
G1 X132.232 Y128.157 E.04969
G1 X130.7 Y128.57 E.04977
G1 X129.145 Y128.883 E.04973
G1 X127.572 Y129.092 E.04973
G1 X125.991 Y129.198 E.04968
G1 X124.405 Y129.201 E.04973
G1 X122.823 Y129.099 E.04973
G1 X121.25 Y128.895 E.04973
G1 X119.694 Y128.587 E.04973
G1 X118.162 Y128.179 E.04973
G1 X116.659 Y127.671 E.04973
G1 X115.193 Y127.066 E.04973
G1 X113.77 Y126.366 E.04973
G1 X112.396 Y125.574 E.04973
G1 X111.076 Y124.694 E.04973
G1 X109.817 Y123.73 E.04972
G1 X108.624 Y122.685 E.04973
G1 X107.501 Y121.565 E.04973
G1 X106.455 Y120.373 E.04972
G1 X105.489 Y119.115 E.04973
G1 X104.607 Y117.797 E.04973
G1 X103.813 Y116.424 E.04973
G1 X103.111 Y115.002 E.04973
G1 X102.503 Y113.537 E.04973
G1 X101.993 Y112.035 E.04973
G1 X101.582 Y110.503 E.04973
G1 X101.273 Y108.948 E.04972
G1 X101.065 Y107.376 E.04973
G1 X100.961 Y105.793 E.04973
G1 X100.961 Y104.207 E.04973
G1 X101.065 Y102.624 E.04973
G1 X101.273 Y101.052 E.04973
G1 X101.582 Y99.497 E.04972
G1 X101.993 Y97.965 E.04973
G1 X102.503 Y96.463 E.04973
G1 X103.111 Y94.998 E.04973
G1 X103.813 Y93.576 E.04973
G1 X104.607 Y92.203 E.04973
G1 X105.489 Y90.885 E.04973
G1 X106.455 Y89.627 E.04973
G1 X107.501 Y88.435 E.04973
G1 X108.624 Y87.315 E.04973
G1 X109.817 Y86.27 E.04972
G1 X111.076 Y85.306 E.04973
G1 X112.396 Y84.426 E.04973
G1 X113.77 Y83.634 E.04972
G1 X115.193 Y82.934 E.04973
G1 X116.659 Y82.329 E.04973
G1 X118.162 Y81.821 E.04973
G1 X119.694 Y81.413 E.04973
G1 X121.25 Y81.105 E.04973
G1 X122.823 Y80.901 E.04973
G1 X124.405 Y80.799 E.04973
G1 X125.99 Y80.802 E.04968
G1 X127.572 Y80.908 E.04973
G1 X129.146 Y81.118 E.04977
G1 X130.7 Y81.43 E.04969
G1 X132.231 Y81.843 E.04973
G1 X133.732 Y82.355 E.04973
G1 X135.197 Y82.965 E.04977
G1 X136.617 Y83.669 E.04969
G1 X137.989 Y84.465 E.04973
G1 X139.306 Y85.349 E.04973
G1 X140.563 Y86.318 E.04975
G1 X141.752 Y87.366 E.04971
G1 X142.871 Y88.49 E.04973
G1 X143.914 Y89.685 E.04973
G1 X144.877 Y90.946 E.04975
G1 X145.755 Y92.266 E.04971
G1 X146.544 Y93.642 E.04973
G1 X147.242 Y95.066 E.04973
G1 X147.845 Y96.533 E.04974
G1 X148.351 Y98.036 E.04972
G1 X148.757 Y99.57 E.04973
G1 X148.871 Y100.154 E.01868
G1 X149.341 Y100.59 F10800
;TYPE:External perimeter
G1 F1200
G1 X131.716 Y100.59 E.55262
G1 X131.3 Y100.01 E.02237
G1 X130.659 Y99.312 E.02974
G1 X129.938 Y98.695 E.02974
G1 X129.15 Y98.168 E.02974
G1 X128.303 Y97.74 E.02974
G1 X127.412 Y97.416 E.02974
G1 X126.488 Y97.201 E.02974
G1 X125.545 Y97.099 E.02974
G1 X124.597 Y97.109 E.02973
G1 X123.657 Y97.234 E.02974
G1 X122.738 Y97.469 E.02974
G1 X121.855 Y97.813 E.02974
G1 X121.018 Y98.261 E.02974
G1 X120.242 Y98.805 E.02974
G1 X119.536 Y99.438 E.02974
G1 X118.91 Y100.151 E.02974
G1 X118.375 Y100.934 E.02974
G1 X117.937 Y101.775 E.02974
G1 X117.603 Y102.663 E.02974
G1 X117.378 Y103.584 E.02974
G1 X117.265 Y104.526 E.02974
G1 X117.265 Y105.474 E.02974
G1 X117.378 Y106.416 E.02974
G1 X117.603 Y107.337 E.02974
G1 X117.937 Y108.225 E.02974
G1 X118.375 Y109.066 E.02974
G1 X118.91 Y109.849 E.02974
G1 X119.536 Y110.562 E.02974
G1 X120.242 Y111.195 E.02974
G1 X121.018 Y111.739 E.02974
G1 X121.855 Y112.187 E.02974
G1 X122.738 Y112.531 E.02974
G1 X123.657 Y112.766 E.02974
G1 X124.597 Y112.891 E.02974
G1 X125.545 Y112.901 E.02974
G1 X126.488 Y112.799 E.02974
G1 X127.412 Y112.584 E.02974
G1 X128.303 Y112.26 E.02974
G1 X129.149 Y111.832 E.02974
G1 X129.938 Y111.305 E.02974
G1 X130.659 Y110.688 E.02974
G1 X131.3 Y109.99 E.02974
G1 X131.716 Y109.41 E.02237
G1 X149.341 Y109.41 E.55262
G1 X149.124 Y110.515 E.03531
G1 X148.712 Y112.072 E.0505
G1 X148.198 Y113.599 E.05051
G1 X147.586 Y115.089 E.0505
G1 X146.877 Y116.535 E.0505
G1 X146.076 Y117.932 E.05049
M73 Q1 S72
G1 X145.184 Y119.274 E.05052
G1 X144.206 Y120.554 E.0505
M73 P1 R72
G1 X143.147 Y121.768 E.0505
G1 X142.011 Y122.909 E.05048
G1 X140.802 Y123.974 E.05053
G1 X139.526 Y124.957 E.0505
G1 X138.19 Y125.854 E.05048
G1 X136.796 Y126.663 E.05053
G1 X135.352 Y127.378 E.0505
G1 X133.865 Y127.998 E.0505
G1 X132.342 Y128.518 E.05047
G1 X130.786 Y128.938 E.05054
G1 X129.207 Y129.255 E.0505
G1 X127.61 Y129.468 E.0505
G1 X126.004 Y129.575 E.05046
G1 X124.394 Y129.578 E.0505
G1 X122.786 Y129.475 E.0505
G1 X121.189 Y129.267 E.0505
G1 X119.609 Y128.955 E.0505
G1 X118.053 Y128.54 E.0505
G1 X116.527 Y128.024 E.0505
G1 X115.038 Y127.409 E.0505
G1 X113.593 Y126.699 E.0505
G1 X112.197 Y125.895 E.0505
G1 X110.857 Y125.001 E.0505
G1 X109.578 Y124.022 E.0505
G1 X108.366 Y122.961 E.0505
G1 X107.226 Y121.823 E.0505
G1 X106.163 Y120.613 E.0505
G1 X105.182 Y119.335 E.0505
G1 X104.286 Y117.997 E.0505
G1 X103.48 Y116.602 E.0505
G1 X102.767 Y115.158 E.05051
G1 X102.15 Y113.67 E.0505
G1 X101.632 Y112.145 E.0505
G1 X101.215 Y110.589 E.0505
G1 X100.9 Y109.01 E.0505
G1 X100.69 Y107.413 E.0505
G1 X100.584 Y105.805 E.0505
G1 X100.584 Y104.195 E.0505
G1 X100.69 Y102.587 E.0505
G1 X100.9 Y100.99 E.05051
G1 X101.215 Y99.411 E.0505
G1 X101.632 Y97.855 E.0505
G1 X102.15 Y96.33 E.0505
G1 X102.767 Y94.842 E.0505
G1 X103.48 Y93.398 E.0505
G1 X104.286 Y92.003 E.0505
G1 X105.182 Y90.665 E.0505
G1 X106.163 Y89.388 E.0505
G1 X107.226 Y88.177 E.0505
G1 X108.366 Y87.039 E.05051
G1 X109.578 Y85.978 E.0505
G1 X110.857 Y84.999 E.0505
G1 X112.197 Y84.105 E.05051
G1 X113.593 Y83.301 E.0505
G1 X115.038 Y82.591 E.0505
G1 X116.527 Y81.976 E.0505
G1 X118.053 Y81.46 E.0505
G1 X119.609 Y81.045 E.0505
G1 X121.189 Y80.733 E.0505
G1 X122.786 Y80.525 E.0505
G1 X124.394 Y80.422 E.0505
G1 X126.003 Y80.425 E.05046
G1 X127.61 Y80.532 E.0505
G1 X129.208 Y80.745 E.05055
G1 X130.786 Y81.062 E.05046
G1 X132.341 Y81.482 E.0505
G1 X133.865 Y82.002 E.05051
G1 X135.354 Y82.622 E.05054
G1 X136.796 Y83.337 E.05047
G1 X138.189 Y84.145 E.0505
G1 X139.526 Y85.043 E.05051
G1 X140.803 Y86.027 E.05053
G1 X142.011 Y87.091 E.05048
G1 X143.147 Y88.232 E.05051
G1 X144.206 Y89.446 E.0505
G1 X145.184 Y90.727 E.05052
G1 X146.076 Y92.068 E.05049
G1 X146.877 Y93.465 E.0505
G1 X147.586 Y94.911 E.0505
G1 X148.198 Y96.401 E.05051
G1 X148.712 Y97.928 E.0505
G1 X149.124 Y99.485 E.0505
G1 X149.329 Y100.531 E.03343
G1 X148.98 Y100.417 F10800
;WIPE_START
G1 F8640
G1 X143.569 Y100.55 E-1.33
;WIPE_END
G1 E-.07 F2100
G1 Z.4 F10800
G1 X148.316 Y109.9
G1 Z.2
G1 E1.4 F2100
;TYPE:Solid infill
;WIDTH:0.422549
G1 F1200
G1 X148.53 Y110.115 E.00958
G1 X148.432 Y110.553 E.01418
G1 X147.949 Y110.07 E.02157
G1 X147.412 Y110.07 E.01695
G1 X148.319 Y110.977 E.04052
G1 X148.207 Y111.402 E.01386
G1 X146.875 Y110.07 E.05946
G1 X146.338 Y110.07 E.01695
G1 X148.094 Y111.826 E.07841
G1 X147.962 Y112.231 E.01344
G1 X145.801 Y110.07 E.09648
G1 X145.264 Y110.07 E.01695
G1 X147.827 Y112.633 E.11441
G1 X147.692 Y113.035 E.01338
G1 X144.727 Y110.07 E.13235
G1 X144.19 Y110.07 E.01695
G1 X147.553 Y113.433 E.15012
G1 X147.397 Y113.813 E.01299
G1 X143.654 Y110.07 E.1671
G1 X143.117 Y110.07 E.01695
G1 X147.24 Y114.194 E.18409
G1 X147.084 Y114.574 E.01299
G1 X142.58 Y110.07 E.20107
G1 X142.043 Y110.07 E.01695
G1 X146.92 Y114.947 E.21774
G1 X146.744 Y115.308 E.01267
G1 X141.506 Y110.07 E.23382
G1 X140.969 Y110.07 E.01695
G1 X146.567 Y115.668 E.24991
G1 X146.391 Y116.028 E.01267
G1 X140.432 Y110.07 E.266
G1 X139.895 Y110.07 E.01695
G1 X146.206 Y116.38 E.28169
G1 X146.01 Y116.721 E.01241
G1 X139.359 Y110.07 E.29692
G1 X138.822 Y110.07 E.01695
G1 X145.814 Y117.062 E.31215
G1 X145.618 Y117.403 E.01241
G1 X138.285 Y110.07 E.32738
G1 X137.748 Y110.07 E.01695
G1 X145.414 Y117.736 E.34222
G1 X145.199 Y118.058 E.01222
G1 X137.211 Y110.07 E.35661
G1 X136.674 Y110.07 E.01695
G1 X144.985 Y118.381 E.37101
G1 X144.771 Y118.703 E.01222
G1 X136.137 Y110.07 E.38541
G1 X135.6 Y110.07 E.01695
G1 X144.549 Y119.018 E.39947
G1 X144.316 Y119.323 E.01209
G1 X135.064 Y110.07 E.41306
G1 X134.527 Y110.07 E.01695
G1 X144.084 Y119.627 E.42665
G1 X143.851 Y119.932 E.01209
G1 X133.99 Y110.07 E.44024
G1 X133.453 Y110.07 E.01695
G1 X143.613 Y120.23 E.45357
G1 X143.363 Y120.517 E.01201
G1 X132.916 Y110.07 E.46637
G1 X132.379 Y110.07 E.01695
G1 X143.113 Y120.804 E.47917
G1 X142.863 Y121.09 E.01201
G1 X131.966 Y110.193 E.48645
G1 X131.731 Y110.496 E.01208
G1 X142.609 Y121.373 E.4856
G1 X142.341 Y121.642 E.01198
G1 X131.474 Y110.776 E.48511
G1 X131.217 Y111.055 E.01199
M73 P1 R71
G1 X142.073 Y121.911 E.48462
G1 X141.805 Y122.18 E.01198
G1 X130.941 Y111.316 E.48502
G1 X130.651 Y111.563 E.01202
G1 X141.536 Y122.448 E.48591
G1 X141.251 Y122.7 E.01201
G1 X130.362 Y111.811 E.48607
G1 X130.043 Y112.029 E.0122
G1 X140.965 Y122.951 E.48758
G1 X140.68 Y123.202 E.01201
G1 X129.721 Y112.244 E.48922
G1 X129.39 Y112.45 E.0123
G1 X140.394 Y123.454 E.49125
G1 X140.092 Y123.688 E.01208
G1 X129.034 Y112.63 E.49366
G1 X128.677 Y112.81 E.01261
G1 X139.789 Y123.922 E.49604
G1 X139.486 Y124.156 E.01208
G1 X128.295 Y112.965 E.49957
G1 X127.901 Y113.108 E.01323
G1 X139.182 Y124.389 E.50361
G1 X138.864 Y124.607 E.01219
M73 Q1 S71
G1 X127.497 Y113.241 E.5074
G1 X127.062 Y113.343 E.01412
G1 X138.542 Y124.823 E.5125
G1 X138.221 Y125.039 E.01221
G1 X126.626 Y113.444 E.51761
G1 X126.145 Y113.5 E.01529
G1 X137.9 Y125.254 E.52474
G1 X137.564 Y125.455 E.01236
G1 X125.661 Y113.553 E.53134
G1 X125.128 Y113.557 E.01682
G1 X137.224 Y125.652 E.53996
G1 X136.884 Y125.849 E.0124
G1 X124.585 Y113.55 E.54903
G1 X123.972 Y113.474 E.01952
G1 X136.544 Y126.046 E.56126
G1 X136.189 Y126.228 E.0126
G1 X123.323 Y113.362 E.57434
G1 X122.601 Y113.177 E.02354
G1 X135.83 Y126.405 E.59055
G1 X135.471 Y126.583 E.01265
G1 X121.371 Y112.484 E.62941
;WIPE_START
G1 F8640
G1 X125.444 Y116.557 E-1.33
;WIPE_END
G1 E-.07 F2100
G1 Z.4 F10800
G1 X144.102 Y90.117
G1 Z.2
G1 E1.4 F2100
G1 F1200
G1 X141.543 Y87.558 E.11426
G1 X140.383 Y86.536 E.0488
G1 X139.141 Y85.579 E.0495
G1 X138.794 Y85.346 E.01319
G1 X144.822 Y91.374 E.26912
G1 X145.514 Y92.415 E.03945
G1 X145.767 Y92.856 E.01604
G1 X137.308 Y84.397 E.37761
G1 X136.483 Y83.919 E.0301
M73 P2 R71
M73 Q2 S71
G1 X136.106 Y83.731 E.0133
G1 X146.434 Y94.059 E.46106
G1 X146.949 Y95.112 E.03699
G1 X135.046 Y83.209 E.53136
