; generated by PrusaSlicer 2.4.0+win64 on 2022-08-07 at 15:13:22 UTC

; 

; external perimeters extrusion width = 0.45mm
; perimeters extrusion width = 0.45mm
; infill extrusion width = 0.45mm
; solid infill extrusion width = 0.45mm
; top infill extrusion width = 0.40mm
; first layer extrusion width = 0.42mm

M73 P0 R54
M73 C2
M73 Q0 S54
M73 D2
M201 X1000 Y1000 Z200 E5000 ; sets maximum accelerations, mm/sec^2
M203 X200 Y200 Z12 E120 ; sets maximum feedrates, mm/sec
M204 P1250 R1250 T1250 ; sets acceleration (P, T) and retract acceleration (R), mm/sec^2
M205 X8.00 Y8.00 Z0.40 E4.50 ; sets the jerk limits, mm/sec
M205 S0 T0 ; sets the minimum extruding and travel feed rate, mm/sec
M107
;TYPE:Custom
M862.3 P "MK3SMMU2S" ; printer model check
M862.1 P0.4 ; nozzle diameter check
M115 U3.10.0 ; tell printer latest fw version
G90 ; use absolute coordinates
M83 ; extruder relative mode
M104 S215 ; set extruder temp
M140 S60 ; set bed temp
Tx
M190 S60 ; wait for bed temp
M109 S215 ; wait for extruder temp
G28 W ; home all without mesh bed level
G80 ; mesh bed leveling

;go outside print area
G1 Y-3 F1000
G1 Z0.4 F1000
; select extruder
Tc
; purge line
G1 X55 F2000
G1 Z0.3 F1000
G92 E0
G1 X240 E25 F2200
G1 Y-2 F1000
G1 X55 E25 F1400
G1 Z0.2 F1000
G1 X5 E4 F1000

M221 S95
G92 E0

; Don't change E values below. Excessive value can damage the printer.
M907 E430 ; set extruder motor current
G21 ; set units to millimeters
G90 ; use absolute coordinates
M83 ; use relative distances for extrusion
M900 K0.05 ; Filament gcode LA 1.5
M900 K30 ; Filament gcode LA 1.0
M107
;LAYER_CHANGE
;Z:0.2
;HEIGHT:0.2
;BEFORE_LAYER_CHANGE
G92 E0.0
;0.2


G1 E-.8 F2100
G1 Z.4 F720
;AFTER_LAYER_CHANGE
;0.2
G1 X113.522 Y87.873 F10800
G1 Z.2 F720
G1 E.8 F2100
M204 S800
;TYPE:Skirt/Brim
;WIDTH:0.42
G1 F1200
G1 X114.57 Y86.842 E.04612
G1 X115.907 Y86.496 E.04328
G1 X134.093 Y86.496 E.57023
G1 X135.511 Y86.889 E.04612
G1 X136.478 Y87.873 E.04328
G1 X145.572 Y103.623 E.57023
G1 X145.94 Y105.047 E.04612
G1 X145.572 Y106.377 E.04328
G1 X136.478 Y122.127 E.57023
G1 X135.43 Y123.158 E.04612
G1 X134.093 Y123.504 E.04328
G1 X115.907 Y123.504 E.57023
G1 X114.489 Y123.111 E.04612
M73 P0 R53
G1 X113.522 Y122.127 E.04328
G1 X104.428 Y106.377 E.57023
G1 X104.06 Y104.953 E.04612
G1 X104.428 Y103.623 E.04328
G1 X113.492 Y87.925 E.56834
M204 S1000
G1 X113.818 Y88.113 F10800
M204 S800
G1 F1200
G1 X113.848 Y88.061 E.00188
G1 X114.841 Y87.125 E.04278
G1 X115.907 Y86.873 E.03435
G1 X134.093 Y86.873 E.57023
G1 X135.4 Y87.265 E.04278
G1 X136.152 Y88.061 E.03435
G1 X145.245 Y103.811 E.57023
G1 X145.56 Y105.139 E.04278
G1 X145.245 Y106.189 E.03435
G1 X136.152 Y121.939 E.57023
G1 X135.159 Y122.875 E.04278
G1 X134.093 Y123.127 E.03435
G1 X115.907 Y123.127 E.57023
G1 X114.6 Y122.735 E.04278
M73 Q0 S53
G1 X113.848 Y121.939 E.03435
G1 X104.755 Y106.189 E.57023
G1 X104.44 Y104.861 E.04278
G1 X104.755 Y103.811 E.03435
G1 X113.788 Y88.165 E.56646
M204 S1000
; printing object ResistorJig4.0mm.stl id:0 copy 0
;WIPE_START
M73 C1
G1 F8640
M73 D1
G1 X113.848 Y88.061 E-.02771
G1 X114.841 Y87.125 E-.31505
G1 X115.907 Y86.873 E-.25294
G1 X116.618 Y86.873 E-.1643
;WIPE_END
G1 E-.04 F2100
G1 Z.6 F720
G1 X123.678 Y102.55 F10800
G1 Z.2 F720
G1 E.8 F2100
M204 S800
;TYPE:Perimeter
G1 F1200
G1 X123.747 Y102.508 E.00253
G1 X124.229 Y102.318 E.01626
G1 X124.764 Y102.221 E.01703
G1 X125.25 Y102.221 E.01526
M73 Q1 S53
G1 X125.757 Y102.315 E.01615
G1 X126.238 Y102.5 E.01618
G1 X126.678 Y102.77 E.01618
G1 X127.059 Y103.117 E.01618
G1 X127.371 Y103.529 E.01618
G1 X127.602 Y103.991 E.01621
G1 X127.743 Y104.487 E.01616
G1 X127.79 Y105 E.01616
G1 X127.743 Y105.513 E.01616
M73 P1 R53
G1 X127.602 Y106.009 E.01616
G1 X127.371 Y106.471 E.01621
G1 X127.059 Y106.883 E.01618
G1 X126.678 Y107.23 E.01618
G1 X126.238 Y107.5 E.01618
G1 X125.757 Y107.685 E.01618
G1 X125.25 Y107.779 E.01618
G1 X124.734 Y107.777 E.01618
G1 X124.227 Y107.681 E.01617
G1 X123.747 Y107.492 E.01618
G1 X123.309 Y107.219 E.01617
G1 X122.93 Y106.87 E.01617
G1 X122.621 Y106.457 E.01617
G1 X122.393 Y105.994 E.01617
G1 X122.256 Y105.499 E.01612
G1 X122.211 Y105.015 E.01522
G1 X122.255 Y104.503 E.01611
G1 X122.393 Y104.006 E.01617
G1 X122.621 Y103.543 E.01617
G1 X122.93 Y103.13 E.01617
G1 X123.309 Y102.781 E.01617
G1 X123.627 Y102.582 E.01176
M204 S1000
G1 X123.539 Y103.082 F10800
M204 S800
;TYPE:External perimeter
G1 F1200
G1 X123.917 Y102.846 E.01398
G1 X124.333 Y102.683 E.01401
G1 X124.798 Y102.598 E.01482
G1 X125.216 Y102.598 E.01311
G1 X125.654 Y102.679 E.01397
G1 X126.07 Y102.839 E.01398
G1 X126.45 Y103.073 E.01398
G1 X126.78 Y103.373 E.01398
G1 X127.049 Y103.728 E.01398
G1 X127.249 Y104.128 E.01401
G1 X127.371 Y104.557 E.01396
G1 X127.412 Y105 E.01396
G1 X127.371 Y105.443 E.01396
G1 X127.249 Y105.872 E.01396
G1 X127.049 Y106.272 E.01401
G1 X126.78 Y106.627 E.01398
G1 X126.45 Y106.927 E.01398
G1 X126.07 Y107.161 E.01398
G1 X125.654 Y107.321 E.01398
G1 X125.216 Y107.402 E.01398
G1 X124.77 Y107.4 E.01398
G1 X124.332 Y107.317 E.01398
G1 X123.917 Y107.154 E.01398
G1 X123.539 Y106.918 E.01398
G1 X123.211 Y106.616 E.01398
G1 X122.944 Y106.259 E.01398
G1 X122.747 Y105.859 E.01398
G1 X122.628 Y105.43 E.01396
G1 X122.589 Y105.014 E.0131
G1 X122.628 Y104.571 E.01395
G1 X122.747 Y104.141 E.01398
G1 X122.944 Y103.741 E.01398
G1 X123.211 Y103.384 E.01398
G1 X123.495 Y103.123 E.0121
M204 S1000
G1 X123.488 Y102.685 F10800
;WIPE_START
G1 F8640
G1 X123.917 Y102.846 E-.11658
G1 X124.333 Y102.683 E-.10316
G1 X124.798 Y102.598 E-.10914
G1 X125.216 Y102.598 E-.09657
G1 X125.654 Y102.679 E-.10288
G1 X126.07 Y102.839 E-.10295
G1 X126.45 Y103.073 E-.10296
G1 X126.533 Y103.148 E-.02577
;WIPE_END
G1 E-.04 F2100
G1 Z.6 F720
G1 X124.731 Y99.135 F10800
G1 Z.2 F720
G1 E.8 F2100
M204 S800
;TYPE:Perimeter
G1 F1200
G1 X124.743 Y96.678 E.07704
G1 X124.861 Y95.369 E.04121
G1 X126.218 Y95.685 E.0437
G1 X126.396 Y95.451 E.00922
G1 X126.941 Y95.453 E.01709
G1 X127.267 Y95.399 E.01038
G1 X127.666 Y95.631 E.01446
G1 X127.862 Y95.515 E.00714
G1 X128.199 Y95.431 E.01091
G1 X128.535 Y95.377 E.01066
G1 X128.886 Y95.426 E.01111
G1 X129.225 Y95.531 E.01112
G1 X129.548 Y95.773 E.01263
G1 X129.54 Y95.592 E.00567
G1 X130.898 Y95.652 E.04261
G1 X131.051 Y95.451 E.00792
G1 X131.596 Y95.453 E.01709
G1 X131.922 Y95.399 E.01038
G1 X132.32 Y95.631 E.01444
G1 X132.512 Y95.516 E.00702
G1 X132.843 Y95.43 E.01071
G1 X133.162 Y95.37 E.01019
G1 X133.499 Y95.394 E.01059
G1 X133.826 Y95.464 E.0105
G1 X134.133 Y95.619 E.01076
G1 X134.448 Y95.85 E.01226
G1 X134.67 Y96.19 E.01273
G1 X134.813 Y96.511 E.01102
G1 X134.873 Y96.846 E.01065
G1 X134.887 Y97.116 E.00848
G1 X134.887 Y99.912 E.08768
G1 X131.32 Y99.912 E.11185
G1 X131.314 Y99.969 E.00178
G1 X129.808 Y99.647 E.04826
G1 X128.3 Y99.971 E.04836
G1 X128.295 Y99.912 E.00187
G1 X124.731 Y99.912 E.11173
G1 X124.731 Y99.195 E.02249
M204 S1000
G1 X125.108 Y99.535 F10800
M204 S800
;TYPE:External perimeter
G1 F1200
G1 X125.119 Y96.699 E.08893
G1 X125.197 Y95.834 E.02721
G1 X126.162 Y96.059 E.03105
G1 X126.165 Y96.145 E.0027
G1 X126.218 Y96.106 E.00207
G1 X126.438 Y96.019 E.00742
G1 X126.582 Y95.829 E.00748
G1 X126.972 Y95.83 E.0122
G1 X127.195 Y95.793 E.0071
G1 X127.701 Y96.089 E.01838
G1 X127.823 Y95.976 E.0052
G1 X128.006 Y95.868 E.00668
G1 X128.539 Y95.759 E.01705
G1 X128.804 Y95.796 E.00838
G1 X129.055 Y95.873 E.00824
G1 X129.271 Y96.029 E.00835
G1 X129.459 Y96.236 E.00878
G1 X129.604 Y96.694 E.01504
G1 X129.644 Y96.917 E.00711
G1 X129.656 Y99.295 E.07456
G1 X128.636 Y99.514 E.0327
G1 X128.557 Y98.679 E.02629
G1 X128.541 Y97.034 E.05158
G1 X128.493 Y97.016 E.00162
G1 X128.484 Y96.994 E.00075
G1 X128.314 Y96.997 E.00533
G1 X128.248 Y97.058 E.00281
G1 X128.167 Y97.212 E.00547
G1 X128.141 Y97.457 E.00771
G1 X128.141 Y99.535 E.06516
G1 X126.829 Y99.535 E.04113
G1 X126.824 Y97.021 E.07883
G1 X126.798 Y96.996 E.00112
G1 X126.633 Y96.988 E.0052
G1 X126.498 Y97.101 E.00552
G1 X126.453 Y97.248 E.00481
G1 X126.42 Y97.632 E.01211
G1 X126.42 Y99.535 E.05965
G1 X125.168 Y99.535 E.03923
M204 S1000
G1 X124.729 Y99.661 F10800
;WIPE_START
G1 F8640
G1 X125.119 Y96.699 E-.65502
G1 X125.16 Y96.246 E-.10498
;WIPE_END
G1 E-.04 F2100
G1 Z.6 F720
G1 X129.963 Y99.295 F10800
G1 Z.2 F720
G1 E.8 F2100
M204 S800
G1 F1200
G1 X129.963 Y96.715 E.08091
G1 X129.934 Y95.987 E.02283
G1 X130.815 Y96.026 E.02767
G1 X130.82 Y96.145 E.00374
G1 X130.873 Y96.106 E.00207
G1 X131.093 Y96.019 E.00742
G1 X131.237 Y95.829 E.00748
G1 X131.626 Y95.83 E.0122
G1 X131.85 Y95.793 E.0071
G1 X132.356 Y96.088 E.01837
G1 X132.478 Y95.976 E.00519
G1 X132.659 Y95.867 E.00664
G1 X133.184 Y95.75 E.01684
G1 X133.446 Y95.769 E.00824
G1 X133.7 Y95.823 E.00814
G1 X133.935 Y95.942 E.00827
G1 X134.17 Y96.114 E.00913
G1 X134.338 Y96.371 E.00962
G1 X134.45 Y96.623 E.00865
G1 X134.497 Y96.889 E.00848
G1 X134.51 Y99.535 E.08297
G1 X133.201 Y99.535 E.04104
G1 X133.207 Y97.206 E.07303
G1 X133.196 Y97.034 E.00541
G1 X133.148 Y97.016 E.00162
G1 X133.139 Y96.994 E.00075
G1 X132.969 Y96.997 E.00533
G1 X132.902 Y97.058 E.00281
G1 X132.822 Y97.212 E.00547
G1 X132.796 Y97.457 E.00771
G1 X132.796 Y99.535 E.06516
G1 X131.484 Y99.535 E.04113
G1 X131.491 Y97.252 E.07159
G1 X131.479 Y97.021 E.00725
G1 X131.453 Y96.996 E.00112
G1 X131.287 Y96.988 E.0052
G1 X131.162 Y97.093 E.00515
G1 X131.085 Y97.37 E.009
G1 X131.061 Y98.761 E.04363
G1 X130.982 Y99.512 E.02367
G1 X130.022 Y99.307 E.03079
M204 S1000
G1 X129.568 Y99.355 F10800
;WIPE_START
G1 F8640
G1 X129.963 Y96.715 E-.59886
G1 X129.935 Y96.017 E-.16114
;WIPE_END
G1 E-.04 F2100
G1 Z.6 F720
G1 X119.996 Y99.868 F10800
G1 Z.2 F720
G1 E.8 F2100
M204 S800
;TYPE:Perimeter
G1 F1200
G1 X119.727 Y99.878 E.00843
G1 X118.927 Y99.856 E.02511
G1 X118.928 Y99.912 E.00173
G1 X116.849 Y99.912 E.0652
G1 X116.849 Y98.954 E.03004
G1 X115.113 Y98.954 E.05441
G1 X115.113 Y97.468 E.04661
G1 X117.317 Y94.338 E.12003
G1 X118.915 Y94.338 E.0501
G1 X118.91 Y97 E.08348
G1 X119.481 Y97.051 E.018
G1 X119.341 Y97.941 E.02825
G1 X119.702 Y97.861 E.01157
G1 X120.06 Y97.912 E.01134
G1 X119.995 Y97.721 E.00635
G1 X119.94 Y97.171 E.01732
G1 X119.966 Y96.489 E.02141
G1 X120.12 Y95.754 E.02354
G1 X120.365 Y95.228 E.01817
G1 X120.566 Y94.97 E.01029
G1 X120.805 Y94.725 E.01072
G1 X121.098 Y94.543 E.0108
G1 X121.408 Y94.405 E.01063
G1 X121.81 Y94.334 E.01281
G1 X122.234 Y94.331 E.01329
G1 X122.492 Y94.369 E.00817
G1 X122.725 Y94.441 E.00765
G1 X122.959 Y94.539 E.00798
G1 X123.354 Y94.822 E.01522
G1 X123.529 Y95.014 E.00813
G1 X123.77 Y95.388 E.01397
G1 X123.946 Y95.81 E.01433
G1 X124.062 Y96.318 E.01632
G1 X124.114 Y96.881 E.01775
G1 X124.11 Y97.474 E.01857
G1 X124.084 Y97.824 E.011
G1 X123.934 Y98.544 E.02308
G1 X123.69 Y99.07 E.01817
G1 X123.489 Y99.329 E.01029
G1 X123.251 Y99.575 E.01074
G1 X122.957 Y99.757 E.01085
G1 X122.653 Y99.894 E.01043
G1 X122.331 Y99.959 E.01032
G1 X122.01 Y99.983 E.01009
G1 X121.602 Y99.935 E.01286
G1 X121.183 Y99.803 E.01378
G1 X120.761 Y99.485 E.01657
G1 X120.791 Y99.839 E.01116
G1 X120.056 Y99.866 E.02308
M204 S1000
G1 X120.382 Y99.477 F10800
M204 S800
;TYPE:External perimeter
G1 F1200
G1 X119.725 Y99.501 E.0206
G1 X119.063 Y99.483 E.02078
G1 X119.12 Y98.811 E.02114
G1 X119.234 Y98.35 E.01489
G1 X119.716 Y98.244 E.01548
G1 X120.247 Y98.32 E.01682
G1 X120.326 Y98.82 E.01589
G1 X120.377 Y99.417 E.01879
M204 S1000
G1 X120.407 Y99.876 F10800
;WIPE_START
G1 F8640
G1 X119.725 Y99.501 E-.15167
G1 X119.063 Y99.483 E-.15302
G1 X119.12 Y98.811 E-.15569
G1 X119.234 Y98.35 E-.10964
G1 X119.716 Y98.244 E-.11402
G1 X120.042 Y98.291 E-.07596
;WIPE_END
G1 E-.04 F2100
G1 Z.6 F720
G1 X118.541 Y99.522 F10800
G1 Z.2 F720
G1 E.8 F2100
M204 S800
G1 F1200
G1 X118.542 Y99.535 E.0004
G1 X117.226 Y99.535 E.04126
G1 X117.226 Y98.577 E.03003
G1 X115.49 Y98.577 E.05441
G1 X115.49 Y97.587 E.03104
G1 X117.513 Y94.715 E.11015
G1 X118.537 Y94.715 E.03212
G1 X118.532 Y97.346 E.08249
G1 X119.046 Y97.391 E.01619
G1 X118.893 Y98.364 E.0309
G1 X118.516 Y98.49 E.01245
G1 X118.54 Y99.462 E.03048
M204 S1000
G1 X118.552 Y99.529 F10800
;WIPE_START
G1 F8640
G1 X118.542 Y99.535 E-.01682
G1 X117.226 Y99.535 E-.30386
G1 X117.226 Y98.577 E-.22116
G1 X116.281 Y98.577 E-.21816
;WIPE_END
G1 E-.04 F2100
G1 Z.6 F720
G1 X120.818 Y98.97 F10800
G1 Z.2 F720
G1 E.8 F2100
M204 S800
G1 F1200
G1 X120.366 Y97.64 E.04403
G1 X120.317 Y97.159 E.01514
G1 X120.342 Y96.528 E.0198
G1 X120.398 Y96.208 E.0102
G1 X120.478 Y95.879 E.01061
G1 X120.688 Y95.426 E.01566
G1 X120.851 Y95.218 E.00828
G1 X121.043 Y95.021 E.00863
G1 X121.275 Y94.877 E.00857
G1 X121.519 Y94.768 E.00837
G1 X121.845 Y94.711 E.01036
G1 X122.208 Y94.708 E.01139
G1 X122.408 Y94.737 E.00634
G1 X122.783 Y94.874 E.01252
G1 X123.096 Y95.098 E.01208
G1 X123.229 Y95.244 E.00619
G1 X123.435 Y95.564 E.01192
G1 X123.585 Y95.925 E.01226
G1 X123.688 Y96.377 E.01453
G1 X123.737 Y96.898 E.0164
G1 X123.733 Y97.459 E.01758
G1 X123.71 Y97.777 E.01001
G1 X123.576 Y98.419 E.02057
G1 X123.366 Y98.873 E.01566
G1 X123.204 Y99.081 E.00828
G1 X123.012 Y99.279 E.00864
G1 X122.779 Y99.424 E.0086
G1 X122.537 Y99.532 E.00832
G1 X122.279 Y99.585 E.00826
G1 X122.018 Y99.604 E.0082
G1 X121.682 Y99.564 E.01061
G1 X121.354 Y99.461 E.01079
G1 X121.054 Y99.247 E.01152
G1 X120.856 Y99.015 E.00957
M204 S1000
G1 X120.418 Y98.958 F10800
;WIPE_START
G1 F8640
G1 X120.366 Y97.64 E-.33718
G1 X120.317 Y97.159 E-.11153
G1 X120.342 Y96.528 E-.14582
G1 X120.398 Y96.208 E-.07511
G1 X120.478 Y95.879 E-.07813
G1 X120.5 Y95.831 E-.01222
;WIPE_END
G1 E-.04 F2100
G1 Z.6 F720
G1 X116.761 Y90.037 F10800
G1 Z.2 F720
G1 E.8 F2100
M204 S800
;TYPE:Perimeter
G1 F1200
G1 X133.639 Y90.037 E.52919
G1 X142.278 Y105 E.54173
G1 X133.639 Y119.963 E.54173
G1 X116.361 Y119.963 E.54173
G1 X107.722 Y105 E.54173
G1 X116.361 Y90.037 E.54173
G1 X116.701 Y90.037 E.01066
M204 S1000
G1 X116.143 Y89.66 F10800
M204 S800
;TYPE:External perimeter
G1 F1200
G1 X133.857 Y89.66 E.55538
G1 X142.713 Y105 E.55538
G1 X133.857 Y120.34 E.55538
G1 X116.143 Y120.34 E.55538
G1 X107.287 Y105 E.55538
G1 X116.113 Y89.712 E.5535
M204 S1000
G1 X116.49 Y89.86 F10800
;WIPE_START
G1 F8640
G1 X119.405 Y89.702 E-.76
;WIPE_END
G1 E-.04 F2100
G1 Z.6 F720
G1 X119.731 Y96.883 F10800
G1 Z.2 F720
G1 E.8 F2100
M204 S800
;TYPE:Gap fill
;WIDTH:0.140445
G1 F1200
G1 X119.702 Y97.175 E.00238
M204 S1000
M204 S800
;WIDTH:0.141725
G1 X119.702 Y97.182 E.00006
M204 S1000
M204 S800
;WIDTH:0.191486
G1 X119.696 Y97.376 E.00241
M204 S1000
M204 S800
;WIDTH:0.241248
G1 X119.691 Y97.571 E.00321
M204 S1000
;WIPE_START
G1 F8640
G1 X119.696 Y97.376 E-.04495
;WIPE_END
G1 E-.75505 F2100
G1 Z.6 F720
G1 X118.843 Y98.58 F10800
G1 Z.2 F720
G1 E.8 F2100
M204 S800
;WIDTH:0.27963
G1 F1200
G1 X118.824 Y98.753 E.00343
M204 S1000
M204 S800
;WIDTH:0.267919
G1 X118.823 Y98.771 E.00033
M204 S1000
M204 S800
;WIDTH:0.264558
G1 X118.809 Y99.218 E.00824
M204 S1000
M204 S800
;WIDTH:0.219667
G1 X118.796 Y99.664 E.00657
M204 S1000
;WIPE_START
G1 F8640
G1 X118.809 Y99.218 E-.1032
;WIPE_END
G1 E-.6968 F2100
G1 Z.6 F720
G1 X120.669 Y99.319 F10800
G1 Z.2 F720
G1 E.8 F2100
M204 S800
;WIDTH:0.168856
G1 F1200
G1 X120.596 Y99.083 E.00258
M204 S1000
M204 S800
;WIDTH:0.158793
G1 X120.565 Y98.938 E.00143
M204 S1000
M204 S800
;WIDTH:0.126056
G1 X120.535 Y98.793 E.00102
M204 S1000
;WIPE_START
G1 F8640
G1 X120.565 Y98.938 E-.03418
;WIPE_END
G1 E-.76582 F2100
G1 Z.6 F720
G1 X124.376 Y98.22 F10800
G1 Z.2 F720
G1 E.8 F2100
M204 S800
;WIDTH:0.350485
G1 F1200
G1 X124.406 Y97.87 E.00898
M204 S1000
M204 S800
;WIDTH:0.316705
G1 X124.407 Y97.857 E.0003
M204 S1000
M204 S800
;WIDTH:0.315078
G1 X124.421 Y97.491 E.0083
M204 S1000
M204 S800
;WIDTH:0.287662
G1 X124.421 Y97.482 E.00017
M204 S1000
M204 S800
;WIDTH:0.287322
G1 X124.422 Y97.185 E.00604
M204 S1000
M204 S800
;WIDTH:0.285824
G1 X124.422 Y97.182 E.00005
M204 S1000
M204 S800
;WIDTH:0.290626
G1 X124.426 Y96.874 E.00635
M204 S1000
M204 S800
;WIDTH:0.291408
G1 X124.426 Y96.862 E.00025
M204 S1000
M204 S800
;WIDTH:0.313754
G1 X124.419 Y96.664 E.00445
M204 S1000
M204 S800
;WIDTH:0.31514
G1 X124.419 Y96.655 E.00021
M204 S1000
M204 S800
;WIDTH:0.344337
G1 X124.418 Y96.344 E.00781
M204 S1000
;WIPE_START
G1 F8640
