; generated by PrusaSlicer 2.4.0+win64 on 2022-08-07 at 15:12:19 UTC

; 

; external perimeters extrusion width = 0.45mm
; perimeters extrusion width = 0.45mm
; infill extrusion width = 0.45mm
; solid infill extrusion width = 0.45mm
; top infill extrusion width = 0.40mm
; first layer extrusion width = 0.42mm

M73 P0 R54
M73 C2
M73 Q0 S54
M73 D2
M201 X1000 Y1000 Z200 E5000 ; sets maximum accelerations, mm/sec^2
M203 X200 Y200 Z12 E120 ; sets maximum feedrates, mm/sec
M204 P1250 R1250 T1250 ; sets acceleration (P, T) and retract acceleration (R), mm/sec^2
M205 X8.00 Y8.00 Z0.40 E4.50 ; sets the jerk limits, mm/sec
M205 S0 T0 ; sets the minimum extruding and travel feed rate, mm/sec
M107
;TYPE:Custom
M862.3 P "MK3SMMU2S" ; printer model check
M862.1 P0.4 ; nozzle diameter check
M115 U3.10.0 ; tell printer latest fw version
G90 ; use absolute coordinates
M83 ; extruder relative mode
M104 S215 ; set extruder temp
M140 S60 ; set bed temp
Tx
M190 S60 ; wait for bed temp
M109 S215 ; wait for extruder temp
G28 W ; home all without mesh bed level
G80 ; mesh bed leveling

;go outside print area
G1 Y-3 F1000
G1 Z0.4 F1000
; select extruder
Tc
; purge line
G1 X55 F2000
G1 Z0.3 F1000
G92 E0
G1 X240 E25 F2200
G1 Y-2 F1000
G1 X55 E25 F1400
G1 Z0.2 F1000
G1 X5 E4 F1000

M221 S95
G92 E0

; Don't change E values below. Excessive value can damage the printer.
M907 E430 ; set extruder motor current
G21 ; set units to millimeters
G90 ; use absolute coordinates
M83 ; use relative distances for extrusion
M900 K0.05 ; Filament gcode LA 1.5
M900 K30 ; Filament gcode LA 1.0
M107
;LAYER_CHANGE
;Z:0.2
;HEIGHT:0.2
;BEFORE_LAYER_CHANGE
G92 E0.0
;0.2


G1 E-.8 F2100
G1 Z.4 F720
;AFTER_LAYER_CHANGE
;0.2
G1 X113.522 Y87.873 F10800
G1 Z.2 F720
G1 E.8 F2100
M204 S800
;TYPE:Skirt/Brim
;WIDTH:0.42
G1 F1200
G1 X114.57 Y86.842 E.04612
G1 X115.907 Y86.496 E.04328
G1 X134.093 Y86.496 E.57023
G1 X135.511 Y86.889 E.04612
G1 X136.478 Y87.873 E.04328
G1 X145.572 Y103.623 E.57023
G1 X145.94 Y105.047 E.04612
M73 P0 R53
G1 X145.572 Y106.377 E.04328
G1 X136.478 Y122.127 E.57023
G1 X135.43 Y123.158 E.04612
G1 X134.093 Y123.504 E.04328
G1 X115.907 Y123.504 E.57023
G1 X114.489 Y123.111 E.04612
G1 X113.522 Y122.127 E.04328
G1 X104.428 Y106.377 E.57023
G1 X104.06 Y104.953 E.04612
G1 X104.428 Y103.623 E.04328
G1 X113.492 Y87.925 E.56834
M204 S1000
G1 X113.818 Y88.113 F10800
M204 S800
G1 F1200
G1 X113.848 Y88.061 E.00188
G1 X114.841 Y87.125 E.04278
G1 X115.907 Y86.873 E.03435
G1 X134.093 Y86.873 E.57023
G1 X135.4 Y87.265 E.04278
G1 X136.152 Y88.061 E.03435
G1 X145.245 Y103.811 E.57023
G1 X145.56 Y105.139 E.04278
M73 Q0 S53
G1 X145.245 Y106.189 E.03435
G1 X136.152 Y121.939 E.57023
G1 X135.159 Y122.875 E.04278
G1 X134.093 Y123.127 E.03435
G1 X115.907 Y123.127 E.57023
G1 X114.6 Y122.735 E.04278
G1 X113.848 Y121.939 E.03435
G1 X104.755 Y106.189 E.57023
G1 X104.44 Y104.861 E.04278
G1 X104.755 Y103.811 E.03435
G1 X113.788 Y88.165 E.56646
M204 S1000
; printing object ResistorJig4.4mm.stl id:0 copy 0
;WIPE_START
G1 F8640
G1 X113.848 Y88.061 E-.02771
G1 X114.841 Y87.125 E-.31505
G1 X115.907 Y86.873 E-.25294
G1 X116.618 Y86.873 E-.1643
;WIPE_END
G1 E-.04 F2100
G1 Z.6 F720
G1 X123.441 Y102.46 F10800
G1 Z.2 F720
G1 E.8 F2100
M204 S800
;TYPE:Perimeter
G1 F1200
G1 X123.583 Y102.367 E.00533
G1 X124.076 Y102.156 E.01681
G1 X124.599 Y102.037 E.01681
M73 Q1 S53
G1 X125.134 Y102.013 E.01681
G1 X125.665 Y102.085 E.01681
G1 X126.175 Y102.25 E.01681
G1 X126.647 Y102.504 E.01681
M73 C1
G1 X127.067 Y102.839 E.01681
G1 X127.419 Y103.242 E.01681
G1 X127.694 Y103.703 E.01681
M73 D1
G1 X127.883 Y104.204 E.01681
G1 X127.978 Y104.732 E.01681
M73 P1 R53
G1 X127.978 Y105.268 E.01681
G1 X127.883 Y105.796 E.01681
G1 X127.694 Y106.297 E.01681
G1 X127.419 Y106.758 E.01681
G1 X127.067 Y107.161 E.01681
G1 X126.647 Y107.496 E.01681
G1 X126.175 Y107.75 E.01681
G1 X125.665 Y107.915 E.01681
G1 X125.134 Y107.987 E.01681
G1 X124.599 Y107.963 E.01681
G1 X124.076 Y107.844 E.01681
G1 X123.583 Y107.633 E.01681
G1 X123.136 Y107.338 E.01681
G1 X122.748 Y106.967 E.01681
G1 X122.433 Y106.534 E.01681
G1 X122.2 Y106.051 E.01681
G1 X122.058 Y105.534 E.01681
G1 X122.01 Y105 E.01681
G1 X122.058 Y104.466 E.01681
G1 X122.2 Y103.949 E.01681
G1 X122.433 Y103.466 E.01681
G1 X122.748 Y103.033 E.01681
G1 X123.136 Y102.662 E.01681
G1 X123.391 Y102.493 E.0096
M204 S1000
G1 X123.372 Y102.958 F10800
M204 S800
;TYPE:External perimeter
G1 F1200
G1 X123.762 Y102.7 E.01468
G1 X124.193 Y102.516 E.01468
G1 X124.649 Y102.412 E.01468
G1 X125.117 Y102.391 E.01468
G1 X125.581 Y102.454 E.01468
G1 X126.026 Y102.598 E.01468
G1 X126.439 Y102.82 E.01468
G1 X126.805 Y103.112 E.01468
G1 X127.113 Y103.465 E.01468
G1 X127.353 Y103.867 E.01468
G1 X127.518 Y104.305 E.01468
G1 X127.601 Y104.766 E.01468
G1 X127.601 Y105.234 E.01468
G1 X127.518 Y105.695 E.01468
G1 X127.353 Y106.133 E.01468
G1 X127.113 Y106.535 E.01468
G1 X126.805 Y106.888 E.01468
G1 X126.439 Y107.18 E.01468
G1 X126.026 Y107.402 E.01468
G1 X125.581 Y107.546 E.01468
G1 X125.117 Y107.609 E.01468
G1 X124.649 Y107.588 E.01468
G1 X124.193 Y107.484 E.01468
G1 X123.762 Y107.3 E.01468
G1 X123.372 Y107.042 E.01468
G1 X123.033 Y106.718 E.01468
G1 X122.758 Y106.34 E.01468
G1 X122.555 Y105.918 E.01468
G1 X122.43 Y105.466 E.01468
G1 X122.388 Y105 E.01468
G1 X122.43 Y104.534 E.01468
G1 X122.555 Y104.082 E.01468
G1 X122.758 Y103.66 E.01468
G1 X123.033 Y103.282 E.01468
G1 X123.328 Y103 E.0128
M204 S1000
G1 X123.312 Y102.563 F10800
;WIPE_START
G1 F8640
G1 X123.762 Y102.7 E-.12177
G1 X124.193 Y102.516 E-.10812
G1 X124.649 Y102.412 E-.10811
G1 X125.117 Y102.391 E-.10812
G1 X125.581 Y102.454 E-.10812
G1 X126.026 Y102.598 E-.10812
G1 X126.399 Y102.799 E-.09765
;WIPE_END
G1 E-.04 F2100
G1 Z.6 F720
G1 X119.69 Y93.035 F10800
G1 Z.2 F720
G1 E.8 F2100
M204 S800
;TYPE:Perimeter
G1 F1200
G1 X119.686 Y94.875 E.0577
G1 X120.258 Y94.926 E.018
G1 X120.117 Y95.817 E.02831
G1 X120.542 Y95.8 E.01333
G1 X120.694 Y95.828 E.00484
G1 X120.623 Y95.478 E.01119
G1 X120.948 Y94.837 E.02253
G1 X121.209 Y94.416 E.01553
G1 X122.754 Y92.213 E.08437
G1 X124.354 Y92.213 E.05017
G1 X124.347 Y93.326 E.03489
G1 X125.444 Y93.558 E.03513
G1 X125.62 Y93.326 E.00912
G1 X126.165 Y93.328 E.01709
G1 X126.491 Y93.274 E.01038
G1 X126.89 Y93.506 E.01446
G1 X127.085 Y93.39 E.00714
G1 X127.423 Y93.306 E.01091
G1 X127.759 Y93.252 E.01066
G1 X128.11 Y93.301 E.01111
G1 X128.449 Y93.406 E.01112
G1 X128.771 Y93.648 E.01263
G1 X128.764 Y93.467 E.00567
G1 X130.121 Y93.527 E.04261
G1 X130.274 Y93.326 E.00792
G1 X130.82 Y93.328 E.01709
G1 X131.146 Y93.274 E.01038
G1 X131.544 Y93.506 E.01444
G1 X131.736 Y93.391 E.00702
G1 X132.386 Y93.245 E.02088
G1 X132.723 Y93.269 E.01059
G1 X133.05 Y93.339 E.0105
G1 X133.356 Y93.494 E.01076
G1 X133.672 Y93.725 E.01226
G1 X133.894 Y94.065 E.01273
G1 X134.036 Y94.386 E.01102
G1 X134.097 Y94.721 E.01065
G1 X134.11 Y94.991 E.00848
G1 X134.11 Y97.787 E.08768
G1 X130.543 Y97.787 E.11185
G1 X130.537 Y97.844 E.00178
G1 X129.032 Y97.522 E.04826
G1 X127.524 Y97.846 E.04836
G1 X127.518 Y97.787 E.00187
G1 X126.002 Y97.787 E.04753
G1 X126.002 Y97.817 E.00093
G1 X124.355 Y97.7 E.05178
G1 X124.357 Y97.774 E.0023
G1 X122.29 Y97.788 E.0648
G1 X122.287 Y96.807 E.03076
G1 X121.655 Y96.727 E.01997
G1 X121.41 Y96.666 E.00792
G1 X121.649 Y97.707 E.03349
G1 X119.703 Y97.749 E.06102
G1 X119.704 Y97.787 E.00118
G1 X117.625 Y97.787 E.0652
G1 X117.625 Y96.829 E.03004
G1 X115.89 Y96.829 E.05441
G1 X115.89 Y95.343 E.04661
G1 X118.094 Y92.213 E.12003
G1 X119.691 Y92.213 E.0501
G1 X119.69 Y92.975 E.0239
M204 S1000
;WIPE_START
G1 F8640
G1 X119.686 Y94.875 E-.4388
G1 X120.258 Y94.926 E-.13252
G1 X120.131 Y95.733 E-.18868
;WIPE_END
G1 E-.04 F2100
G1 Z.6 F720
G1 X120.015 Y96.199 F10800
G1 Z.2 F720
G1 E.8 F2100
M204 S800
;TYPE:External perimeter
G1 F1200
G1 X120.516 Y96.178 E.01571
G1 X120.967 Y96.261 E.01439
G1 X121.027 Y96.682 E.01332
G1 X121.178 Y97.34 E.02116
G1 X119.836 Y97.369 E.04208
G1 X119.9 Y96.686 E.02149
G1 X120.001 Y96.258 E.01382
M204 S1000
G1 X120.024 Y95.799 F10800
;WIPE_START
G1 F8640
G1 X120.516 Y96.178 E-.12016
G1 X120.967 Y96.261 E-.10596
G1 X121.027 Y96.682 E-.09806
G1 X121.178 Y97.34 E-.15585
G1 X119.966 Y97.366 E-.27997
;WIPE_END
G1 E-.04 F2100
G1 Z.6 F720
G1 X123.951 Y95.288 F10800
G1 Z.2 F720
G1 E.8 F2100
M204 S800
G1 F1200
G1 X124.314 Y95.459 E.01258
G1 X124.314 Y96.175 E.02246
G1 X123.943 Y96.351 E.01287
G1 X123.97 Y97.399 E.03289
G1 X122.666 Y97.408 E.04088
G1 X122.663 Y96.443 E.03027
G1 X122.185 Y96.426 E.015
G1 X121.729 Y96.357 E.01445
G1 X121.158 Y96.214 E.01848
G1 X121.019 Y95.531 E.02184
G1 X121.277 Y95.022 E.01791
G1 X121.524 Y94.624 E.01469
G1 X122.95 Y92.59 E.07787
G1 X123.975 Y92.59 E.03214
G1 X123.955 Y95.228 E.08271
M204 S1000
G1 X124.327 Y95.151 F10800
;WIPE_START
G1 F8640
G1 X124.314 Y95.459 E-.09854
G1 X124.314 Y96.175 E-.1654
G1 X123.943 Y96.351 E-.09477
G1 X123.97 Y97.399 E-.24223
G1 X123.281 Y97.404 E-.15905
;WIPE_END
G1 E-.04 F2100
G1 Z.6 F720
G1 X119.822 Y95.266 F10800
G1 Z.2 F720
G1 E.8 F2100
M204 S800
G1 F1200
G1 X119.669 Y96.239 E.0309
G1 X119.293 Y96.365 E.01245
G1 X119.318 Y97.41 E.03276
G1 X118.002 Y97.41 E.04126
G1 X118.002 Y96.452 E.03003
G1 X116.267 Y96.452 E.05441
G1 X116.267 Y95.462 E.03104
G1 X118.289 Y92.59 E.11015
G1 X119.314 Y92.59 E.03212
G1 X119.308 Y95.221 E.08249
G1 X119.763 Y95.261 E.01431
M204 S1000
G1 X120.16 Y95.48 F10800
;WIPE_START
G1 F8640
G1 X119.669 Y96.239 E-.22702
G1 X119.293 Y96.365 E-.09171
G1 X119.318 Y97.41 E-.24126
G1 X118.452 Y97.41 E-.2
;WIPE_END
G1 E-.04 F2100
G1 Z.6 F720
G1 X127.765 Y94.909 F10800
G1 Z.2 F720
G1 E.8 F2100
M204 S800
G1 F1200
G1 X127.717 Y94.891 E.00162
G1 X127.708 Y94.869 E.00075
G1 X127.538 Y94.872 E.00533
G1 X127.471 Y94.933 E.00281
G1 X127.39 Y95.087 E.00547
G1 X127.365 Y95.332 E.00771
G1 X127.365 Y97.41 E.06516
G1 X126.053 Y97.41 E.04113
G1 X126.048 Y94.896 E.07883
G1 X126.022 Y94.871 E.00112
G1 X125.856 Y94.863 E.0052
G1 X125.722 Y94.976 E.00552
G1 X125.676 Y95.126 E.00493
G1 X125.646 Y95.365 E.00755
G1 X125.628 Y97.412 E.06418
G1 X124.357 Y97.323 E.03998
G1 X124.532 Y96.496 E.02649
G1 X124.518 Y95.092 E.04401
G1 X124.41 Y94.608 E.01557
G1 X124.416 Y93.726 E.02766
G1 X125.385 Y93.931 E.03107
G1 X125.389 Y94.02 E.00281
G1 X125.442 Y93.981 E.00207
G1 X125.662 Y93.894 E.00742
G1 X125.806 Y93.704 E.00748
G1 X126.195 Y93.705 E.0122
G1 X126.419 Y93.668 E.0071
G1 X126.925 Y93.964 E.01838
G1 X127.047 Y93.851 E.0052
G1 X127.23 Y93.743 E.00668
G1 X127.763 Y93.634 E.01705
G1 X128.027 Y93.671 E.00838
G1 X128.278 Y93.748 E.00824
G1 X128.495 Y93.904 E.00835
G1 X128.683 Y94.111 E.00878
G1 X128.828 Y94.569 E.01504
G1 X128.868 Y94.792 E.00711
G1 X128.879 Y97.17 E.07456
G1 X127.86 Y97.389 E.0327
G1 X127.781 Y96.554 E.02629
G1 X127.769 Y94.969 E.04971
M204 S1000
G1 X127.715 Y94.924 F10800
;WIPE_START
G1 F8640
G1 X127.717 Y94.891 E-.02167
G1 X127.708 Y94.869 E-.0055
G1 X127.538 Y94.872 E-.03923
G1 X127.471 Y94.933 E-.02071
G1 X127.39 Y95.087 E-.04025
G1 X127.365 Y95.332 E-.05681
G1 X127.365 Y97.41 E-.47983
G1 X126.949 Y97.41 E-.096
;WIPE_END
G1 E-.04 F2100
G1 Z.6 F720
G1 X129.157 Y93.862 F10800
G1 Z.2 F720
G1 E.8 F2100
M204 S800
G1 F1200
G1 X130.039 Y93.901 E.02767
G1 X130.043 Y94.02 E.00374
G1 X130.097 Y93.981 E.00207
G1 X130.317 Y93.894 E.00742
G1 X130.461 Y93.704 E.00748
G1 X130.85 Y93.705 E.0122
G1 X131.074 Y93.668 E.0071
G1 X131.58 Y93.963 E.01837
G1 X131.701 Y93.851 E.00519
G1 X131.883 Y93.742 E.00664
G1 X132.407 Y93.625 E.01684
G1 X132.67 Y93.644 E.00824
G1 X132.924 Y93.698 E.00814
G1 X133.159 Y93.817 E.00827
G1 X133.394 Y93.989 E.00913
G1 X133.561 Y94.246 E.00962
G1 X133.673 Y94.498 E.00865
G1 X133.721 Y94.764 E.00848
G1 X133.733 Y97.41 E.08297
G1 X132.424 Y97.41 E.04104
G1 X132.43 Y95.081 E.07303
G1 X132.42 Y94.909 E.00541
G1 X132.371 Y94.891 E.00162
G1 X132.362 Y94.869 E.00075
G1 X132.193 Y94.872 E.00533
G1 X132.126 Y94.933 E.00281
G1 X132.045 Y95.087 E.00547
G1 X132.02 Y95.332 E.00771
G1 X132.02 Y97.41 E.06516
G1 X130.708 Y97.41 E.04113
G1 X130.715 Y95.127 E.07159
G1 X130.703 Y94.896 E.00725
G1 X130.677 Y94.871 E.00112
G1 X130.511 Y94.863 E.0052
G1 X130.385 Y94.968 E.00515
G1 X130.309 Y95.245 E.009
G1 X130.284 Y96.636 E.04363
G1 X130.206 Y97.387 E.02367
G1 X129.187 Y97.17 E.03267
G1 X129.187 Y94.59 E.08091
G1 X129.16 Y93.922 E.02095
M204 S1000
G1 X129.168 Y93.462 F10800
;WIPE_START
G1 F8640
G1 X130.039 Y93.901 E-.20309
G1 X130.043 Y94.02 E-.02753
G1 X130.097 Y93.981 E-.01521
G1 X130.317 Y93.894 E-.05466
G1 X130.461 Y93.704 E-.05511
G1 X130.85 Y93.705 E-.08987
G1 X131.074 Y93.668 E-.05231
G1 X131.58 Y93.963 E-.13531
G1 X131.701 Y93.851 E-.03823
G1 X131.883 Y93.742 E-.04892
G1 X132.051 Y93.705 E-.03976
;WIPE_END
G1 E-.04 F2100
G1 Z.6 F720
G1 X133.661 Y90.076 F10800
G1 Z.2 F720
G1 E.8 F2100
M204 S800
;TYPE:Perimeter
G1 F1200
G1 X142.278 Y105 E.54031
G1 X133.639 Y119.963 E.54173
G1 X116.361 Y119.963 E.54173
G1 X107.722 Y105 E.54173
G1 X116.361 Y90.037 E.54173
G1 X133.624 Y90.037 E.54127
M204 S1000
G1 X133.857 Y89.66 F10800
M204 S800
;TYPE:External perimeter
G1 F1200
G1 X142.713 Y105 E.55538
G1 X133.857 Y120.34 E.55538
G1 X116.143 Y120.34 E.55538
G1 X107.287 Y105 E.55538
G1 X116.143 Y89.66 E.55538
G1 X133.797 Y89.66 E.5535
M204 S1000
G1 X133.857 Y90.06 F10800
;WIPE_START
G1 F8640
G1 X135.451 Y92.506 E-.76
;WIPE_END
G1 E-.04 F2100
G1 Z.6 F720
G1 X132.794 Y90.15 F10800
G1 Z.2 F720
G1 E.8 F2100
M204 S800
;TYPE:Solid infill
;WIDTH:0.424157
G1 F1200
G1 X134.174 Y91.53 E.06185
G1 X134.911 Y92.806 E.04669
G1 X132.425 Y90.32 E.11143
G1 X131.886 Y90.32 E.01709
G1 X135.647 Y94.081 E.16862
G1 X136.384 Y95.357 E.04669
G1 X131.347 Y90.32 E.22581
G1 X130.808 Y90.32 E.01709
G1 X137.12 Y96.632 E.283
G1 X137.857 Y97.908 E.04669
G1 X134.321 Y94.373 E.15849
G1 X134.309 Y94.303 E.00226
G1 X134.143 Y93.93 E.01294
G1 X133.881 Y93.527 E.01523
G1 X133.505 Y93.253 E.01476
G1 X133.145 Y93.071 E.01277
G1 X132.985 Y93.036 E.0052
G1 X130.268 Y90.32 E.12178
G1 X129.729 Y90.32 E.01709
G1 X132.37 Y92.961 E.11839
G1 X131.928 Y93.058 E.01434
G1 X129.19 Y90.32 E.12276
G1 X128.651 Y90.32 E.01709
G1 X131.461 Y93.13 E.12599
G1 X131.2 Y92.978 E.00957
G1 X130.831 Y93.039 E.01186
G1 X128.112 Y90.32 E.12192
G1 X127.573 Y90.32 E.01709
G1 X130.296 Y93.043 E.1221
G1 X130.135 Y93.043 E.00512
G1 X129.986 Y93.238 E.00778
G1 X129.95 Y93.237 E.00114
G1 X127.034 Y90.32 E.13076
G1 X126.494 Y90.32 E.01709
G1 X129.386 Y93.212 E.12963
G1 X128.822 Y93.186 E.01791
G1 X125.955 Y90.32 E.12851
G1 X125.416 Y90.32 E.01709
G1 X128.113 Y93.016 E.12088
G1 X127.756 Y92.967 E.01141
G1 X127.556 Y92.999 E.00643
G1 X124.877 Y90.32 E.12009
G1 X124.338 Y90.32 E.01709
G1 X127.11 Y93.092 E.12429
G1 X126.977 Y93.125 E.00435
G1 X126.888 Y93.178 E.00327
G1 X126.546 Y92.978 E.01258
G1 X126.469 Y92.991 E.00245
G1 X123.799 Y90.32 E.11973
G1 X123.259 Y90.32 E.01709
G1 X125.984 Y93.045 E.12215
G1 X125.48 Y93.043 E.01599
G1 X125.464 Y93.064 E.00082
G1 X122.72 Y90.32 E.123
G1 X122.181 Y90.32 E.01709
G1 X123.791 Y91.93 E.07219
G1 X123.252 Y91.93 E.01709
G1 X121.642 Y90.32 E.07219
G1 X121.103 Y90.32 E.01709
G1 X122.713 Y91.93 E.07219
G1 X122.607 Y91.93 E.00336
G1 X122.428 Y92.184 E.00986
G1 X120.564 Y90.32 E.08359
G1 X120.025 Y90.32 E.01709
G1 X122.205 Y92.501 E.09777
G1 X121.983 Y92.817 E.01227
G1 X119.485 Y90.32 E.11196
G1 X118.946 Y90.32 E.01709
G1 X121.761 Y93.134 E.12618
G1 X121.539 Y93.451 E.01227
G1 X118.407 Y90.32 E.14039
G1 X117.868 Y90.32 E.01709
G1 X119.478 Y91.93 E.07219
G1 X119.975 Y91.93 E.01574
G1 X119.974 Y92.426 E.01571
G1 X121.317 Y93.769 E.0602
G1 X121.095 Y94.086 E.01227
G1 X119.973 Y92.964 E.0503
G1 X119.972 Y93.502 E.01706
G1 X120.88 Y94.41 E.04071
G1 X120.804 Y94.532 E.00454
G1 X120.299 Y94.368 E.01683
G1 X119.97 Y94.04 E.01473
G1 X119.969 Y94.578 E.01706
G1 X120.198 Y94.807 E.01027
M204 S1000
;WIPE_START
G1 F8640
G1 X119.969 Y94.578 E-.07477
G1 X119.97 Y94.04 E-.12423
G1 X120.299 Y94.368 E-.10732
G1 X120.804 Y94.532 E-.12257
G1 X120.88 Y94.41 E-.03307
G1 X119.972 Y93.502 E-.29655
G1 X119.972 Y93.495 E-.00148
;WIPE_END
G1 E-.04 F2100
G1 Z.6 F720
G1 X119.109 Y92.1 F10800
G1 Z.2 F720
G1 E.8 F2100
M204 S800
G1 F1200
