; generated by PrusaSlicer 2.4.2+win64 on 2022-08-15 at 16:17:34 UTC

; 

; external perimeters extrusion width = 0.45mm
; perimeters extrusion width = 0.45mm
; infill extrusion width = 0.45mm
; solid infill extrusion width = 0.45mm
; top infill extrusion width = 0.40mm
; first layer extrusion width = 0.42mm

M73 P0 R22
M73 Q0 S22
M107
;TYPE:Custom
M862.3 P "MK3SMMU2S" ; printer model check
M862.1 P0.4 ; nozzle diameter check
M115 U3.11.0 ; tell printer latest fw version
G90 ; use absolute coordinates
M83 ; extruder relative mode
M104 S240 ; set extruder temp
M140 S85 ; set bed temp
Tx
M190 S85 ; wait for bed temp
M109 S240 ; wait for extruder temp
G28 W ; home all without mesh bed level
G80 ; mesh bed leveling

;go outside print area
G1 Y-3.0 F1000.0
G1 Z0.4 F1000.0
; select extruder
Tc
; purge line
G1 X55.0 F2000.0
G1 Z0.3 F1000.0
G92 E0.0
G1 X240.0 E25.0 F2200.0
G1 Y-2.0 F1000.0
M73 P0 R21
G1 X55.0 E25 F1400.0
G1 Z0.20 F1000.0
M73 P1 R21
M73 Q1 S21
G1 X5.0 E4.0 F1000.0

M221 S95
G92 E0.0

; Don't change E values below. Excessive value can damage the printer.
M907 E430 ; set extruder motor current
G21 ; set units to millimeters
G90 ; use absolute coordinates
M83 ; use relative distances for extrusion
M900 K0.08 ; Filament gcode LA 1.5
M900 K45 ; Filament gcode LA 1.0
M107
;LAYER_CHANGE
;Z:0.2
;HEIGHT:0.2
;BEFORE_LAYER_CHANGE
G92 E0.0
;0.2


G1 E-1.4 F2100
G1 Z.2 F10800
;AFTER_LAYER_CHANGE
;0.2
G1 Z.4
G1 X110.757 Y94.89
G1 Z.2
G1 E1.4 F2100
M204 S1000
;TYPE:Skirt/Brim
;WIDTH:0.42
G1 F1200
G1 X113.144 Y92.371 E.10883
G1 X114.164 Y91.486 E.04234
G1 X115.741 Y90.361 E.06073
G1 X117.538 Y89.369 E.06437
G1 X118.753 Y88.844 E.04147
G1 X120.585 Y88.252 E.06036
G1 X121.845 Y87.969 E.04052
G1 X123.421 Y87.754 E.04987
G1 X125.127 Y87.68 E.05354
G1 X127.093 Y87.806 E.06176
G1 X128.731 Y88.089 E.05211
G1 X130.373 Y88.533 E.05333
G1 X132.157 Y89.226 E.06001
G1 X133.409 Y89.857 E.04395
G1 X135.034 Y90.88 E.06021
G1 X136.34 Y91.91 E.05215
G1 X137.487 Y92.994 E.0495
G1 X139.19 Y94.799 E.07781
G1 X139.582 Y95.329 E.02066
G1 X140.883 Y97.748 E.0861
G1 X141.666 Y100.269 E.08279
G1 X142.083 Y102.109 E.05914
G1 X142.284 Y103.824 E.05416
G1 X142.32 Y105.524 E.05331
G1 X142.151 Y107.468 E.06119
G1 X141.903 Y108.813 E.04286
G1 X141.378 Y110.665 E.06037
G1 X140.743 Y112.234 E.05308
G1 X139.972 Y113.729 E.05275
G1 X138.9 Y115.35 E.06092
G1 X137.803 Y116.678 E.054
G1 X136.681 Y117.805 E.04987
G1 X135.415 Y118.851 E.05149
G1 X134.105 Y119.749 E.04981
G1 X132.636 Y120.556 E.05253
G1 X131.083 Y121.231 E.05312
G1 X129.254 Y121.803 E.06007
G1 X126.742 Y122.395 E.08093
G1 X126.107 Y122.468 E.02005
G1 X123.952 Y122.462 E.06755
G1 X123.355 Y122.395 E.01883
G1 X119.938 Y121.579 E.11016
G1 X118.707 Y121.15 E.04089
G1 X117.017 Y120.385 E.05816
G1 X115.842 Y119.715 E.04242
G1 X114.233 Y118.582 E.06168
G1 X112.998 Y117.5 E.05148
G1 X111.944 Y116.398 E.04782
G1 X111.1 Y115.35 E.0422
G1 X110.028 Y113.729 E.06092
G1 X109.419 Y112.587 E.0406
G1 X108.673 Y110.81 E.06042
G1 X108.285 Y109.571 E.04071
G1 X107.88 Y107.676 E.06077
G1 X107.706 Y106.03 E.05191
G1 X107.682 Y104.443 E.04977
G1 X107.822 Y102.758 E.053
G1 X108.116 Y101.112 E.05242
G1 X109.069 Y97.832 E.10711
G1 X109.316 Y97.26 E.01954
G1 X110.391 Y95.389 E.06764
G1 X110.721 Y94.939 E.01751
G1 X111.034 Y95.146 F10800
G1 F1200
G1 X113.407 Y92.641 E.10819
G1 X114.395 Y91.785 E.04099
G1 X115.941 Y90.68 E.05958
G1 X117.708 Y89.705 E.06328
G1 X118.89 Y89.195 E.04037
G1 X120.688 Y88.615 E.05922
G1 X121.916 Y88.339 E.03946
G1 X123.454 Y88.13 E.04868
G1 X125.118 Y88.057 E.05223
G1 X127.046 Y88.18 E.06057
G1 X128.649 Y88.458 E.05101
G1 X130.257 Y88.892 E.05222
G1 X132.008 Y89.573 E.05891
G1 X133.219 Y90.182 E.04248
G1 X134.814 Y91.187 E.05911
G1 X136.094 Y92.196 E.0511
G1 X137.215 Y93.254 E.04835
G1 X138.916 Y95.058 E.07773
G1 X139.254 Y95.515 E.01783
G1 X140.523 Y97.86 E.0836
M73 Q2 S21
G1 X141.302 Y100.365 E.08226
M73 P2 R21
G1 X141.712 Y102.178 E.05827
G1 X141.908 Y103.849 E.05276
G1 X141.943 Y105.514 E.0522
G1 X141.777 Y107.422 E.06004
G1 X141.537 Y108.722 E.04147
G1 X141.022 Y110.54 E.05923
G1 X140.4 Y112.077 E.05198
G1 X139.645 Y113.541 E.05166
G1 X138.594 Y115.131 E.05976
G1 X137.523 Y116.425 E.05266
G1 X136.428 Y117.525 E.04869
G1 X135.187 Y118.551 E.05046
G1 X133.908 Y119.427 E.04862
G1 X132.465 Y120.22 E.05161
G1 X130.949 Y120.879 E.05183
G1 X129.154 Y121.44 E.05896
G1 X126.656 Y122.028 E.08047
G1 X126.108 Y122.091 E.01731
G1 X123.953 Y122.085 E.06755
G1 X123.438 Y122.028 E.01625
G1 X120.05 Y121.219 E.10921
G1 X118.851 Y120.802 E.03981
G1 X117.184 Y120.046 E.05738
G1 X116.047 Y119.398 E.04105
G1 X114.468 Y118.288 E.06051
G1 X113.258 Y117.227 E.05045
G1 X112.224 Y116.145 E.04692
G1 X111.406 Y115.131 E.04087
G1 X110.355 Y113.541 E.05976
G1 X109.762 Y112.429 E.03952
G1 X109.029 Y110.685 E.0593
G1 X108.651 Y109.479 E.03964
G1 X108.252 Y107.619 E.05964
G1 X108.082 Y106.006 E.05087
G1 X108.059 Y104.456 E.04859
G1 X108.19 Y102.856 E.05034
G1 X108.455 Y101.32 E.04886
G1 X109.43 Y97.941 E.11027
G1 X109.643 Y97.447 E.01687
G1 X111.003 Y95.198 E.08241
;WIPE_START
G1 F8640
G1 X113.407 Y92.641 E-.81029
G1 X114.395 Y91.785 E-.30189
G1 X115.162 Y91.236 E-.21782
;WIPE_END
G1 E-.07 F2100
G1 Z.4 F10800
G1 X113.31 Y96.802
G1 Z.2
G1 E1.4 F2100
G1 F1200
G1 X113.48 Y96.556 E.00937
G1 X114.118 Y95.749 E.03226
G1 X114.671 Y95.137 E.02587
G1 X115.256 Y94.558 E.02582
G1 X116.327 Y93.658 E.04385
G1 X117.464 Y92.868 E.04341
G1 X118.174 Y92.456 E.02573
G1 X118.897 Y92.089 E.02543
G1 X119.945 Y91.645 E.03569
G1 X121.169 Y91.247 E.04034
G1 X122.411 Y90.956 E.04001
G1 X123.233 Y90.83 E.02605
G1 X124.052 Y90.751 E.02581
G1 X125.561 Y90.734 E.04732
G1 X126.837 Y90.838 E.04012
G1 X127.645 Y90.967 E.02567
G1 X128.457 Y91.144 E.02604
G1 X129.706 Y91.522 E.04093
G1 X130.91 Y91.999 E.04062
G1 X132.159 Y92.648 E.04413
G1 X133.33 Y93.4 E.04363
G1 X134.419 Y94.269 E.04369
G1 X135.427 Y95.24 E.04387
G1 X136.271 Y96.232 E.04082
G1 X137.1 Y97.378 E.04435
G1 X137.343 Y97.86 E.01692
G1 X137.626 Y98.292 E.01619
G1 X138.078 Y99.255 E.03335
G1 X138.411 Y100.081 E.02792
G1 X138.823 Y101.412 E.04369
G1 X139.108 Y102.758 E.04313
G1 X139.257 Y104.136 E.04348
G1 X139.277 Y105.523 E.04348
G1 X139.165 Y106.835 E.0413
G1 X138.933 Y108.164 E.04228
G1 X138.586 Y109.41 E.04058
G1 X138.215 Y110.434 E.03414
G1 X137.831 Y111.288 E.02937
G1 X137.299 Y112.273 E.03509
G1 X136.58 Y113.367 E.04105
G1 X135.792 Y114.369 E.03996
G1 X135.229 Y114.98 E.02604
G1 X134.64 Y115.551 E.02572
G1 X133.588 Y116.42 E.04277
G1 X132.471 Y117.183 E.04243
G1 X131.271 Y117.839 E.04287
G1 X130.008 Y118.387 E.04319
G1 X129.074 Y118.699 E.03087
G1 X127.833 Y119.005 E.04007
G1 X126.631 Y119.2 E.03817
G1 X125.508 Y119.297 E.03535
G1 X124.972 Y119.267 E.01684
G1 X124.494 Y119.305 E.01504
G1 X123.014 Y119.15 E.04666
G1 X121.56 Y118.874 E.0464
G1 X120.682 Y118.625 E.0286
G1 X119.917 Y118.358 E.02541
G1 X119.158 Y118.045 E.02574
G1 X117.915 Y117.408 E.04381
G1 X116.744 Y116.667 E.04345
G1 X116.088 Y116.172 E.02576
G1 X115.454 Y115.636 E.02603
G1 X114.545 Y114.739 E.04003
G1 X113.573 Y113.582 E.0474
G1 X113.099 Y112.91 E.02579
G1 X112.659 Y112.205 E.02606
G1 X112.064 Y111.059 E.04047
G1 X111.566 Y109.869 E.04046
G1 X111.162 Y108.541 E.04352
G1 X110.882 Y107.192 E.0432
G1 X110.741 Y105.84 E.0426
G1 X110.724 Y104.47 E.04297
G1 X110.838 Y103.144 E.04173
G1 X111.073 Y101.822 E.04209
G1 X111.438 Y100.526 E.04224
G1 X111.918 Y99.264 E.04232
G1 X112.427 Y98.197 E.03708
G1 X112.647 Y97.878 E.01215
G1 X112.872 Y97.431 E.01569
G1 X113.275 Y96.851 E.02214
G1 X113.585 Y97.066 F10800
G1 F1200
G1 X113.787 Y96.776 E.01107
G1 X114.402 Y95.997 E.03114
G1 X114.947 Y95.393 E.02551
G1 X115.516 Y94.831 E.02507
G1 X116.55 Y93.963 E.04233
G1 X117.661 Y93.19 E.04242
G1 X118.35 Y92.79 E.02499
G1 X119.062 Y92.428 E.02506
G1 X120.07 Y92.001 E.03431
G1 X121.263 Y91.613 E.03934
G1 X122.476 Y91.328 E.03907
G1 X123.274 Y91.205 E.02532
G1 X124.08 Y91.127 E.02539
G1 X125.539 Y91.11 E.04575
G1 X126.784 Y91.212 E.03916
G1 X127.58 Y91.339 E.02528
G1 X128.369 Y91.511 E.02531
G1 X129.575 Y91.875 E.03949
G1 X130.745 Y92.339 E.03947
G1 X131.963 Y92.97 E.04302
G1 X133.103 Y93.701 E.04245
G1 X134.164 Y94.547 E.04256
G1 X135.146 Y95.492 E.04272
G1 X135.97 Y96.459 E.03982
G1 X136.785 Y97.586 E.04361
G1 X137.015 Y98.049 E.01621
G1 X137.29 Y98.465 E.01564
G1 X137.734 Y99.41 E.03275
G1 X138.058 Y100.214 E.02718
G1 X138.46 Y101.515 E.04268
G1 X138.737 Y102.826 E.04202
G1 X138.88 Y104.151 E.04177
G1 X138.9 Y105.501 E.04233
G1 X138.792 Y106.779 E.04022
G1 X138.567 Y108.072 E.04115
G1 X138.23 Y109.289 E.0396
G1 X137.863 Y110.299 E.03369
G1 X137.49 Y111.128 E.02849
G1 X136.98 Y112.073 E.03369
G1 X136.279 Y113.141 E.04004
G1 X135.509 Y114.119 E.03902
G1 X134.963 Y114.713 E.02531
G1 X134.383 Y115.275 E.02532
G1 X133.355 Y116.123 E.04179
G1 X132.267 Y116.867 E.04133
G1 X131.098 Y117.503 E.04173
G1 X129.88 Y118.033 E.04163
G1 X128.976 Y118.335 E.0299
G1 X127.765 Y118.634 E.03911
G1 X126.592 Y118.825 E.03727
G1 X125.49 Y118.92 E.03469
G1 X124.966 Y118.889 E.01643
G1 X124.514 Y118.928 E.01423
G1 X123.076 Y118.779 E.04533
G1 X121.654 Y118.508 E.04538
G1 X120.801 Y118.268 E.0278
G1 X120.046 Y118.004 E.02506
G1 X119.31 Y117.699 E.025
G1 X118.109 Y117.085 E.04229
G1 X116.965 Y116.361 E.04246
G1 X116.319 Y115.874 E.02535
G1 X115.703 Y115.353 E.02529
G1 X114.816 Y114.477 E.03908
G1 X113.876 Y113.358 E.04583
G1 X113.41 Y112.697 E.02537
G1 X112.983 Y112.011 E.02533
G1 X112.409 Y110.907 E.03904
G1 X111.918 Y109.732 E.03992
G1 X111.529 Y108.455 E.04183
G1 X111.256 Y107.143 E.04204
G1 X111.118 Y105.827 E.04149
G1 X111.1 Y104.493 E.04183
G1 X111.211 Y103.201 E.04065
G1 X111.439 Y101.915 E.04094
G1 X111.794 Y100.652 E.04116
G1 X112.262 Y99.419 E.04134
G1 X112.747 Y98.398 E.03543
G1 X112.973 Y98.069 E.0125
G1 X113.19 Y97.635 E.01524
G1 X113.551 Y97.116 E.01982
G1 X113.86 Y97.331 F10800
G1 F1200
G1 X114.093 Y96.997 E.01277
G1 X114.687 Y96.245 E.03002
G1 X115.216 Y95.658 E.02481
G1 X115.776 Y95.105 E.02466
G1 X116.786 Y94.257 E.04134
G1 X117.857 Y93.512 E.04091
M73 P3 R21
G1 X118.535 Y93.118 E.02458
M73 Q3 S21
G1 X119.227 Y92.767 E.02435
G1 X120.194 Y92.357 E.03294
G1 X121.357 Y91.978 E.03835
G1 X122.541 Y91.699 E.03813
G1 X123.316 Y91.58 E.02458
G1 X124.109 Y91.503 E.02497
G1 X125.518 Y91.487 E.04419
G1 X126.732 Y91.585 E.0382
G1 X127.516 Y91.71 E.02488
G1 X128.281 Y91.878 E.02457
G1 X129.458 Y92.234 E.03855
G1 X130.597 Y92.686 E.03843
G1 X131.782 Y93.301 E.04185
G1 X132.891 Y94.013 E.04134
G1 X133.922 Y94.837 E.04137
G1 X134.865 Y95.744 E.04103
G1 X135.669 Y96.686 E.03882
G1 X136.469 Y97.794 E.04286
G1 X136.688 Y98.237 E.0155
G1 X136.955 Y98.638 E.01511
G1 X137.391 Y99.566 E.03213
G1 X137.706 Y100.348 E.02644
G1 X138.093 Y101.601 E.04114
G1 X138.363 Y102.877 E.04086
G1 X138.503 Y104.166 E.04065
G1 X138.524 Y105.478 E.04117
G1 X138.42 Y106.723 E.03915
G1 X138.201 Y107.98 E.04002
G1 X137.873 Y109.167 E.03862
G1 X137.511 Y110.163 E.03323
G1 X137.149 Y110.967 E.02762
G1 X136.66 Y111.873 E.0323
G1 X135.977 Y112.914 E.03904
G1 X135.227 Y113.869 E.03808
G1 X134.696 Y114.446 E.02457
G1 X134.126 Y114.999 E.02491
G1 X133.135 Y115.817 E.04028
G1 X132.078 Y116.54 E.04017
G1 X130.94 Y117.161 E.04064
G1 X129.753 Y117.678 E.0406
G1 X128.878 Y117.971 E.02893
G1 X127.697 Y118.263 E.03815
G1 X126.552 Y118.449 E.03636
G1 X125.471 Y118.543 E.03402
G1 X124.96 Y118.511 E.01606
G1 X124.534 Y118.551 E.01342
G1 X123.123 Y118.404 E.04448
G1 X121.749 Y118.143 E.04386
G1 X120.92 Y117.91 E.02701
G1 X120.186 Y117.654 E.02438
G1 X119.461 Y117.354 E.02459
G1 X118.289 Y116.753 E.0413
G1 X117.185 Y116.055 E.04094
G1 X116.558 Y115.583 E.02461
G1 X115.952 Y115.07 E.02489
G1 X115.088 Y114.215 E.03812
G1 X114.18 Y113.134 E.04426
G1 X113.721 Y112.484 E.02495
G1 X113.307 Y111.818 E.02459
G1 X112.747 Y110.74 E.03809
G1 X112.269 Y109.595 E.03888
G1 X111.893 Y108.354 E.04068
G1 X111.63 Y107.094 E.04036
G1 X111.495 Y105.813 E.04039
G1 X111.477 Y104.516 E.04068
G1 X111.584 Y103.258 E.03956
G1 X111.804 Y102.008 E.0398
G1 X112.15 Y100.777 E.04008
G1 X112.606 Y99.573 E.04038
G1 X113.066 Y98.599 E.03378
G1 X113.299 Y98.26 E.01288
G1 X113.508 Y97.838 E.01477
G1 X113.826 Y97.38 E.01749
G1 X114.136 Y97.595 F10800
G1 F1200
G1 X114.399 Y97.217 E.01447
G1 X114.971 Y96.493 E.02891
G1 X115.485 Y95.922 E.0241
G1 X116.035 Y95.378 E.02424
G1 X117.008 Y94.562 E.03982
G1 X118.053 Y93.834 E.03992
G1 X118.71 Y93.452 E.02383
G1 X119.392 Y93.106 E.02398
G1 X120.319 Y92.713 E.03158
G1 X121.452 Y92.343 E.03735
G1 X122.606 Y92.071 E.03719
G1 X123.368 Y91.953 E.02418
G1 X124.137 Y91.879 E.02422
G1 X125.496 Y91.863 E.04263
G1 X126.68 Y91.959 E.03724
G1 X127.44 Y92.08 E.02414
G1 X128.193 Y92.244 E.02417
G1 X129.326 Y92.587 E.03711
G1 X130.449 Y93.033 E.03788
G1 X131.585 Y93.623 E.04014
G1 X132.663 Y94.314 E.04016
G1 X133.667 Y95.115 E.04025
G1 X134.585 Y95.996 E.03988
G1 X135.368 Y96.913 E.0378
G1 X136.154 Y98.001 E.04209
G1 X136.36 Y98.426 E.01481
G1 X136.62 Y98.812 E.01461
G1 X137.047 Y99.721 E.03149
G1 X137.353 Y100.481 E.02569
G1 X137.73 Y101.704 E.04014
G1 X137.993 Y102.945 E.03976
G1 X138.128 Y104.197 E.03949
G1 X138.147 Y105.457 E.03949
G1 X138.047 Y106.667 E.03808
G1 X137.835 Y107.889 E.03888
G1 X137.516 Y109.045 E.03763
G1 X137.159 Y110.028 E.03278
G1 X136.808 Y110.805 E.02674
G1 X136.34 Y111.673 E.03092
G1 X135.676 Y112.688 E.03803
G1 X134.944 Y113.619 E.03713
G1 X134.422 Y114.187 E.02417
G1 X133.869 Y114.723 E.02416
G1 X132.902 Y115.521 E.0393
G1 X131.873 Y116.223 E.03908
G1 X130.781 Y116.819 E.03897
G1 X129.625 Y117.323 E.03957
G1 X128.78 Y117.607 E.02795
G1 X127.628 Y117.892 E.03719
G1 X126.513 Y118.074 E.03545
G1 X125.454 Y118.166 E.03333
G1 X124.953 Y118.133 E.01574
G1 X124.553 Y118.174 E.01261
G1 X123.17 Y118.03 E.04359
G1 X121.843 Y117.778 E.04235
G1 X121.038 Y117.552 E.02621
G1 X120.315 Y117.299 E.02402
G1 X119.612 Y117.008 E.02384
G1 X118.483 Y116.43 E.03979
G1 X117.406 Y115.749 E.03995
G1 X116.789 Y115.285 E.02419
G1 X116.202 Y114.787 E.02416
G1 X115.359 Y113.953 E.03716
G1 X114.483 Y112.91 E.0427
G1 X114.038 Y112.28 E.0242
G1 X113.631 Y111.625 E.02418
G1 X113.085 Y110.573 E.03714
G1 X112.621 Y109.459 E.03785
G1 X112.256 Y108.253 E.03952
G1 X112.001 Y107.026 E.03928
G1 X111.871 Y105.782 E.03923
G1 X111.853 Y104.538 E.039
G1 X111.959 Y103.299 E.039
G1 X112.174 Y102.083 E.03871
G1 X112.51 Y100.887 E.03895
G1 X112.95 Y99.727 E.0389
G1 X113.4 Y98.775 E.03303
G1 X113.625 Y98.452 E.01233
G1 X113.826 Y98.041 E.01434
G1 X114.101 Y97.645 E.01514
G1 X114.411 Y97.86 F10800
G1 F1200
G1 X114.705 Y97.437 E.01617
G1 X115.255 Y96.741 E.0278
G1 X115.762 Y96.178 E.02374
G1 X116.295 Y95.652 E.02348
G1 X117.244 Y94.856 E.03883
G1 X118.249 Y94.157 E.03841
G1 X118.895 Y93.781 E.02342
G1 X119.557 Y93.445 E.02326
G1 X120.444 Y93.069 E.03022
G1 X121.546 Y92.708 E.03636
G1 X122.671 Y92.442 E.03624
G1 X123.42 Y92.327 E.02377
G1 X124.165 Y92.255 E.02346
G1 X125.475 Y92.24 E.04108
G1 X126.628 Y92.332 E.03628
G1 X127.376 Y92.451 E.02374
G1 X128.105 Y92.611 E.02342
G1 X129.209 Y92.946 E.03617
G1 X130.301 Y93.379 E.03684
G1 X131.403 Y93.954 E.03897
G1 X132.452 Y94.626 E.03905
G1 X133.412 Y95.393 E.03854
G1 X134.304 Y96.248 E.03874
G1 X135.066 Y97.14 E.03679
G1 X135.838 Y98.207 E.04129
G1 X136.032 Y98.614 E.01413
G1 X136.285 Y98.986 E.01412
G1 X136.703 Y99.877 E.03084
G1 X137 Y100.615 E.02494
G1 X137.363 Y101.791 E.0386
G1 X137.619 Y102.995 E.0386
G1 X137.751 Y104.212 E.03838
G1 X137.771 Y105.435 E.03834
G1 X137.673 Y106.611 E.03701
G1 X137.469 Y107.798 E.03774
G1 X137.159 Y108.924 E.03663
G1 X136.807 Y109.893 E.03231
G1 X136.467 Y110.644 E.02586
G1 X136.02 Y111.473 E.02955
G1 X135.374 Y112.462 E.03702
G1 X134.662 Y113.37 E.03618
G1 X134.149 Y113.927 E.02376
G1 X133.612 Y114.447 E.02342
G1 X132.682 Y115.214 E.03781
G1 X131.684 Y115.897 E.03793
G1 X130.623 Y116.477 E.03789
G1 X129.496 Y116.968 E.03854
G1 X128.681 Y117.243 E.02698
G1 X127.56 Y117.521 E.03623
G1 X126.473 Y117.699 E.03453
G1 X125.436 Y117.789 E.03262
G1 X124.944 Y117.754 E.01548
G1 X124.57 Y117.797 E.01179
G1 X123.217 Y117.656 E.04267
G1 X121.937 Y117.413 E.04084
