; generated by PrusaSlicer 2.4.0+win64 on 2022-08-10 at 15:29:33 UTC

; 

; external perimeters extrusion width = 0.45mm
; perimeters extrusion width = 0.45mm
; infill extrusion width = 0.45mm
; solid infill extrusion width = 0.45mm
; top infill extrusion width = 0.40mm
; first layer extrusion width = 0.42mm

M73 P0 R25
M73 C1
M73 Q0 S25
M73 D1
M201 X1000 Y1000 Z200 E5000 ; sets maximum accelerations, mm/sec^2
M203 X200 Y200 Z12 E120 ; sets maximum feedrates, mm/sec
M204 P1250 R1250 T1250 ; sets acceleration (P, T) and retract acceleration (R), mm/sec^2
M205 X8.00 Y8.00 Z0.40 E4.50 ; sets the jerk limits, mm/sec
M205 S0 T0 ; sets the minimum extruding and travel feed rate, mm/sec
M107
;TYPE:Custom
M862.3 P "MK3SMMU2S" ; printer model check
M862.1 P0.4 ; nozzle diameter check
M115 U3.10.0 ; tell printer latest fw version
G90 ; use absolute coordinates
M83 ; extruder relative mode
M104 S215 ; set extruder temp
M140 S60 ; set bed temp
Tx
M190 S60 ; wait for bed temp
M109 S215 ; wait for extruder temp
G28 W ; home all without mesh bed level
G80 ; mesh bed leveling

;go outside print area
G1 Y-3 F1000
G1 Z0.4 F1000
; select extruder
Tc
; purge line
G1 X55 F2000
G1 Z0.3 F1000
G92 E0
G1 X240 E25 F2200
G1 Y-2 F1000
G1 X55 E25 F1400
G1 Z0.2 F1000
G1 X5 E4 F1000

M221 S95
G92 E0

; Don't change E values below. Excessive value can damage the printer.
M907 E430 ; set extruder motor current
G21 ; set units to millimeters
G90 ; use absolute coordinates
M83 ; use relative distances for extrusion
M900 K0.05 ; Filament gcode LA 1.5
M900 K30 ; Filament gcode LA 1.0
M107
;LAYER_CHANGE
;Z:0.2
;HEIGHT:0.2
;BEFORE_LAYER_CHANGE
G92 E0.0
;0.2


G1 E-.8 F2100
M73 P1 R25
M73 Q1 S25
G1 Z.4 F720
;AFTER_LAYER_CHANGE
;0.2
G1 X110.74 Y94.713 F10800
G1 Z.2 F720
G1 E.8 F2100
M204 S800
;TYPE:Skirt/Brim
;WIDTH:0.42
G1 F1200
G1 X112.861 Y92.506 E.09597
G1 X114.185 Y91.338 E.05536
G1 X115.81 Y90.197 E.06226
G1 X117.001 Y89.521 E.04294
G1 X118.456 Y88.857 E.05015
G1 X120.102 Y88.279 E.05467
G1 X121.677 Y87.9 E.05082
G1 X123.39 Y87.651 E.05426
G1 X125.034 Y87.58 E.05159
G1 X126.741 Y87.664 E.05359
G1 X128.745 Y87.985 E.06364
G1 X130.113 Y88.344 E.04434
G1 X131.993 Y89.041 E.06286
G1 X133.219 Y89.637 E.04275
G1 X134.915 Y90.671 E.06228
G1 X136.297 Y91.74 E.05479
G1 X137.577 Y92.941 E.05503
G1 X139.26 Y94.713 E.07661
G1 X139.653 Y95.243 E.0207
G1 X140.791 Y97.233 E.0719
G1 X141.038 Y97.81 E.01968
G1 X141.798 Y100.366 E.08359
G1 X142.206 Y102.237 E.06004
G1 X142.374 Y103.648 E.04454
G1 X142.415 Y105.67 E.06343
G1 X142.26 Y107.393 E.05423
G1 X141.934 Y109.121 E.05515
G1 X141.466 Y110.702 E.05168
G1 X140.829 Y112.295 E.05382
G1 X139.887 Y114.063 E.06279
G1 X139.138 Y115.194 E.04256
G1 X137.886 Y116.736 E.06228
G1 X136.867 Y117.766 E.04542
G1 X135.391 Y118.994 E.06018
G1 X134.287 Y119.751 E.04199
G1 X132.853 Y120.558 E.05158
G1 X131.227 Y121.281 E.05581
G1 X129.356 Y121.878 E.06156
G1 X126.783 Y122.495 E.08296
G1 X126.144 Y122.57 E.02018
G1 X123.856 Y122.57 E.07175
G1 X123.217 Y122.495 E.02018
G1 X120.204 Y121.755 E.09727
G1 X118.707 Y121.255 E.04949
G1 X117.495 Y120.732 E.0414
G1 X115.778 Y119.791 E.0614
G1 X114.672 Y119.041 E.0419
G1 X113.133 Y117.766 E.06264
G1 X112.172 Y116.801 E.04269
G1 X110.913 Y115.264 E.06232
G1 X110.156 Y114.134 E.04264
G1 X109.205 Y112.365 E.06297
G1 X108.687 Y111.135 E.04186
G1 X108.184 Y109.566 E.05167
G1 X107.815 Y107.897 E.05358
G1 X107.621 Y106.263 E.05159
G1 X107.579 Y104.546 E.05385
G1 X107.748 Y102.542 E.06308
G1 X107.989 Y101.215 E.04226
G1 X108.962 Y97.81 E.11103
G1 X109.209 Y97.233 E.01968
G1 X110.347 Y95.243 E.07189
G1 X110.705 Y94.761 E.01882
M204 S1000
G1 X111.005 Y94.984 F10800
M204 S800
G1 F1200
G1 X113.123 Y92.776 E.09594
G1 X114.42 Y91.633 E.05421
G1 X116.016 Y90.513 E.06113
G1 X117.176 Y89.855 E.0418
G1 X118.597 Y89.207 E.04899
G1 X120.209 Y88.641 E.05357
G1 X121.75 Y88.27 E.04968
G1 X123.426 Y88.027 E.05312
G1 X125.031 Y87.957 E.05038
G1 X126.705 Y88.039 E.05253
G1 X128.671 Y88.354 E.06244
G1 X129.995 Y88.703 E.04292
G1 X131.84 Y89.386 E.06168
G1 X133.034 Y89.965 E.04162
G1 X134.699 Y90.981 E.06114
G1 X136.053 Y92.028 E.05368
G1 X137.306 Y93.203 E.05388
G1 X138.986 Y94.972 E.07649
G1 X139.326 Y95.43 E.01786
G1 X140.677 Y97.918 E.08879
G1 X141.433 Y100.458 E.08309
G1 X141.835 Y102.305 E.05925
G1 X141.997 Y103.67 E.0431
G1 X142.038 Y105.654 E.06224
G1 X141.886 Y107.341 E.05308
G1 X141.567 Y109.034 E.05401
G1 X141.11 Y110.577 E.05047
G1 X140.486 Y112.139 E.05274
G1 X139.561 Y113.874 E.06164
G1 X138.831 Y114.975 E.04144
G1 X137.602 Y116.489 E.06114
G1 X136.616 Y117.485 E.04393
G1 X135.161 Y118.695 E.05937
G1 X134.084 Y119.433 E.0409
G1 X132.685 Y120.221 E.05036
G1 X131.098 Y120.926 E.05445
G1 X129.255 Y121.514 E.06065
G1 X126.696 Y122.128 E.08253
G1 X126.144 Y122.193 E.01741
G1 X123.856 Y122.193 E.07175
G1 X123.304 Y122.128 E.01741
G1 X120.309 Y121.393 E.09669
G1 X118.844 Y120.904 E.04842
G1 X117.663 Y120.395 E.04033
G1 X115.971 Y119.467 E.0605
G1 X114.894 Y118.736 E.04082
G1 X113.384 Y117.485 E.06149
G1 X112.449 Y116.545 E.04157
G1 X111.213 Y115.035 E.06117
G1 X110.476 Y113.935 E.04151
G1 X109.543 Y112.199 E.06179
G1 X109.039 Y111.001 E.04077
G1 X108.548 Y109.469 E.05045
G1 X108.186 Y107.833 E.05251
G1 X107.998 Y106.238 E.05038
G1 X107.956 Y104.555 E.05278
G1 X108.122 Y102.587 E.06191
G1 X108.358 Y101.296 E.04116
G1 X109.323 Y97.918 E.11013
G1 X109.536 Y97.421 E.01699
G1 X110.674 Y95.43 E.07189
G1 X110.969 Y95.032 E.01552
M204 S1000
;WIPE_START
G1 F8640
G1 X113.123 Y92.776 E-.72028
G1 X113.252 Y92.663 E-.03972
;WIPE_END
G1 E-.04 F2100
G1 Z.6 F720
G1 X113.293 Y96.65 F10800
G1 Z.2 F720
G1 E.8 F2100
M204 S800
G1 F1200
G1 X114.079 Y95.639 E.04016
G1 X114.648 Y95.014 E.02651
G1 X115.251 Y94.424 E.02644
G1 X115.943 Y93.826 E.02867
G1 X116.377 Y93.494 E.01715
G1 X116.831 Y93.162 E.01762
G1 X117.461 Y92.75 E.02361
M73 Q2 S25
G1 X118.252 Y92.298 E.02856
G1 X118.739 Y92.056 E.01704
G1 X119.251 Y91.816 E.01773
G1 X119.974 Y91.523 E.02447
M73 P2 R25
G1 X121.357 Y91.09 E.04543
G1 X122.758 Y90.794 E.04489
G1 X124.172 Y90.645 E.04458
G1 X125.605 Y90.63 E.04494
G1 X126.95 Y90.753 E.04235
G1 X128.262 Y90.992 E.04183
G1 X129.013 Y91.189 E.02432
G1 X129.557 Y91.363 E.01792
G1 X130.067 Y91.54 E.01693
G1 X130.907 Y91.886 E.02848
G1 X131.664 Y92.254 E.02639
G1 X132.392 Y92.661 E.02616
G1 X133.306 Y93.257 E.03423
G1 X133.911 Y93.71 E.02367
G1 X134.348 Y94.074 E.01786
G1 X134.761 Y94.436 E.01719
G1 X135.461 Y95.129 E.0309
G1 X136.329 Y96.142 E.04182
G1 X137.169 Y97.302 E.04491
G1 X137.406 Y97.823 E.01793
G1 X137.718 Y98.251 E.01662
G1 X138.179 Y99.234 E.03403
G1 X138.515 Y100.071 E.02827
G1 X138.803 Y100.949 E.02899
G1 X138.943 Y101.476 E.01707
G1 X139.075 Y102.027 E.01778
G1 X139.216 Y102.793 E.02441
G1 X139.36 Y104.195 E.04421
G1 X139.374 Y105.606 E.04423
G1 X139.245 Y106.991 E.04361
G1 X138.986 Y108.374 E.04413
G1 X138.592 Y109.709 E.04365
G1 X138.07 Y111.018 E.04416
G1 X137.725 Y111.715 E.0244
G1 X137.446 Y112.212 E.01787
G1 X137.17 Y112.677 E.01695
G1 X136.661 Y113.43 E.02849
G1 X136.146 Y114.101 E.02652
G1 X135.599 Y114.733 E.02621
G1 X134.835 Y115.504 E.03406
G1 X134.271 Y116.005 E.02365
G1 X133.825 Y116.361 E.01786
G1 X133.403 Y116.681 E.01663
G1 X132.76 Y117.119 E.02438
G1 X131.498 Y117.836 E.04551
G1 X130.173 Y118.429 E.04552
G1 X129.225 Y118.755 E.03143
G1 X128.128 Y119.043 E.03555
G1 X126.843 Y119.271 E.04091
G1 X125.529 Y119.394 E.04141
G1 X124.988 Y119.338 E.01705
G1 X124.412 Y119.394 E.01813
G1 X122.982 Y119.245 E.04508
G1 X121.62 Y118.988 E.04346
G1 X120.294 Y118.596 E.04336
G1 X119.021 Y118.089 E.04295
G1 X117.713 Y117.405 E.04628
G1 X116.48 Y116.597 E.0462
G1 X115.865 Y116.118 E.02445
G1 X115.464 Y115.77 E.01667
G1 X115.044 Y115.389 E.01778
G1 X114.512 Y114.852 E.02369
G1 X113.797 Y114.03 E.03416
G1 X113.269 Y113.333 E.02743
G1 X112.789 Y112.611 E.02717
G1 X112.363 Y111.879 E.02658
G1 X112.097 Y111.358 E.01832
G1 X111.539 Y110.081 E.04368
G1 X111.112 Y108.745 E.04399
G1 X110.809 Y107.364 E.04434
G1 X110.648 Y105.958 E.04436
G1 X110.621 Y104.546 E.04428
G1 X110.716 Y103.323 E.03845
G1 X110.792 Y102.749 E.01816
G1 X110.963 Y101.854 E.02857
G1 X111.17 Y101.042 E.02628
G1 X111.422 Y100.248 E.02614
G1 X111.823 Y99.228 E.03436
G1 X112.282 Y98.25 E.03386
G1 X112.585 Y97.834 E.01613
G1 X112.793 Y97.368 E.01602
G1 X113.258 Y96.699 E.02554
M204 S1000
G1 X113.568 Y96.914 F10800
M204 S800
G1 F1200
G1 X113.72 Y96.696 E.00836
G1 X114.362 Y95.888 E.03235
G1 X114.916 Y95.28 E.02579
G1 X115.511 Y94.698 E.02608
G1 X116.185 Y94.115 E.02795
G1 X116.605 Y93.794 E.01657
G1 X117.041 Y93.475 E.01695
G1 X117.663 Y93.069 E.02328
G1 X118.434 Y92.628 E.02786
G1 X118.905 Y92.395 E.01646
G1 X119.397 Y92.164 E.01707
G1 X120.109 Y91.876 E.02407
G1 X121.444 Y91.457 E.04388
G1 X122.807 Y91.167 E.04369
G1 X124.185 Y91.022 E.04343
G1 X125.58 Y91.007 E.04376
G1 X126.891 Y91.126 E.04126
G1 X128.174 Y91.358 E.04088
G1 X128.912 Y91.552 E.02393
G1 X129.436 Y91.72 E.01724
G1 X129.929 Y91.89 E.01635
G1 X130.748 Y92.228 E.02777
G1 X131.485 Y92.586 E.02569
G1 X132.202 Y92.987 E.02579
G1 X133.085 Y93.563 E.03306
G1 X133.681 Y94.008 E.02332
G1 X134.102 Y94.36 E.01718
G1 X134.5 Y94.708 E.01658
G1 X135.18 Y95.381 E.03
G1 X136.028 Y96.369 E.04085
G1 X136.852 Y97.507 E.04404
G1 X137.078 Y98.014 E.0174
G1 X137.385 Y98.429 E.01618
G1 X137.835 Y99.389 E.03325
G1 X138.162 Y100.205 E.02757
G1 X138.443 Y101.061 E.02825
G1 X138.577 Y101.57 E.01648
G1 X138.705 Y102.1 E.01711
G1 X138.844 Y102.853 E.02401
G1 X138.984 Y104.225 E.04323
G1 X138.997 Y105.581 E.04252
G1 X138.873 Y106.931 E.04249
G1 X138.622 Y108.277 E.04295
G1 X138.238 Y109.578 E.04252
G1 X137.729 Y110.857 E.04317
G1 X137.389 Y111.543 E.02401
G1 X137.12 Y112.021 E.01719
G1 X136.854 Y112.47 E.01638
G1 X136.359 Y113.205 E.02778
G1 X135.857 Y113.858 E.02582
G1 X135.318 Y114.481 E.02583
G1 X134.58 Y115.227 E.03289
G1 X134.024 Y115.72 E.0233
G1 X133.595 Y116.062 E.01719
G1 X133.186 Y116.373 E.0161
G1 X132.554 Y116.803 E.02399
G1 X131.335 Y117.496 E.04395
G1 X130.042 Y118.075 E.04444
G1 X129.122 Y118.392 E.0305
G1 X128.04 Y118.677 E.03509
G1 X126.786 Y118.898 E.03994
G1 X125.513 Y119.017 E.04006
G1 X124.989 Y118.958 E.01655
G1 X124.431 Y119.017 E.01759
G1 X123.029 Y118.871 E.0442
G1 X121.717 Y118.623 E.04184
G1 X120.425 Y118.242 E.04226
G1 X119.187 Y117.75 E.04176
G1 X117.912 Y117.084 E.04511
G1 X116.706 Y116.295 E.04518
G1 X116.101 Y115.824 E.02405
G1 X115.712 Y115.487 E.01613
G1 X115.308 Y115.12 E.01711
G1 X114.784 Y114.591 E.02334
G1 X114.094 Y113.798 E.03299
G1 X113.58 Y113.119 E.02669
G1 X113.112 Y112.416 E.02646
G1 X112.691 Y111.693 E.02623
G1 X112.435 Y111.192 E.01765
G1 X111.896 Y109.957 E.04225
G1 X111.478 Y108.655 E.04286
G1 X111.182 Y107.311 E.04315
G1 X111.025 Y105.942 E.04323
G1 X110.997 Y104.566 E.04314
G1 X111.09 Y103.368 E.03769
G1 X111.163 Y102.814 E.0175
G1 X111.329 Y101.942 E.02786
G1 X111.531 Y101.151 E.02558
G1 X111.779 Y100.368 E.02576
G1 X112.167 Y99.383 E.0332
G1 X112.616 Y98.428 E.03307
G1 X112.914 Y98.024 E.01574
G1 X113.113 Y97.567 E.01563
G1 X113.533 Y96.964 E.02306
M204 S1000
G1 X113.843 Y97.179 F10800
M204 S800
G1 F1200
G1 X114.026 Y96.916 E.01005
G1 X114.645 Y96.137 E.0312
G1 X115.191 Y95.537 E.02542
G1 X115.77 Y94.972 E.02538
G1 X116.427 Y94.405 E.02723
G1 X116.832 Y94.095 E.01599
G1 X117.251 Y93.788 E.01629
G1 X117.864 Y93.388 E.02294
G1 X118.616 Y92.959 E.02716
G1 X119.07 Y92.734 E.01588
G1 X119.544 Y92.511 E.0164
G1 X120.243 Y92.228 E.02366
G1 X121.532 Y91.824 E.04234
G1 X122.857 Y91.541 E.04249
G1 X124.198 Y91.398 E.04228
G1 X125.556 Y91.383 E.04258
G1 X126.832 Y91.498 E.04018
G1 X128.085 Y91.725 E.03992
G1 X128.811 Y91.916 E.02354
G1 X129.315 Y92.077 E.01657
G1 X129.79 Y92.241 E.01578
G1 X130.588 Y92.57 E.02705
G1 X131.315 Y92.922 E.02533
G1 X132.012 Y93.313 E.02507
G1 X132.864 Y93.869 E.03189
G1 X133.451 Y94.307 E.02297
G1 X133.855 Y94.645 E.01651
G1 X134.239 Y94.98 E.01597
G1 X134.899 Y95.632 E.02909
G1 X135.727 Y96.597 E.03987
G1 X136.534 Y97.711 E.04313
G1 X136.75 Y98.205 E.01691
G1 X137.052 Y98.607 E.01577
G1 X137.492 Y99.544 E.03245
G1 X137.81 Y100.34 E.02687
G1 X138.083 Y101.174 E.02751
G1 X138.212 Y101.664 E.0159
G1 X138.335 Y102.174 E.01645
G1 X138.472 Y102.914 E.02361
G1 X138.607 Y104.238 E.04171
G1 X138.621 Y105.556 E.04135
G1 X138.501 Y106.87 E.04137
G1 X138.257 Y108.18 E.04177
G1 X137.885 Y109.447 E.0414
G1 X137.387 Y110.697 E.04218
G1 X137.054 Y111.372 E.02361
G1 X136.795 Y111.831 E.01652
G1 X136.538 Y112.264 E.0158
G1 X136.056 Y112.98 E.02706
G1 X135.568 Y113.616 E.02511
G1 X135.037 Y114.23 E.02546
G1 X134.325 Y114.949 E.03173
G1 X133.777 Y115.435 E.02295
G1 X133.365 Y115.763 E.01652
G1 X132.97 Y116.064 E.01557
G1 X132.348 Y116.487 E.02359
G1 X131.157 Y117.163 E.04295
G1 X129.911 Y117.722 E.04282
G1 X129.019 Y118.03 E.02957
G1 X127.952 Y118.31 E.03461
G1 X126.728 Y118.525 E.03896
G1 X125.499 Y118.639 E.03868
G1 X124.99 Y118.579 E.01607
G1 X124.449 Y118.639 E.01708
G1 X123.076 Y118.497 E.0433
G1 X121.815 Y118.259 E.04022
G1 X120.54 Y117.883 E.04169
G1 X119.335 Y117.404 E.04064
G1 X118.11 Y116.763 E.04334
G1 X116.932 Y115.993 E.04415
G1 X116.337 Y115.53 E.02364
G1 X115.961 Y115.203 E.0156
G1 X115.572 Y114.851 E.01645
G1 X115.056 Y114.33 E.02299
G1 X114.39 Y113.565 E.03181
G1 X113.89 Y112.905 E.02596
G1 X113.435 Y112.222 E.02575
G1 X113.02 Y111.508 E.02588
G1 X112.774 Y111.026 E.01698
G1 X112.252 Y109.832 E.04083
G1 X111.844 Y108.565 E.04173
G1 X111.556 Y107.258 E.04196
G1 X111.402 Y105.925 E.04209
G1 X111.374 Y104.586 E.042
G1 X111.465 Y103.412 E.03692
G1 X111.535 Y102.879 E.01683
G1 X111.696 Y102.029 E.02714
G1 X111.895 Y101.249 E.02522
G1 X112.137 Y100.488 E.02505
G1 X112.511 Y99.538 E.03203
G1 X112.948 Y98.606 E.03225
G1 X113.243 Y98.214 E.01538
G1 X113.434 Y97.766 E.01528
G1 X113.809 Y97.228 E.02055
M204 S1000
G1 X114.118 Y97.444 F10800
M204 S800
G1 F1200
G1 X114.332 Y97.136 E.01174
G1 X114.929 Y96.386 E.03005
G1 X115.458 Y95.803 E.02469
G1 X116.029 Y95.246 E.02501
G1 X116.669 Y94.694 E.0265
G1 X117.06 Y94.396 E.01541
G1 X117.462 Y94.101 E.01564
G1 X118.065 Y93.707 E.0226
G1 X118.798 Y93.289 E.02645
G1 X119.236 Y93.073 E.0153
G1 X119.69 Y92.859 E.01575
G1 X120.378 Y92.58 E.02326
G1 X121.636 Y92.187 E.04133
G1 X122.926 Y91.912 E.04136
G1 X124.229 Y91.774 E.04108
G1 X125.532 Y91.76 E.04086
G1 X126.774 Y91.871 E.03909
G1 X127.997 Y92.092 E.03897
G1 X128.711 Y92.279 E.02315
G1 X129.194 Y92.434 E.0159
G1 X129.652 Y92.592 E.01521
G1 X130.429 Y92.911 E.02634
G1 X131.136 Y93.254 E.02462
G1 X131.823 Y93.639 E.02469
G1 X132.643 Y94.174 E.03072
G1 X133.221 Y94.606 E.02262
G1 X133.609 Y94.93 E.01584
G1 X133.978 Y95.253 E.01537
G1 X134.618 Y95.884 E.02819
G1 X135.427 Y96.825 E.03889
G1 X136.216 Y97.915 E.04219
G1 X136.422 Y98.397 E.01645
G1 X136.72 Y98.787 E.01538
G1 X137.148 Y99.699 E.03161
G1 X137.457 Y100.474 E.02616
G1 X137.723 Y101.285 E.02677
G1 X137.847 Y101.758 E.01532
G1 X137.965 Y102.247 E.01578
G1 X138.099 Y102.975 E.02321
G1 X138.23 Y104.251 E.0402
G1 X138.245 Y105.532 E.04018
G1 X138.128 Y106.81 E.04024
G1 X137.892 Y108.083 E.04059
G1 X137.531 Y109.316 E.04028
G1 X137.046 Y110.537 E.04119
G1 X136.718 Y111.2 E.0232
G1 X136.469 Y111.64 E.01586
G1 X136.222 Y112.058 E.01523
G1 X135.753 Y112.755 E.02634
G1 X135.273 Y113.382 E.02475
G1 X134.756 Y113.978 E.02473
G1 X134.07 Y114.671 E.03057
G1 X133.531 Y115.149 E.0226
G1 X133.135 Y115.464 E.01586
G1 X132.754 Y115.755 E.01504
M73 P2 R24
G1 X132.142 Y116.171 E.02319
G1 X130.994 Y116.823 E.04139
G1 X129.779 Y117.368 E.04175
G1 X128.917 Y117.667 E.02862
M73 Q3 S25
G1 X127.864 Y117.943 E.03414
G1 X126.67 Y118.153 E.03799
M73 P3 R24
G1 X125.486 Y118.262 E.03728
G1 X124.992 Y118.198 E.01564
G1 X124.466 Y118.262 E.01659
G1 X123.122 Y118.122 E.04236
G1 X121.895 Y117.89 E.03918
G1 X120.655 Y117.524 E.04052
G1 X119.484 Y117.057 E.03953
G1 X118.294 Y116.433 E.04214
G1 X117.157 Y115.691 E.04257
G1 X116.572 Y115.235 E.02324
G1 X116.21 Y114.92 E.01506
G1 X115.837 Y114.582 E.01579
G1 X115.329 Y114.069 E.02263
G1 X114.687 Y113.332 E.03064
G1 X114.201 Y112.691 E.02522
G1 X113.752 Y112.017 E.02538
