; generated by PrusaSlicer 2.4.0+win64 on 2022-08-10 at 14:09:27 UTC

; 

; external perimeters extrusion width = 0.45mm
; perimeters extrusion width = 0.45mm
; infill extrusion width = 0.45mm
; solid infill extrusion width = 0.45mm
; top infill extrusion width = 0.40mm
; first layer extrusion width = 0.42mm

M73 P0 R25
M73 C1
M73 Q0 S25
M73 D1
M201 X1000 Y1000 Z200 E5000 ; sets maximum accelerations, mm/sec^2
M203 X200 Y200 Z12 E120 ; sets maximum feedrates, mm/sec
M204 P1250 R1250 T1250 ; sets acceleration (P, T) and retract acceleration (R), mm/sec^2
M205 X8.00 Y8.00 Z0.40 E4.50 ; sets the jerk limits, mm/sec
M205 S0 T0 ; sets the minimum extruding and travel feed rate, mm/sec
M107
;TYPE:Custom
M862.3 P "MK3SMMU2S" ; printer model check
M862.1 P0.4 ; nozzle diameter check
M115 U3.10.0 ; tell printer latest fw version
G90 ; use absolute coordinates
M83 ; extruder relative mode
M104 S215 ; set extruder temp
M140 S60 ; set bed temp
Tx
M190 S60 ; wait for bed temp
M109 S215 ; wait for extruder temp
G28 W ; home all without mesh bed level
G80 ; mesh bed leveling

;go outside print area
G1 Y-3 F1000
G1 Z0.4 F1000
; select extruder
Tc
; purge line
G1 X55 F2000
G1 Z0.3 F1000
G92 E0
G1 X240 E25 F2200
G1 Y-2 F1000
G1 X55 E25 F1400
G1 Z0.2 F1000
M73 P0 R24
G1 X5 E4 F1000

M221 S95
G92 E0

; Don't change E values below. Excessive value can damage the printer.
M907 E430 ; set extruder motor current
G21 ; set units to millimeters
G90 ; use absolute coordinates
M83 ; use relative distances for extrusion
M900 K0.05 ; Filament gcode LA 1.5
M900 K30 ; Filament gcode LA 1.0
M107
;LAYER_CHANGE
;Z:0.2
;HEIGHT:0.2
;BEFORE_LAYER_CHANGE
G92 E0.0
;0.2


M73 P1 R24
G1 E-.8 F2100
M73 Q1 S24
G1 Z.4 F720
;AFTER_LAYER_CHANGE
;0.2
G1 X110.741 Y94.71 F10800
G1 Z.2 F720
G1 E.8 F2100
M204 S800
;TYPE:Skirt/Brim
;WIDTH:0.42
G1 F1200
G1 X112.857 Y92.509 E.09572
G1 X114.182 Y91.341 E.05536
G1 X115.825 Y90.188 E.06295
G1 X117.075 Y89.484 E.04499
G1 X118.816 Y88.711 E.05972
G1 X120.198 Y88.252 E.04566
G1 X122.055 Y87.828 E.05972
G1 X123.397 Y87.651 E.04244
G1 X125.021 Y87.581 E.05096
G1 X126.739 Y87.664 E.05393
G1 X128.749 Y87.985 E.06382
G1 X130.095 Y88.339 E.04364
G1 X131.937 Y89.017 E.06154
G1 X133.194 Y89.624 E.04376
G1 X134.926 Y90.68 E.06362
G1 X136.311 Y91.752 E.0549
G1 X137.586 Y92.949 E.05484
G1 X139.249 Y94.711 E.07598
G1 X139.624 Y95.212 E.01962
G1 X140.781 Y97.193 E.07193
G1 X141.045 Y97.802 E.02081
G1 X141.792 Y100.344 E.08306
G1 X142.208 Y102.251 E.06121
G1 X142.375 Y103.658 E.04441
G1 X142.415 Y105.663 E.06289
G1 X142.31 Y107.02 E.04266
G1 X141.969 Y108.978 E.06233
G1 X141.479 Y110.662 E.055
G1 X140.83 Y112.292 E.05501
G1 X139.884 Y114.069 E.06311
G1 X139.148 Y115.18 E.04179
G1 X138.122 Y116.468 E.05163
G1 X136.885 Y117.749 E.05582
G1 X135.685 Y118.767 E.04935
G1 X134.284 Y119.753 E.0537
G1 X132.511 Y120.729 E.06348
G1 X131.209 Y121.287 E.04439
G1 X129.378 Y121.872 E.06028
G1 X126.789 Y122.49 E.08345
G1 X126.168 Y122.565 E.01963
G1 X123.873 Y122.576 E.07194
G1 X123.214 Y122.5 E.02081
G1 X120.207 Y121.756 E.09714
G1 X118.709 Y121.256 E.04952
G1 X117.479 Y120.724 E.04202
G1 X115.793 Y119.8 E.06026
G1 X114.668 Y119.039 E.04259
G1 X113.139 Y117.772 E.06227
G1 X112.175 Y116.804 E.04285
G1 X110.909 Y115.257 E.06267
G1 X110.158 Y114.138 E.04223
G1 X109.37 Y112.704 E.0513
G1 X108.686 Y111.134 E.05371
G1 X108.182 Y109.561 E.05178
G1 X107.814 Y107.897 E.05343
G1 X107.621 Y106.264 E.05156
G1 X107.579 Y104.547 E.05384
G1 X107.749 Y102.538 E.06321
G1 X107.989 Y101.217 E.04211
G1 X108.962 Y97.811 E.11108
G1 X109.208 Y97.235 E.01963
G1 X110.345 Y95.242 E.07194
G1 X110.705 Y94.758 E.01893
M204 S1000
G1 X111.006 Y94.981 F10800
M204 S800
G1 F1200
G1 X113.119 Y92.779 E.0957
G1 X114.417 Y91.636 E.05422
G1 X116.03 Y90.505 E.06179
G1 X117.239 Y89.823 E.04352
G1 X118.958 Y89.061 E.05894
G1 X120.294 Y88.616 E.04415
G1 X122.127 Y88.198 E.05894
G1 X123.433 Y88.026 E.04133
G1 X125.019 Y87.958 E.04977
G1 X126.703 Y88.039 E.05284
G1 X128.674 Y88.355 E.0626
G1 X129.978 Y88.697 E.04228
G1 X131.793 Y89.366 E.06063
G1 X133.01 Y89.953 E.04239
G1 X134.71 Y90.989 E.06241
G1 X136.066 Y92.038 E.05377
G1 X137.314 Y93.211 E.0537
G1 X138.975 Y94.97 E.07584
G1 X139.298 Y95.403 E.01694
G1 X140.456 Y97.383 E.07193
G1 X140.683 Y97.909 E.01796
G1 X141.427 Y100.438 E.08265
G1 X141.837 Y102.318 E.06033
G1 X141.998 Y103.679 E.04299
G1 X142.038 Y105.647 E.06171
G1 X141.936 Y106.968 E.04153
G1 X141.602 Y108.89 E.06118
G1 X141.122 Y110.54 E.05387
G1 X140.487 Y112.136 E.05387
G1 X139.558 Y113.879 E.06192
G1 X138.841 Y114.961 E.04071
G1 X137.839 Y116.219 E.05041
G1 X136.633 Y117.469 E.05445
G1 X135.455 Y118.469 E.04844
G1 X134.082 Y119.434 E.05263
G1 X132.342 Y120.392 E.06229
G1 X131.082 Y120.932 E.04297
G1 X129.276 Y121.509 E.05946
G1 X126.702 Y122.123 E.08295
G1 X123.872 Y122.199 E.08879
G1 X123.303 Y122.133 E.01796
G1 X119.937 Y121.285 E.10882
G1 X117.648 Y120.387 E.07709
G1 X115.986 Y119.476 E.05945
G1 X114.89 Y118.734 E.04148
G1 X113.389 Y117.49 E.06113
G1 X112.451 Y116.547 E.04171
G1 X111.209 Y115.029 E.06151
G1 X110.479 Y113.939 E.04113
G1 X109.709 Y112.539 E.05011
G1 X109.039 Y111 E.05263
G1 X108.547 Y109.464 E.05056
G1 X108.186 Y107.833 E.05237
G1 X107.998 Y106.238 E.05035
G1 X107.956 Y104.556 E.05277
G1 X108.123 Y102.584 E.06203
G1 X108.358 Y101.297 E.04102
G1 X109.323 Y97.919 E.11018
G1 X109.536 Y97.422 E.01694
G1 X110.673 Y95.429 E.07194
G1 X110.97 Y95.029 E.01562
M204 S1000
;WIPE_START
M73 Q2 S24
G1 F8640
G1 X113.119 Y92.779 E-.71848
G1 X113.254 Y92.66 E-.04152
;WIPE_END
M73 P2 R24
G1 E-.04 F2100
G1 Z.6 F720
G1 X113.294 Y96.647 F10800
G1 Z.2 F720
G1 E.8 F2100
M204 S800
G1 F1200
G1 X114.079 Y95.638 E.04008
G1 X114.657 Y95.004 E.02691
G1 X115.27 Y94.406 E.02684
G1 X116.381 Y93.49 E.04514
G1 X117.58 Y92.678 E.04542
G1 X118.26 Y92.294 E.02446
G1 X118.756 Y92.048 E.01735
G1 X119.251 Y91.816 E.01716
G1 X119.964 Y91.527 E.0241
G1 X120.81 Y91.241 E.02803
G1 X121.335 Y91.097 E.01704
G1 X121.883 Y90.959 E.01773
G1 X122.638 Y90.813 E.02411
G1 X123.52 Y90.694 E.02791
G1 X124.06 Y90.652 E.01697
G1 X124.631 Y90.622 E.01792
G1 X125.422 Y90.623 E.0248
G1 X126.833 Y90.738 E.04439
G1 X128.214 Y90.981 E.04398
G1 X129.549 Y91.359 E.04349
G1 X130.86 Y91.865 E.04406
G1 X132.108 Y92.5 E.04392
G1 X133.286 Y93.243 E.04366
G1 X133.909 Y93.708 E.02437
G1 X134.348 Y94.074 E.01793
G1 X134.755 Y94.43 E.01696
G1 X135.405 Y95.069 E.02858
G1 X135.96 Y95.685 E.02598
G1 X136.485 Y96.339 E.02629
G1 X137.202 Y97.357 E.03906
G1 X137.416 Y97.837 E.01647
G1 X137.717 Y98.251 E.01605
G1 X138.178 Y99.232 E.03399
G1 X138.523 Y100.092 E.02905
G1 X138.945 Y101.48 E.04551
G1 X139.233 Y102.904 E.04553
G1 X139.325 Y103.676 E.02439
G1 X139.36 Y104.205 E.01662
G1 X139.385 Y104.775 E.01789
G1 X139.377 Y105.526 E.02355
G1 X139.316 Y106.433 E.02849
G1 X139.247 Y106.972 E.01704
G1 X139.163 Y107.531 E.01772
G1 X139.012 Y108.269 E.02364
G1 X138.777 Y109.147 E.0285
G1 X138.607 Y109.663 E.01704
G1 X138.417 Y110.197 E.01776
G1 X138.116 Y110.917 E.02447
G1 X137.45 Y112.205 E.04545
G1 X136.675 Y113.41 E.04492
G1 X135.787 Y114.519 E.04456
G1 X134.786 Y115.549 E.04503
G1 X133.739 Y116.429 E.04288
G1 X132.626 Y117.203 E.04251
G1 X131.428 Y117.871 E.043
G1 X130.189 Y118.423 E.04253
G1 X129.459 Y118.682 E.02428
G1 X128.915 Y118.843 E.0178
G1 X128.393 Y118.985 E.01695
G1 X127.511 Y119.17 E.02825
G1 X126.595 Y119.303 E.02903
G1 X125.511 Y119.395 E.03409
G1 X124.983 Y119.339 E.01667
G1 X124.415 Y119.394 E.0179
G1 X122.966 Y119.243 E.04565
G1 X121.534 Y118.967 E.04574
G1 X120.166 Y118.55 E.04484
G1 X118.856 Y118.013 E.04437
G1 X118.161 Y117.661 E.02443
G1 X117.699 Y117.395 E.01673
G1 X117.215 Y117.102 E.01774
G1 X116.59 Y116.677 E.02368
G1 X115.731 Y116.007 E.03418
G1 X115.101 Y115.444 E.02649
G1 X114.501 Y114.84 E.02668
G1 X113.913 Y114.172 E.0279
G1 X113.579 Y113.745 E.01701
G1 X113.239 Y113.289 E.01782
G1 X112.807 Y112.641 E.02441
G1 X112.12 Y111.405 E.04435
G1 X111.549 Y110.107 E.04446
G1 X111.122 Y108.784 E.04359
G1 X110.817 Y107.412 E.04405
G1 X110.653 Y106.022 E.04388
G1 X110.618 Y104.627 E.04378
G1 X110.66 Y103.854 E.02425
G1 X110.72 Y103.281 E.01807
G1 X110.956 Y101.882 E.04448
G1 X111.145 Y101.13 E.02433
G1 X111.312 Y100.589 E.01776
G1 X111.485 Y100.073 E.01705
G1 X111.824 Y99.226 E.0286
G1 X112.282 Y98.251 E.03377
G1 X112.585 Y97.834 E.01619
G1 X112.793 Y97.368 E.01599
G1 X113.26 Y96.696 E.02564
M204 S1000
G1 X113.57 Y96.912 F10800
M204 S800
G1 F1200
G1 X113.72 Y96.696 E.00825
G1 X114.362 Y95.888 E.03237
G1 X114.932 Y95.262 E.02653
G1 X115.528 Y94.682 E.02607
G1 X116.614 Y93.787 E.04412
G1 X117.772 Y93.002 E.04387
G1 X118.441 Y92.625 E.02406
G1 X118.921 Y92.387 E.01681
G1 X119.398 Y92.163 E.0165
G1 X120.1 Y91.879 E.02376
G1 X120.926 Y91.6 E.02733
G1 X121.432 Y91.461 E.01647
G1 X121.96 Y91.328 E.01706
G1 X122.704 Y91.184 E.02377
G1 X123.565 Y91.069 E.02723
G1 X124.086 Y91.028 E.0164
G1 X124.635 Y91 E.01723
G1 X125.414 Y91 E.02441
G1 X126.776 Y91.111 E.04286
G1 X128.121 Y91.347 E.04281
G1 X129.422 Y91.714 E.04237
G1 X130.698 Y92.206 E.04289
G1 X131.915 Y92.824 E.0428
G1 X133.067 Y93.549 E.04269
G1 X133.679 Y94.007 E.02397
G1 X134.102 Y94.359 E.01725
G1 X134.495 Y94.703 E.01638
G1 X135.129 Y95.326 E.02786
G1 X135.676 Y95.933 E.02562
G1 X136.187 Y96.57 E.02559
G1 X136.882 Y97.558 E.0379
G1 X137.088 Y98.027 E.01603
G1 X137.384 Y98.428 E.01566
G1 X137.834 Y99.387 E.03321
G1 X138.169 Y100.224 E.02828
G1 X138.577 Y101.564 E.04391
G1 X138.859 Y102.956 E.04452
G1 X138.95 Y103.716 E.02399
G1 X138.984 Y104.228 E.01609
G1 X139.008 Y104.776 E.01722
G1 X139 Y105.517 E.02322
G1 X138.94 Y106.401 E.02779
G1 X138.873 Y106.922 E.01646
G1 X138.793 Y107.46 E.01706
G1 X138.643 Y108.188 E.0233
G1 X138.414 Y109.045 E.02781
G1 X138.249 Y109.543 E.01646
G1 X138.067 Y110.056 E.01708
G1 X137.771 Y110.764 E.02406
G1 X137.128 Y112.008 E.0439
G1 X136.375 Y113.182 E.04372
G1 X135.51 Y114.263 E.04341
G1 X134.536 Y115.267 E.04385
G1 X133.516 Y116.124 E.04178
G1 X132.434 Y116.878 E.04136
G1 X131.266 Y117.53 E.04192
G1 X130.056 Y118.07 E.04157
G1 X129.338 Y118.325 E.02389
G1 X128.814 Y118.48 E.01713
G1 X128.31 Y118.617 E.01638
G1 X127.451 Y118.798 E.02752
G1 X126.557 Y118.927 E.02833
G1 X125.499 Y119.018 E.0333
G1 X124.985 Y118.959 E.01622
G1 X124.433 Y119.017 E.01738
G1 X123.013 Y118.869 E.04476
G1 X121.634 Y118.603 E.04405
G1 X120.3 Y118.198 E.0437
G1 X119.02 Y117.674 E.04338
G1 X118.336 Y117.327 E.02403
G1 X117.888 Y117.069 E.0162
G1 X117.423 Y116.788 E.01707
G1 X116.808 Y116.369 E.02333
G1 X115.977 Y115.722 E.03302
G1 X115.364 Y115.174 E.02577
G1 X114.78 Y114.587 E.02596
G1 X114.2 Y113.927 E.02755
G1 X113.877 Y113.514 E.01644
G1 X113.55 Y113.076 E.01715
G1 X113.125 Y112.439 E.02401
G1 X112.454 Y111.229 E.04336
G1 X111.905 Y109.982 E.04275
G1 X111.488 Y108.693 E.04247
G1 X111.19 Y107.358 E.04287
G1 X111.029 Y106.004 E.04276
G1 X110.995 Y104.639 E.0428
G1 X111.036 Y103.879 E.02386
G1 X111.095 Y103.327 E.01743
G1 X111.323 Y101.967 E.04323
G1 X111.509 Y101.227 E.02393
G1 X111.671 Y100.706 E.01709
G1 X111.837 Y100.208 E.01647
G1 X112.168 Y99.381 E.02792
G1 X112.615 Y98.429 E.03299
G1 X112.914 Y98.023 E.01579
G1 X113.113 Y97.567 E.01561
G1 X113.535 Y96.961 E.02315
M204 S1000
G1 X113.845 Y97.176 F10800
M204 S800
G1 F1200
G1 X114.026 Y96.916 E.00994
G1 X114.646 Y96.137 E.03122
G1 X115.2 Y95.528 E.02581
G1 X115.785 Y94.957 E.02565
G1 X116.833 Y94.094 E.04255
G1 X117.965 Y93.327 E.04287
G1 X118.622 Y92.956 E.02366
G1 X119.087 Y92.726 E.01627
G1 X119.544 Y92.511 E.01584
G1 X120.236 Y92.231 E.02342
G1 X121.041 Y91.959 E.02663
G1 X121.53 Y91.825 E.01589
G1 X122.037 Y91.697 E.0164
G1 X122.771 Y91.555 E.02343
G1 X123.609 Y91.443 E.02654
G1 X124.113 Y91.405 E.01583
G1 X124.64 Y91.377 E.01655
G1 X125.406 Y91.377 E.02401
G1 X126.737 Y91.486 E.04187
G1 X128.046 Y91.717 E.04169
G1 X129.31 Y92.074 E.0412
G1 X130.553 Y92.554 E.04177
G1 X131.721 Y93.148 E.04109
G1 X132.847 Y93.856 E.0417
G1 X133.449 Y94.306 E.02358
G1 X133.855 Y94.645 E.01657
G1 X134.235 Y94.976 E.01581
G1 X134.853 Y95.583 E.02715
G1 X135.386 Y96.173 E.02492
G1 X135.889 Y96.801 E.02523
G1 X136.562 Y97.758 E.0367
G1 X136.759 Y98.217 E.01563
G1 X137.051 Y98.607 E.01529
G1 X137.491 Y99.542 E.03241
G1 X137.816 Y100.357 E.02751
G1 X138.214 Y101.665 E.04287
G1 X138.486 Y103.008 E.04296
G1 X138.575 Y103.755 E.02359
G1 X138.607 Y104.25 E.01556
G1 X138.63 Y104.778 E.01655
G1 X138.623 Y105.508 E.02288
G1 X138.564 Y106.37 E.02709
G1 X138.499 Y106.872 E.01588
G1 X138.422 Y107.389 E.0164
G1 X138.275 Y108.106 E.02296
G1 X138.051 Y108.942 E.02711
G1 X137.892 Y109.422 E.01588
G1 X137.717 Y109.916 E.01642
G1 X137.426 Y110.612 E.02366
G1 X136.797 Y111.827 E.0429
G1 X136.063 Y112.97 E.04258
G1 X135.221 Y114.02 E.04221
G1 X134.286 Y114.984 E.04212
G1 X133.293 Y115.82 E.04069
G1 X132.241 Y116.554 E.04021
G1 X131.105 Y117.189 E.04083
G1 X129.922 Y117.717 E.0406
G1 X129.216 Y117.968 E.02349
G1 X128.713 Y118.117 E.01646
G1 X128.227 Y118.249 E.0158
G1 X127.391 Y118.425 E.02678
G1 X126.519 Y118.552 E.02761
G1 X125.487 Y118.64 E.03249
G1 X124.986 Y118.579 E.0158
G1 X124.451 Y118.639 E.01689
G1 X123.076 Y118.497 E.04334
G1 X121.734 Y118.239 E.04287
G1 X120.435 Y117.845 E.04256
G1 X119.184 Y117.334 E.04238
G1 X118.511 Y116.993 E.02363
G1 X118.078 Y116.744 E.01567
G1 X117.631 Y116.473 E.0164
G1 X117.025 Y116.061 E.02298
G1 X116.223 Y115.436 E.03185
G1 X115.627 Y114.904 E.02506
G1 X115.059 Y114.333 E.02524
G1 X114.487 Y113.682 E.02719
G1 X114.175 Y113.284 E.01586
G1 X113.861 Y112.863 E.01648
G1 X113.443 Y112.236 E.02361
G1 X112.795 Y111.069 E.04184
G1 X112.261 Y109.856 E.04157
G1 X111.854 Y108.602 E.04135
G1 X111.563 Y107.304 E.04169
G1 X111.406 Y105.985 E.04164
G1 X111.372 Y104.652 E.04181
G1 X111.412 Y103.905 E.02347
G1 X111.469 Y103.372 E.01679
G1 X111.691 Y102.052 E.04199
G1 X111.874 Y101.324 E.02353
G1 X112.029 Y100.823 E.01643
G1 X112.189 Y100.343 E.01589
G1 X112.512 Y99.536 E.02722
G1 X112.948 Y98.607 E.03219
G1 X113.243 Y98.214 E.01543
G1 X113.434 Y97.766 E.01525
G1 X113.81 Y97.226 E.02065
M204 S1000
G1 X114.12 Y97.441 F10800
M204 S800
G1 F1200
G1 X114.332 Y97.137 E.01164
G1 X114.929 Y96.386 E.03007
G1 X115.467 Y95.794 E.02508
G1 X116.043 Y95.232 E.02522
G1 X117.066 Y94.391 E.04153
G1 X118.157 Y93.651 E.04132
G1 X118.802 Y93.287 E.02325
G1 X119.249 Y93.066 E.01562
G1 X119.69 Y92.859 E.01529
G1 X120.373 Y92.582 E.02308
G1 X121.156 Y92.318 E.02593
G1 X121.627 Y92.19 E.01531
G1 X122.114 Y92.067 E.01573
G1 X122.837 Y91.926 E.02309
G1 X123.654 Y91.817 E.02584
G1 X124.139 Y91.781 E.01526
G1 X124.645 Y91.754 E.01587
G1 X125.398 Y91.754 E.02361
G1 X126.68 Y91.859 E.04034
G1 X127.953 Y92.082 E.04052
G1 X129.183 Y92.429 E.04007
G1 X130.391 Y92.895 E.04059
G1 X131.528 Y93.472 E.03997
G1 X132.627 Y94.163 E.04072
G1 X133.22 Y94.605 E.02318
G1 X133.609 Y94.93 E.0159
G1 X133.975 Y95.25 E.01523
G1 X134.577 Y95.84 E.02643
G1 X135.102 Y96.421 E.02457
G1 X135.591 Y97.032 E.02452
G1 X136.241 Y97.958 E.03548
G1 X136.429 Y98.407 E.01526
G1 X136.719 Y98.786 E.01496
G1 X137.147 Y99.698 E.03158
G1 X137.463 Y100.489 E.02673
M73 Q3 S24
G1 X137.85 Y101.766 E.04183
M73 P3 R24
G1 X138.112 Y103.06 E.0414
G1 X138.2 Y103.795 E.02319
G1 X138.231 Y104.273 E.01503
G1 X138.253 Y104.779 E.01588
G1 X138.246 Y105.498 E.02255
G1 X138.188 Y106.338 E.02639
G1 X138.126 Y106.822 E.0153
G1 X138.052 Y107.319 E.01574
G1 X137.907 Y108.025 E.02262
G1 X137.689 Y108.838 E.0264
G1 X137.535 Y109.301 E.0153
G1 X137.367 Y109.775 E.01576
G1 X137.081 Y110.46 E.02325
G1 X136.475 Y111.631 E.04135
G1 X135.762 Y112.742 E.04138
G1 X134.944 Y113.764 E.04106
G1 X134.036 Y114.702 E.04094
G1 X133.07 Y115.516 E.03959
G1 X132.049 Y116.229 E.03906
G1 X130.943 Y116.848 E.03974
G1 X129.789 Y117.364 E.03963
G1 X129.095 Y117.611 E.0231
G1 X128.612 Y117.753 E.0158
G1 X128.143 Y117.881 E.01523
G1 X127.33 Y118.053 E.02605
G1 X126.482 Y118.177 E.02689
G1 X125.476 Y118.263 E.03165
G1 X124.988 Y118.199 E.01542
G1 X124.468 Y118.262 E.01642
G1 X123.123 Y118.123 E.04239
G1 X121.815 Y117.871 E.04178
G1 X120.553 Y117.487 E.04136
G1 X119.347 Y116.994 E.04084
G1 X118.686 Y116.659 E.02323
