; generated by PrusaSlicer 2.4.0+win64 on 2022-08-10 at 15:22:10 UTC

; 

; external perimeters extrusion width = 0.45mm
; perimeters extrusion width = 0.45mm
; infill extrusion width = 0.45mm
; solid infill extrusion width = 0.45mm
; top infill extrusion width = 0.40mm
; first layer extrusion width = 0.42mm

M73 P0 R24
M73 C1
M73 Q0 S24
M73 D1
M201 X1000 Y1000 Z200 E5000 ; sets maximum accelerations, mm/sec^2
M203 X200 Y200 Z12 E120 ; sets maximum feedrates, mm/sec
M204 P1250 R1250 T1250 ; sets acceleration (P, T) and retract acceleration (R), mm/sec^2
M205 X8.00 Y8.00 Z0.40 E4.50 ; sets the jerk limits, mm/sec
M205 S0 T0 ; sets the minimum extruding and travel feed rate, mm/sec
M107
;TYPE:Custom
M862.3 P "MK3SMMU2S" ; printer model check
M862.1 P0.4 ; nozzle diameter check
M115 U3.10.0 ; tell printer latest fw version
G90 ; use absolute coordinates
M83 ; extruder relative mode
M104 S215 ; set extruder temp
M140 S60 ; set bed temp
Tx
M190 S60 ; wait for bed temp
M109 S215 ; wait for extruder temp
G28 W ; home all without mesh bed level
G80 ; mesh bed leveling

;go outside print area
G1 Y-3 F1000
G1 Z0.4 F1000
; select extruder
Tc
; purge line
G1 X55 F2000
G1 Z0.3 F1000
G92 E0
G1 X240 E25 F2200
G1 Y-2 F1000
G1 X55 E25 F1400
G1 Z0.2 F1000
M73 P1 R24
M73 Q1 S24
G1 X5 E4 F1000

M221 S95
G92 E0

; Don't change E values below. Excessive value can damage the printer.
M907 E430 ; set extruder motor current
G21 ; set units to millimeters
G90 ; use absolute coordinates
M83 ; use relative distances for extrusion
M900 K0.05 ; Filament gcode LA 1.5
M900 K30 ; Filament gcode LA 1.0
M107
;LAYER_CHANGE
;Z:0.2
;HEIGHT:0.2
;BEFORE_LAYER_CHANGE
G92 E0.0
;0.2


G1 E-.8 F2100
G1 Z.4 F720
;AFTER_LAYER_CHANGE
;0.2
G1 X110.741 Y94.71 F10800
G1 Z.2 F720
G1 E.8 F2100
M204 S800
;TYPE:Skirt/Brim
;WIDTH:0.42
G1 F1200
G1 X112.857 Y92.509 E.09572
G1 X114.182 Y91.341 E.05536
G1 X115.825 Y90.188 E.06295
G1 X117.075 Y89.484 E.04499
G1 X118.816 Y88.711 E.05972
G1 X120.198 Y88.252 E.04566
G1 X122.055 Y87.828 E.05972
G1 X123.397 Y87.651 E.04244
G1 X125.021 Y87.581 E.05096
G1 X126.739 Y87.664 E.05393
G1 X128.749 Y87.985 E.06382
G1 X130.095 Y88.339 E.04365
G1 X131.937 Y89.017 E.06154
G1 X133.194 Y89.624 E.04376
G1 X134.926 Y90.68 E.06362
G1 X136.311 Y91.751 E.0549
G1 X137.586 Y92.949 E.05484
G1 X139.249 Y94.711 E.07598
G1 X139.624 Y95.212 E.01963
G1 X140.781 Y97.193 E.07194
G1 X141.045 Y97.803 E.02081
G1 X141.792 Y100.344 E.08305
G1 X142.208 Y102.251 E.06121
G1 X142.375 Y103.658 E.0444
G1 X142.415 Y105.663 E.06289
G1 X142.31 Y107.02 E.04266
G1 X141.969 Y108.978 E.06233
G1 X141.479 Y110.662 E.055
G1 X140.83 Y112.292 E.05501
G1 X139.884 Y114.068 E.0631
G1 X139.148 Y115.18 E.0418
G1 X138.118 Y116.472 E.05178
G1 X136.885 Y117.749 E.05567
G1 X135.685 Y118.767 E.04935
G1 X134.284 Y119.753 E.0537
G1 X132.511 Y120.729 E.06348
G1 X131.209 Y121.287 E.04439
G1 X129.378 Y121.872 E.06028
G1 X126.789 Y122.49 E.08345
G1 X126.168 Y122.565 E.01963
G1 X123.874 Y122.576 E.07194
G1 X123.214 Y122.5 E.02081
G1 X120.207 Y121.756 E.09713
G1 X118.708 Y121.256 E.04956
G1 X117.479 Y120.724 E.04199
G1 X115.793 Y119.8 E.06026
G1 X114.668 Y119.039 E.04259
G1 X113.139 Y117.772 E.06227
G1 X112.175 Y116.804 E.04285
G1 X110.909 Y115.257 E.06267
G1 X110.158 Y114.138 E.04223
G1 X109.372 Y112.708 E.05118
G1 X108.686 Y111.134 E.05384
G1 X108.184 Y109.566 E.05162
G1 X107.814 Y107.897 E.05359
G1 X107.621 Y106.264 E.05156
G1 X107.579 Y104.547 E.05384
G1 X107.748 Y102.54 E.06318
G1 X107.989 Y101.217 E.04215
G1 X108.962 Y97.811 E.11108
G1 X109.208 Y97.235 E.01963
G1 X110.345 Y95.242 E.07194
G1 X110.705 Y94.758 E.01893
M204 S1000
G1 X111.006 Y94.981 F10800
M204 S800
G1 F1200
G1 X113.119 Y92.779 E.0957
G1 X114.417 Y91.636 E.05422
G1 X116.03 Y90.505 E.06179
G1 X117.239 Y89.823 E.04352
G1 X118.958 Y89.061 E.05894
G1 X120.294 Y88.616 E.04415
G1 X122.127 Y88.198 E.05894
G1 X123.433 Y88.026 E.04133
G1 X125.019 Y87.958 E.04977
G1 X126.703 Y88.039 E.05284
G1 X128.674 Y88.355 E.0626
G1 X129.978 Y88.697 E.04228
G1 X131.793 Y89.366 E.06063
G1 X133.01 Y89.953 E.04239
G1 X134.71 Y90.989 E.0624
G1 X136.066 Y92.038 E.05377
G1 X137.314 Y93.211 E.0537
G1 X138.975 Y94.97 E.07584
G1 X139.298 Y95.403 E.01694
G1 X140.456 Y97.384 E.07194
G1 X140.683 Y97.909 E.01796
G1 X141.427 Y100.438 E.08264
G1 X141.837 Y102.318 E.06032
G1 X141.998 Y103.679 E.04298
G1 X142.038 Y105.647 E.06171
G1 X141.936 Y106.968 E.04154
G1 X141.602 Y108.89 E.06118
G1 X141.122 Y110.54 E.05387
G1 X140.487 Y112.136 E.05386
G1 X139.558 Y113.879 E.06191
G1 X138.841 Y114.961 E.04072
G1 X137.836 Y116.222 E.05056
G1 X136.633 Y117.469 E.05431
G1 X135.455 Y118.469 E.04844
G1 X134.082 Y119.434 E.05263
G1 X132.342 Y120.392 E.06229
G1 X131.082 Y120.932 E.04297
G1 X129.276 Y121.509 E.05946
G1 X126.702 Y122.123 E.08295
G1 X123.872 Y122.199 E.08879
G1 X123.303 Y122.133 E.01796
G1 X119.937 Y121.285 E.10881
G1 X117.648 Y120.387 E.0771
G1 X115.986 Y119.476 E.05945
G1 X114.89 Y118.734 E.04148
G1 X113.389 Y117.49 E.06113
G1 X112.451 Y116.547 E.04171
G1 X111.209 Y115.029 E.06151
G1 X110.478 Y113.939 E.04113
G1 X109.711 Y112.542 E.04998
G1 X109.039 Y111 E.05276
G1 X108.548 Y109.469 E.05041
G1 X108.186 Y107.833 E.05252
G1 X107.998 Y106.238 E.05035
G1 X107.956 Y104.556 E.05277
G1 X108.123 Y102.586 E.062
G1 X108.358 Y101.297 E.04105
G1 X109.323 Y97.919 E.11018
M73 Q2 S24
G1 X109.536 Y97.422 E.01694
M73 P2 R24
G1 X110.673 Y95.429 E.07194
G1 X110.97 Y95.029 E.01562
M204 S1000
;WIPE_START
G1 F8640
G1 X113.119 Y92.779 E-.71849
G1 X113.254 Y92.66 E-.04151
;WIPE_END
G1 E-.04 F2100
G1 Z.6 F720
G1 X113.294 Y96.647 F10800
G1 Z.2 F720
G1 E.8 F2100
M204 S800
G1 F1200
G1 X114.079 Y95.638 E.04008
G1 X114.657 Y95.004 E.02691
G1 X115.27 Y94.406 E.02684
G1 X116.381 Y93.49 E.04513
G1 X117.58 Y92.678 E.04544
G1 X118.26 Y92.294 E.02446
G1 X118.75 Y92.051 E.01714
G1 X119.251 Y91.816 E.01738
G1 X119.964 Y91.527 E.0241
G1 X120.81 Y91.241 E.02803
G1 X121.335 Y91.097 E.01705
G1 X121.883 Y90.959 E.01773
G1 X122.638 Y90.813 E.02411
G1 X123.52 Y90.694 E.02791
G1 X124.06 Y90.652 E.01697
G1 X124.631 Y90.622 E.01792
G1 X125.422 Y90.623 E.0248
G1 X126.815 Y90.736 E.04383
G1 X128.196 Y90.977 E.04394
G1 X129.549 Y91.359 E.0441
G1 X130.843 Y91.858 E.04346
G1 X132.093 Y92.492 E.04397
G1 X133.287 Y93.243 E.04421
G1 X133.909 Y93.708 E.02437
G1 X134.348 Y94.074 E.01793
G1 X134.755 Y94.43 E.01696
G1 X135.405 Y95.069 E.02855
G1 X135.958 Y95.682 E.02589
G1 X136.479 Y96.332 E.02614
G1 X137.201 Y97.356 E.03928
G1 X137.416 Y97.836 E.01651
G1 X137.717 Y98.251 E.01606
G1 X138.178 Y99.232 E.03399
G1 X138.523 Y100.092 E.02905
G1 X138.945 Y101.481 E.0455
G1 X139.233 Y102.904 E.04552
G1 X139.325 Y103.676 E.0244
G1 X139.363 Y104.253 E.01814
G1 X139.372 Y105.665 E.04427
G1 X139.315 Y106.443 E.02446
G1 X139.243 Y107.002 E.01767
G1 X139.161 Y107.542 E.0171
G1 X138.973 Y108.429 E.02842
G1 X138.774 Y109.158 E.02371
G1 X138.595 Y109.696 E.01778
G1 X138.413 Y110.207 E.01701
G1 X138.058 Y111.042 E.02846
G1 X137.725 Y111.715 E.02352
G1 X137.442 Y112.22 E.01815
G1 X136.624 Y113.48 E.04712
G1 X135.759 Y114.551 E.04316
G1 X134.786 Y115.55 E.04372
G1 X133.739 Y116.429 E.04287
G1 X132.624 Y117.204 E.04258
G1 X131.428 Y117.871 E.04292
G1 X130.189 Y118.423 E.04254
G1 X129.459 Y118.682 E.02428
G1 X128.915 Y118.843 E.0178
G1 X128.393 Y118.985 E.01695
G1 X127.512 Y119.17 E.02823
G1 X126.603 Y119.302 E.02881
G1 X125.513 Y119.395 E.03429
G1 X124.983 Y119.339 E.01671
G1 X124.414 Y119.394 E.01791
G1 X122.966 Y119.243 E.04566
G1 X121.534 Y118.967 E.04573
G1 X120.179 Y118.555 E.04441
G1 X118.856 Y118.013 E.04481
G1 X118.161 Y117.661 E.02444
G1 X117.68 Y117.384 E.01742
G1 X117.213 Y117.101 E.01713
G1 X116.559 Y116.654 E.02483
G1 X115.73 Y116.006 E.03299
G1 X115.083 Y115.427 E.02723
G1 X114.468 Y114.804 E.02743
G1 X113.912 Y114.171 E.02642
G1 X113.579 Y113.746 E.01693
G1 X113.239 Y113.289 E.01785
G1 X112.807 Y112.641 E.02443
G1 X112.104 Y111.373 E.04545
G1 X111.525 Y110.043 E.04548
G1 X111.102 Y108.71 E.04385
G1 X110.805 Y107.344 E.04383
G1 X110.648 Y105.958 E.04375
G1 X110.621 Y104.537 E.04454
G1 X110.731 Y103.199 E.04211
G1 X110.956 Y101.881 E.04192
G1 X111.145 Y101.13 E.02429
G1 X111.312 Y100.589 E.01776
G1 X111.485 Y100.073 E.01705
G1 X111.824 Y99.226 E.02861
G1 X112.282 Y98.251 E.03376
G1 X112.585 Y97.833 E.01619
G1 X112.793 Y97.368 E.01599
G1 X113.26 Y96.696 E.02564
M204 S1000
G1 X113.57 Y96.912 F10800
M204 S800
G1 F1200
G1 X113.72 Y96.696 E.00825
G1 X114.363 Y95.887 E.03238
G1 X114.925 Y95.27 E.02619
G1 X115.528 Y94.681 E.02642
G1 X116.613 Y93.787 E.0441
G1 X117.772 Y93.002 E.04389
G1 X118.441 Y92.625 E.02406
G1 X118.915 Y92.39 E.0166
G1 X119.398 Y92.163 E.01671
G1 X120.1 Y91.879 E.02376
G1 X120.926 Y91.6 E.02733
G1 X121.432 Y91.461 E.01647
G1 X121.96 Y91.328 E.01706
G1 X122.704 Y91.184 E.02377
G1 X123.565 Y91.069 E.02723
G1 X124.086 Y91.028 E.0164
G1 X124.635 Y91 E.01723
G1 X125.414 Y91 E.02441
G1 X126.776 Y91.111 E.04285
G1 X128.121 Y91.347 E.04282
G1 X129.438 Y91.72 E.04292
G1 X130.698 Y92.206 E.04234
G1 X131.915 Y92.824 E.0428
G1 X133.067 Y93.549 E.04269
G1 X133.679 Y94.007 E.02397
G1 X134.102 Y94.359 E.01724
G1 X134.495 Y94.703 E.01638
G1 X135.129 Y95.325 E.02784
G1 X135.674 Y95.93 E.02553
G1 X136.182 Y96.563 E.02544
G1 X136.882 Y97.557 E.03811
G1 X137.087 Y98.026 E.01607
G1 X137.384 Y98.428 E.01566
G1 X137.834 Y99.387 E.03321
G1 X138.17 Y100.225 E.02829
G1 X138.577 Y101.564 E.0439
G1 X138.859 Y102.956 E.04452
G1 X138.95 Y103.716 E.024
G1 X138.987 Y104.273 E.0175
G1 X138.995 Y105.645 E.04304
G1 X138.939 Y106.41 E.02406
G1 X138.869 Y106.948 E.01701
G1 X138.791 Y107.469 E.01652
G1 X138.608 Y108.335 E.02773
G1 X138.412 Y109.054 E.02337
G1 X138.239 Y109.571 E.01711
G1 X138.063 Y110.065 E.01643
G1 X137.718 Y110.88 E.02777
G1 X137.389 Y111.543 E.02319
G1 X137.116 Y112.03 E.0175
G1 X136.325 Y113.251 E.04563
G1 X135.482 Y114.294 E.04204
G1 X134.536 Y115.267 E.04256
G1 X133.516 Y116.124 E.04177
G1 X132.432 Y116.88 E.04143
G1 X131.267 Y117.53 E.04183
G1 X130.056 Y118.07 E.04157
G1 X129.338 Y118.325 E.02389
G1 X128.814 Y118.48 E.01712
G1 X128.31 Y118.617 E.01638
G1 X127.452 Y118.797 E.0275
G1 X126.565 Y118.926 E.0281
G1 X125.5 Y119.018 E.0335
G1 X124.985 Y118.959 E.01626
G1 X124.433 Y119.017 E.01739
G1 X123.013 Y118.869 E.04477
G1 X121.634 Y118.603 E.04404
G1 X120.313 Y118.202 E.04328
G1 X119.02 Y117.674 E.04381
G1 X118.336 Y117.327 E.02403
G1 X117.873 Y117.06 E.01675
G1 X117.421 Y116.786 E.01658
G1 X116.776 Y116.346 E.02448
G1 X115.976 Y115.721 E.03183
G1 X115.347 Y115.157 E.0265
G1 X114.747 Y114.551 E.02672
G1 X114.199 Y113.926 E.02607
G1 X113.878 Y113.515 E.01637
G1 X113.55 Y113.076 E.01718
G1 X113.125 Y112.438 E.02403
G1 X112.438 Y111.198 E.04444
G1 X111.881 Y109.92 E.04372
G1 X111.469 Y108.621 E.04272
G1 X111.179 Y107.292 E.04266
G1 X111.025 Y105.941 E.04262
G1 X110.998 Y104.559 E.04336
G1 X111.104 Y103.254 E.04104
G1 X111.323 Y101.966 E.04097
G1 X111.509 Y101.227 E.0239
G1 X111.671 Y100.706 E.01709
G1 X111.837 Y100.208 E.01647
G1 X112.168 Y99.381 E.02792
G1 X112.615 Y98.429 E.03299
G1 X112.914 Y98.023 E.01579
G1 X113.113 Y97.567 E.01561
G1 X113.535 Y96.961 E.02315
M204 S1000
G1 X113.845 Y97.177 F10800
M204 S800
G1 F1200
G1 X114.026 Y96.916 E.00995
G1 X114.646 Y96.137 E.03122
G1 X115.2 Y95.528 E.02581
G1 X115.785 Y94.957 E.02564
G1 X116.832 Y94.094 E.04253
G1 X117.965 Y93.327 E.04289
G1 X118.622 Y92.956 E.02366
G1 X119.081 Y92.729 E.01606
G1 X119.544 Y92.511 E.01605
G1 X120.236 Y92.231 E.02342
G1 X121.041 Y91.959 E.02663
G1 X121.53 Y91.825 E.01589
G1 X122.037 Y91.697 E.01639
G1 X122.771 Y91.555 E.02343
G1 X123.609 Y91.443 E.02654
G1 X124.113 Y91.405 E.01583
G1 X124.64 Y91.377 E.01655
G1 X125.406 Y91.377 E.02401
G1 X126.72 Y91.484 E.04133
G1 X128.028 Y91.712 E.04164
G1 X129.311 Y92.075 E.0418
G1 X130.536 Y92.547 E.04116
G1 X131.721 Y93.148 E.04168
G1 X132.847 Y93.856 E.0417
G1 X133.449 Y94.306 E.02358
G1 X133.855 Y94.645 E.01657
G1 X134.235 Y94.976 E.0158
G1 X134.853 Y95.582 E.02713
G1 X135.383 Y96.17 E.02483
G1 X135.884 Y96.794 E.02508
G1 X136.562 Y97.757 E.03692
G1 X136.758 Y98.216 E.01567
G1 X137.051 Y98.607 E.0153
G1 X137.491 Y99.542 E.03241
G1 X137.816 Y100.357 E.02751
G1 X138.214 Y101.665 E.04287
G1 X138.486 Y103.008 E.04296
G1 X138.575 Y103.755 E.0236
G1 X138.61 Y104.292 E.01685
G1 X138.619 Y105.625 E.0418
G1 X138.563 Y106.377 E.02366
G1 X138.496 Y106.894 E.01635
G1 X138.421 Y107.397 E.01593
G1 X138.243 Y108.24 E.02703
G1 X138.049 Y108.949 E.02304
G1 X137.884 Y109.447 E.01645
G1 X137.714 Y109.923 E.01585
G1 X137.377 Y110.718 E.02707
G1 X137.054 Y111.371 E.02286
G1 X136.79 Y111.84 E.01685
G1 X136.025 Y113.022 E.04415
G1 X135.205 Y114.038 E.04092
G1 X134.286 Y114.985 E.0414
G1 X133.293 Y115.82 E.04067
G1 X132.239 Y116.555 E.04028
G1 X131.105 Y117.189 E.04074
G1 X129.923 Y117.717 E.04061
G1 X129.216 Y117.968 E.0235
G1 X128.713 Y118.117 E.01646
G1 X128.227 Y118.249 E.0158
G1 X127.391 Y118.425 E.02677
G1 X126.527 Y118.551 E.02739
G1 X125.488 Y118.64 E.03269
G1 X124.987 Y118.579 E.01584
G1 X124.451 Y118.639 E.01689
G1 X123.06 Y118.495 E.04385
G1 X121.715 Y118.235 E.04296
G1 X120.431 Y117.844 E.04208
G1 X119.184 Y117.334 E.04227
G1 X118.511 Y116.993 E.02364
G1 X118.067 Y116.737 E.01609
G1 X117.629 Y116.472 E.01604
G1 X117.004 Y116.045 E.02375
G1 X116.223 Y115.436 E.03105
G1 X115.611 Y114.888 E.02577
G1 X115.027 Y114.299 E.026
G1 X114.486 Y113.682 E.02572
G1 X114.176 Y113.284 E.01581
G1 X113.861 Y112.863 E.01651
G1 X113.443 Y112.236 E.02363
G1 X112.78 Y111.039 E.04288
G1 X112.238 Y109.796 E.04253
G1 X111.835 Y108.532 E.04159
G1 X111.552 Y107.239 E.04148
G1 X111.402 Y105.925 E.04149
G1 X111.374 Y104.579 E.04219
G1 X111.477 Y103.309 E.03997
G1 X111.691 Y102.051 E.04001
G1 X111.874 Y101.324 E.02351
G1 X112.029 Y100.823 E.01643
G1 X112.189 Y100.343 E.01589
G1 X112.512 Y99.536 E.02723
G1 X112.948 Y98.607 E.03218
G1 X113.243 Y98.214 E.01543
G1 X113.434 Y97.766 E.01525
G1 X113.81 Y97.226 E.02064
M204 S1000
G1 X114.12 Y97.441 F10800
M204 S800
G1 F1200
G1 X114.332 Y97.136 E.01164
G1 X114.929 Y96.386 E.03007
G1 X115.467 Y95.794 E.02509
G1 X116.043 Y95.232 E.02521
G1 X117.065 Y94.391 E.04151
G1 X118.157 Y93.651 E.04134
G1 X118.802 Y93.287 E.02325
G1 X119.246 Y93.068 E.01552
G1 X119.69 Y92.859 E.01539
G1 X120.373 Y92.582 E.02308
G1 X121.156 Y92.318 E.02593
G1 X121.627 Y92.19 E.01531
G1 X122.114 Y92.067 E.01573
G1 X122.837 Y91.926 E.02309
G1 X123.654 Y91.817 E.02584
G1 X124.139 Y91.781 E.01526
G1 X124.645 Y91.754 E.01587
G1 X125.398 Y91.754 E.02361
G1 X126.68 Y91.859 E.04034
G1 X127.953 Y92.082 E.04052
G1 X129.2 Y92.435 E.04062
G1 X130.391 Y92.895 E.04004
G1 X131.543 Y93.48 E.0405
M73 Q3 S24
G1 X132.627 Y94.163 E.04018
M73 P3 R24
G1 X133.22 Y94.605 E.02318
G1 X133.609 Y94.93 E.0159
G1 X133.975 Y95.25 E.01523
G1 X134.577 Y95.839 E.02642
G1 X135.1 Y96.419 E.02448
G1 X135.586 Y97.026 E.02438
G1 X136.241 Y97.957 E.0357
G1 X136.429 Y98.407 E.01529
G1 X136.719 Y98.786 E.01496
G1 X137.147 Y99.698 E.03158
G1 X137.463 Y100.489 E.02673
G1 X137.85 Y101.766 E.04183
G1 X138.112 Y103.06 E.0414
G1 X138.2 Y103.795 E.0232
G1 X138.233 Y104.311 E.01621
G1 X138.242 Y105.605 E.04058
G1 X138.188 Y106.344 E.02325
G1 X138.123 Y106.841 E.01569
G1 X138.051 Y107.325 E.01535
G1 X137.878 Y108.146 E.02632
G1 X137.687 Y108.845 E.02269
G1 X137.528 Y109.322 E.01579
G1 X137.364 Y109.781 E.01527
G1 X137.037 Y110.556 E.02637
G1 X136.718 Y111.2 E.02253
G1 X136.465 Y111.65 E.0162
G1 X135.725 Y112.793 E.04268
G1 X134.929 Y113.781 E.0398
G1 X134.035 Y114.703 E.04023
G1 X133.07 Y115.516 E.03958
G1 X132.047 Y116.231 E.03913
G1 X130.943 Y116.848 E.03965
G1 X129.789 Y117.364 E.03964
G1 X129.095 Y117.611 E.0231
G1 X128.612 Y117.753 E.01579
G1 X128.143 Y117.881 E.01523
G1 X127.331 Y118.053 E.02603
G1 X126.489 Y118.176 E.02668
G1 X125.477 Y118.263 E.03185
G1 X124.988 Y118.199 E.01545
G1 X124.468 Y118.262 E.01643
G1 X123.123 Y118.123 E.04239
G1 X121.815 Y117.871 E.04177
G1 X120.566 Y117.492 E.04094
G1 X119.347 Y116.994 E.04127
G1 X118.686 Y116.659 E.02323
G1 X118.26 Y116.413 E.01543
G1 X117.837 Y116.157 E.01549
G1 X117.231 Y115.744 E.02302
G1 X116.47 Y115.15 E.03027
